ncols         160
nrows         140
xllcorner     380110.000
yllcorner     2040165.000
cellsize      0.5000
NODATA_value  -9999
542.44 542.44 542.45 542.45 542.45 542.45 542.46 542.46 542.46 542.46 542.47 542.47 542.47 542.47 542.48 542.48 542.48 542.48 542.49 542.49 542.49 542.49 542.50 542.50 542.50 542.50 542.51 542.51 542.51 542.51 542.52 542.52 542.52 542.52 542.53 542.53 542.53 542.53 542.54 542.54 542.54 542.54 542.55 542.55 542.55 542.55 542.56 542.56 542.56 542.56 542.57 542.57 542.57 542.57 542.58 542.58 542.58 542.58 542.59 542.59 542.59 542.59 542.60 542.60 542.60 542.60 542.61 542.61 542.61 542.61 542.62 542.62 542.62 542.62 542.63 542.63 542.63 542.63 542.64 542.64 542.64 542.64 542.65 542.65 542.65 542.65 542.66 542.66 542.66 542.66 542.67 542.67 542.67 542.67 542.68 542.68 542.68 542.68 542.69 542.69 542.69 542.69 542.70 542.70 542.70 542.70 542.71 542.71 542.71 542.71 542.72 542.72 542.72 542.72 542.73 542.73 542.73 542.73 542.74 542.74 542.74 542.74 542.75 542.75 542.75 542.75 542.76 542.76 542.76 542.76 542.77 542.77 542.77 542.77 542.78 542.78 542.78 542.78 542.79 542.79 542.79 542.79 542.80 542.80 542.80 542.80 542.81 542.81 542.81 542.81 542.82 542.82 542.82 542.82 542.83 542.83 542.83 542.83 542.84 542.84
542.44 542.44 542.44 542.45 542.45 542.45 542.45 542.46 542.46 542.46 542.46 542.47 542.47 542.47 542.47 542.48 542.48 542.48 542.48 542.49 542.49 542.49 542.49 542.50 542.50 542.50 542.50 542.51 542.51 542.51 542.51 542.52 542.52 542.52 542.52 542.53 542.53 542.53 542.53 542.54 542.54 542.54 542.54 542.55 542.55 542.55 542.55 542.56 542.56 542.56 542.56 542.57 542.57 542.57 542.57 542.58 542.58 542.58 542.58 542.59 542.59 542.59 542.59 542.60 542.60 542.60 542.60 542.61 542.61 542.61 542.61 542.62 542.62 542.62 542.62 542.63 542.63 542.63 542.63 542.64 542.64 542.64 542.64 542.65 542.65 542.65 542.65 542.66 542.66 542.66 542.66 542.67 542.67 542.67 542.67 542.68 542.68 542.68 542.68 542.69 542.69 542.69 542.69 542.70 542.70 542.70 542.70 542.71 542.71 542.71 542.71 542.72 542.72 542.72 542.72 542.73 542.73 542.73 542.73 542.74 542.74 542.74 542.74 542.75 542.75 542.75 542.75 542.76 542.76 542.76 542.77 542.77 542.77 542.77 542.78 542.78 542.78 542.78 542.79 542.79 542.79 542.79 542.80 542.80 542.80 542.80 542.81 542.81 542.81 542.81 542.82 542.82 542.82 542.82 542.83 542.83 542.83 542.83 542.84 542.84
542.44 542.44 542.44 542.44 542.45 542.45 542.45 542.45 542.46 542.46 542.46 542.46 542.47 542.47 542.47 542.47 542.48 542.48 542.48 542.48 542.49 542.49 542.49 542.49 542.50 542.50 542.50 542.50 542.51 542.51 542.51 542.51 542.52 542.52 542.52 542.52 542.53 542.53 542.53 542.53 542.54 542.54 542.54 542.54 542.55 542.55 542.55 542.55 542.56 542.56 542.56 542.56 542.57 542.57 542.57 542.57 542.58 542.58 542.58 542.58 542.59 542.59 542.59 542.59 542.60 542.60 542.60 542.60 542.61 542.61 542.61 542.61 542.62 542.62 542.62 542.62 542.63 542.63 542.63 542.63 542.64 542.64 542.64 542.64 542.65 542.65 542.65 542.65 542.66 542.66 542.66 542.66 542.67 542.67 542.67 542.67 542.68 542.68 542.68 542.68 542.69 542.69 542.69 542.70 542.70 542.70 542.70 542.71 542.71 542.71 542.71 542.72 542.72 542.72 542.72 542.73 542.73 542.73 542.73 542.74 542.74 542.74 542.74 542.75 542.75 542.75 542.75 542.76 542.76 542.76 542.76 542.77 542.77 542.77 542.77 542.78 542.78 542.78 542.78 542.79 542.79 542.79 542.79 542.80 542.80 542.80 542.80 542.81 542.81 542.81 542.81 542.82 542.82 542.82 542.82 542.83 542.83 542.83 542.83 542.84
542.43 542.44 542.44 542.44 542.44 542.45 542.45 542.45 542.45 542.46 542.46 542.46 542.46 542.47 542.47 542.47 542.47 542.48 542.48 542.48 542.48 542.49 542.49 542.49 542.49 542.50 542.50 542.50 542.50 542.51 542.51 542.51 542.51 542.52 542.52 542.52 542.52 542.53 542.53 542.53 542.53 542.54 542.54 542.54 542.54 542.55 542.55 542.55 542.55 542.56 542.56 542.56 542.56 542.57 542.57 542.57 542.57 542.58 542.58 542.58 542.58 542.59 542.59 542.59 542.59 542.60 542.60 542.60 542.61 542.61 542.61 542.61 542.62 542.62 542.62 542.62 542.63 542.63 542.63 542.63 542.64 542.64 542.64 542.64 542.65 542.65 542.65 542.65 542.66 542.66 542.66 542.66 542.67 542.67 542.67 542.67 542.68 542.68 542.68 542.68 542.69 542.69 542.69 542.69 542.70 542.70 542.70 542.70 542.71 542.71 542.71 542.71 542.72 542.72 542.72 542.72 542.73 542.73 542.73 542.73 542.74 542.74 542.74 542.74 542.75 542.75 542.75 542.75 542.76 542.76 542.76 542.76 542.77 542.77 542.77 542.77 542.78 542.78 542.78 542.78 542.79 542.79 542.79 542.79 542.80 542.80 542.80 542.80 542.81 542.81 542.81 542.81 542.82 542.82 542.82 542.82 542.83 542.83 542.83 542.83
542.43 542.43 542.44 542.44 542.44 542.44 542.45 542.45 542.45 542.45 542.46 542.46 542.46 542.46 542.47 542.47 542.47 542.47 542.48 542.48 542.48 542.48 542.49 542.49 542.49 542.49 542.50 542.50 542.50 542.50 542.51 542.51 542.51 542.51 542.52 542.52 542.52 542.53 542.53 542.53 542.53 542.54 542.54 542.54 542.54 542.55 542.55 542.55 542.55 542.56 542.56 542.56 542.56 542.57 542.57 542.57 542.57 542.58 542.58 542.58 542.58 542.59 542.59 542.59 542.59 542.60 542.60 542.60 542.60 542.61 542.61 542.61 542.61 542.62 542.62 542.62 542.62 542.63 542.63 542.63 542.63 542.64 542.64 542.64 542.64 542.65 542.65 542.65 542.65 542.66 542.66 542.66 542.66 542.67 542.67 542.67 542.67 542.68 542.68 542.68 542.68 542.69 542.69 542.69 542.69 542.70 542.70 542.70 542.70 542.71 542.71 542.71 542.71 542.72 542.72 542.72 542.72 542.73 542.73 542.73 542.73 542.74 542.74 542.74 542.74 542.75 542.75 542.75 542.75 542.76 542.76 542.76 542.76 542.77 542.77 542.77 542.77 542.78 542.78 542.78 542.78 542.79 542.79 542.79 542.79 542.80 542.80 542.80 542.80 542.81 542.81 542.81 542.81 542.82 542.82 542.82 542.82 542.83 542.83 542.83
542.43 542.43 542.43 542.44 542.44 542.44 542.45 542.45 542.45 542.45 542.46 542.46 542.46 542.46 542.47 542.47 542.47 542.47 542.48 542.48 542.48 542.48 542.49 542.49 542.49 542.49 542.50 542.50 542.50 542.50 542.51 542.51 542.51 542.51 542.52 542.52 542.52 542.52 542.53 542.53 542.53 542.53 542.54 542.54 542.54 542.54 542.55 542.55 542.55 542.55 542.56 542.56 542.56 542.56 542.57 542.57 542.57 542.57 542.58 542.58 542.58 542.58 542.59 542.59 542.59 542.59 542.60 542.60 542.60 542.60 542.61 542.61 542.61 542.61 542.62 542.62 542.62 542.62 542.63 542.63 542.63 542.63 542.64 542.64 542.64 542.64 542.65 542.65 542.65 542.65 542.66 542.66 542.66 542.66 542.67 542.67 542.67 542.67 542.68 542.68 542.68 542.68 542.69 542.69 542.69 542.69 542.70 542.70 542.70 542.70 542.71 542.71 542.71 542.71 542.72 542.72 542.72 542.72 542.73 542.73 542.73 542.73 542.74 542.74 542.74 542.74 542.75 542.75 542.75 542.75 542.76 542.76 542.76 542.76 542.77 542.77 542.77 542.77 542.78 542.78 542.78 542.78 542.79 542.79 542.79 542.79 542.80 542.80 542.80 542.80 542.81 542.81 542.81 542.81 542.82 542.82 542.82 542.82 542.83 542.83
542.43 542.43 542.43 542.44 542.44 542.44 542.44 542.45 542.45 542.45 542.45 542.46 542.46 542.46 542.46 542.47 542.47 542.47 542.47 542.48 542.48 542.48 542.48 542.49 542.49 542.49 542.49 542.50 542.50 542.50 542.50 542.51 542.51 542.51 542.51 542.52 542.52 542.52 542.52 542.53 542.53 542.53 542.53 542.54 542.54 542.54 542.54 542.55 542.55 542.55 542.55 542.56 542.56 542.56 542.56 542.57 542.57 542.57 542.57 542.58 542.58 542.58 542.58 542.59 542.59 542.59 542.59 542.60 542.60 542.60 542.60 542.61 542.61 542.61 542.61 542.62 542.62 542.62 542.62 542.63 542.63 542.63 542.63 542.64 542.64 542.64 542.64 542.65 542.65 542.65 542.65 542.66 542.66 542.66 542.66 542.67 542.67 542.67 542.67 542.68 542.68 542.68 542.68 542.69 542.69 542.69 542.69 542.70 542.70 542.70 542.70 542.71 542.71 542.71 542.71 542.72 542.72 542.72 542.72 542.73 542.73 542.73 542.73 542.74 542.74 542.74 542.74 542.75 542.75 542.75 542.75 542.76 542.76 542.76 542.77 542.77 542.77 542.77 542.78 542.78 542.78 542.78 542.79 542.79 542.79 542.79 542.80 542.80 542.80 542.80 542.81 542.81 542.81 542.81 542.82 542.82 542.82 542.82 542.83 542.83
542.43 542.43 542.43 542.43 542.44 542.44 542.44 542.44 542.45 542.45 542.45 542.45 542.46 542.46 542.46 542.46 542.47 542.47 542.47 542.47 542.48 542.48 542.48 542.48 542.49 542.49 542.49 542.49 542.50 542.50 542.50 542.50 542.51 542.51 542.51 542.51 542.52 542.52 542.52 542.52 542.53 542.53 542.53 542.53 542.54 542.54 542.54 542.54 542.55 542.55 542.55 542.55 542.56 542.56 542.56 542.56 542.57 542.57 542.57 542.57 542.58 542.58 542.58 542.58 542.59 542.59 542.59 542.59 542.60 542.60 542.60 542.60 542.61 542.61 542.61 542.61 542.62 542.62 542.62 542.62 542.63 542.63 542.63 542.63 542.64 542.64 542.64 542.64 542.65 542.65 542.65 542.65 542.66 542.66 542.66 542.66 542.67 542.67 542.67 542.67 542.68 542.68 542.68 542.68 542.69 542.69 542.69 542.70 542.70 542.70 542.70 542.71 542.71 542.71 542.71 542.72 542.72 542.72 542.72 542.73 542.73 542.73 542.73 542.74 542.74 542.74 542.74 542.75 542.75 542.75 542.75 542.76 542.76 542.76 542.76 542.77 542.77 542.77 542.77 542.78 542.78 542.78 542.78 542.79 542.79 542.79 542.79 542.80 542.80 542.80 542.80 542.81 542.81 542.81 542.81 542.82 542.82 542.82 542.82 542.83
542.42 542.43 542.43 542.43 542.43 542.44 542.44 542.44 542.44 542.45 542.45 542.45 542.45 542.46 542.46 542.46 542.46 542.47 542.47 542.47 542.47 542.48 542.48 542.48 542.48 542.49 542.49 542.49 542.49 542.50 542.50 542.50 542.50 542.51 542.51 542.51 542.51 542.52 542.52 542.52 542.52 542.53 542.53 542.53 542.53 542.54 542.54 542.54 542.54 542.55 542.55 542.55 542.55 542.56 542.56 542.56 542.56 542.57 542.57 542.57 542.57 542.58 542.58 542.58 542.58 542.59 542.59 542.59 542.59 542.60 542.60 542.60 542.61 542.61 542.61 542.61 542.62 542.62 542.62 542.62 542.63 542.63 542.63 542.63 542.64 542.64 542.64 542.64 542.65 542.65 542.65 542.65 542.66 542.66 542.66 542.66 542.67 542.67 542.67 542.67 542.68 542.68 542.68 542.68 542.69 542.69 542.69 542.69 542.70 542.70 542.70 542.70 542.71 542.71 542.71 542.71 542.72 542.72 542.72 542.72 542.73 542.73 542.73 542.73 542.74 542.74 542.74 542.74 542.75 542.75 542.75 542.75 542.76 542.76 542.76 542.76 542.77 542.77 542.77 542.77 542.78 542.78 542.78 542.78 542.79 542.79 542.79 542.79 542.80 542.80 542.80 542.80 542.81 542.81 542.81 542.81 542.82 542.82 542.82 542.82
542.42 542.42 542.43 542.43 542.43 542.43 542.44 542.44 542.44 542.44 542.45 542.45 542.45 542.45 542.46 542.46 542.46 542.46 542.47 542.47 542.47 542.47 542.48 542.48 542.48 542.48 542.49 542.49 542.49 542.49 542.50 542.50 542.50 542.50 542.51 542.51 542.51 542.51 542.52 542.52 542.52 542.53 542.53 542.53 542.53 542.54 542.54 542.54 542.54 542.55 542.55 542.55 542.55 542.56 542.56 542.56 542.56 542.57 542.57 542.57 542.57 542.58 542.58 542.58 542.58 542.59 542.59 542.59 542.59 542.60 542.60 542.60 542.60 542.61 542.61 542.61 542.61 542.62 542.62 542.62 542.62 542.63 542.63 542.63 542.63 542.64 542.64 542.64 542.64 542.65 542.65 542.65 542.65 542.66 542.66 542.66 542.66 542.67 542.67 542.67 542.67 542.68 542.68 542.68 542.68 542.69 542.69 542.69 542.69 542.70 542.70 542.70 542.70 542.71 542.71 542.71 542.71 542.72 542.72 542.72 542.72 542.73 542.73 542.73 542.73 542.74 542.74 542.74 542.74 542.75 542.75 542.75 542.75 542.76 542.76 542.76 542.76 542.77 542.77 542.77 542.77 542.78 542.78 542.78 542.78 542.79 542.79 542.79 542.79 542.80 542.80 542.80 542.80 542.81 542.81 542.81 542.81 542.82 542.82 542.82
542.42 542.42 542.42 542.43 542.43 542.43 542.43 542.44 542.44 542.44 542.45 542.45 542.45 542.45 542.46 542.46 542.46 542.46 542.47 542.47 542.47 542.47 542.48 542.48 542.48 542.48 542.49 542.49 542.49 542.49 542.50 542.50 542.50 542.50 542.51 542.51 542.51 542.51 542.52 542.52 542.52 542.52 542.53 542.53 542.53 542.53 542.54 542.54 542.54 542.54 542.55 542.55 542.55 542.55 542.56 542.56 542.56 542.56 542.57 542.57 542.57 542.57 542.58 542.58 542.58 542.58 542.59 542.59 542.59 542.59 542.60 542.60 542.60 542.60 542.61 542.61 542.61 542.61 542.62 542.62 542.62 542.62 542.63 542.63 542.63 542.63 542.64 542.64 542.64 542.64 542.65 542.65 542.65 542.65 542.66 542.66 542.66 542.66 542.67 542.67 542.67 542.67 542.68 542.68 542.68 542.68 542.69 542.69 542.69 542.69 542.70 542.70 542.70 542.70 542.71 542.71 542.71 542.71 542.72 542.72 542.72 542.72 542.73 542.73 542.73 542.73 542.74 542.74 542.74 542.74 542.75 542.75 542.75 542.75 542.76 542.76 542.76 542.76 542.77 542.77 542.77 542.77 542.78 542.78 542.78 542.78 542.79 542.79 542.79 542.79 542.80 542.80 542.80 542.80 542.81 542.81 542.81 542.81 542.82 542.82
542.42 542.42 542.42 542.43 542.43 542.43 542.43 542.44 542.44 542.44 542.44 542.45 542.45 542.45 542.45 542.46 542.46 542.46 542.46 542.47 542.47 542.47 542.47 542.48 542.48 542.48 542.48 542.49 542.49 542.49 542.49 542.50 542.50 542.50 542.50 542.51 542.51 542.51 542.51 542.52 542.52 542.52 542.52 542.53 542.53 542.53 542.53 542.54 542.54 542.54 542.54 542.55 542.55 542.55 542.55 542.56 542.56 542.56 542.56 542.57 542.57 542.57 542.57 542.58 542.58 542.58 542.58 542.59 542.59 542.59 542.59 542.60 542.60 542.60 542.60 542.61 542.61 542.61 542.61 542.62 542.62 542.62 542.62 542.63 542.63 542.63 542.63 542.64 542.64 542.64 542.64 542.65 542.65 542.65 542.65 542.66 542.66 542.66 542.66 542.67 542.67 542.67 542.67 542.68 542.68 542.68 542.68 542.69 542.69 542.69 542.69 542.70 542.70 542.70 542.70 542.71 542.71 542.71 542.71 542.72 542.72 542.72 542.72 542.73 542.73 542.73 542.73 542.74 542.74 542.74 542.74 542.75 542.75 542.75 542.75 542.76 542.76 542.76 542.77 542.77 542.77 542.77 542.78 542.78 542.78 542.78 542.79 542.79 542.79 542.79 542.80 542.80 542.80 542.80 542.81 542.81 542.81 542.81 542.82 542.82
542.42 542.42 542.42 542.42 542.43 542.43 542.43 542.43 542.44 542.44 542.44 542.44 542.45 542.45 542.45 542.45 542.46 542.46 542.46 542.46 542.47 542.47 542.47 542.47 542.48 542.48 542.48 542.48 542.49 542.49 542.49 542.49 542.50 542.50 542.50 542.50 542.51 542.51 542.51 542.51 542.52 542.52 542.52 542.52 542.53 542.53 542.53 542.53 542.54 542.54 542.54 542.54 542.55 542.55 542.55 542.55 542.56 542.56 542.56 542.56 542.57 542.57 542.57 542.57 542.58 542.58 542.58 542.58 542.59 542.59 542.59 542.59 542.60 542.60 542.60 542.60 542.61 542.61 542.61 542.61 542.62 542.62 542.62 542.62 542.63 542.63 542.63 542.63 542.64 542.64 542.64 542.64 542.65 542.65 542.65 542.65 542.66 542.66 542.66 542.66 542.67 542.67 542.67 542.67 542.68 542.68 542.68 542.68 542.69 542.69 542.69 542.70 542.70 542.70 542.70 542.71 542.71 542.71 542.71 542.72 542.72 542.72 542.72 542.73 542.73 542.73 542.73 542.74 542.74 542.74 542.74 542.75 542.75 542.75 542.75 542.76 542.76 542.76 542.76 542.77 542.77 542.77 542.77 542.78 542.78 542.78 542.78 542.79 542.79 542.79 542.79 542.80 542.80 542.80 542.80 542.81 542.81 542.81 542.81 542.82
542.41 542.42 542.42 542.42 542.42 542.43 542.43 542.43 542.43 542.44 542.44 542.44 542.44 542.45 542.45 542.45 542.45 542.46 542.46 542.46 542.46 542.47 542.47 542.47 542.47 542.48 542.48 542.48 542.48 542.49 542.49 542.49 542.49 542.50 542.50 542.50 542.50 542.51 542.51 542.51 542.51 542.52 542.52 542.52 542.52 542.53 542.53 542.53 542.53 542.54 542.54 542.54 542.54 542.55 542.55 542.55 542.55 542.56 542.56 542.56 542.56 542.57 542.57 542.57 542.57 542.58 542.58 542.58 542.58 542.59 542.59 542.59 542.59 542.60 542.60 542.60 542.60 542.61 542.61 542.61 542.62 542.62 542.62 542.62 542.63 542.63 542.63 542.63 542.64 542.64 542.64 542.64 542.65 542.65 542.65 542.65 542.66 542.66 542.66 542.66 542.67 542.67 542.67 542.67 542.68 542.68 542.68 542.68 542.69 542.69 542.69 542.69 542.70 542.70 542.70 542.70 542.71 542.71 542.71 542.71 542.72 542.72 542.72 542.72 542.73 542.73 542.73 542.73 542.74 542.74 542.74 542.74 542.75 542.75 542.75 542.75 542.76 542.76 542.76 542.76 542.77 542.77 542.77 542.77 542.78 542.78 542.78 542.78 542.79 542.79 542.79 542.79 542.80 542.80 542.80 542.80 542.81 542.81 542.81 542.81
542.41 542.41 542.42 542.42 542.42 542.42 542.43 542.43 542.43 542.43 542.44 542.44 542.44 542.44 542.45 542.45 542.45 542.45 542.46 542.46 542.46 542.46 542.47 542.47 542.47 542.47 542.48 542.48 542.48 542.48 542.49 542.49 542.49 542.49 542.50 542.50 542.50 542.50 542.51 542.51 542.51 542.51 542.52 542.52 542.52 542.53 542.53 542.53 542.53 542.54 542.54 542.54 542.54 542.55 542.55 542.55 542.55 542.56 542.56 542.56 542.56 542.57 542.57 542.57 542.57 542.58 542.58 542.58 542.58 542.59 542.59 542.59 542.59 542.60 542.60 542.60 542.60 542.61 542.61 542.61 542.61 542.62 542.62 542.62 542.62 542.63 542.63 542.63 542.63 542.64 542.64 542.64 542.64 542.65 542.65 542.65 542.65 542.66 542.66 542.66 542.66 542.67 542.67 542.67 542.67 542.68 542.68 542.68 542.68 542.69 542.69 542.69 542.69 542.70 542.70 542.70 542.70 542.71 542.71 542.71 542.71 542.72 542.72 542.72 542.72 542.73 542.73 542.73 542.73 542.74 542.74 542.74 542.74 542.75 542.75 542.75 542.75 542.76 542.76 542.76 542.76 542.77 542.77 542.77 542.77 542.78 542.78 542.78 542.78 542.79 542.79 542.79 542.79 542.80 542.80 542.80 542.80 542.81 542.81 542.81
542.41 542.41 542.41 542.42 542.42 542.42 542.42 542.43 542.43 542.43 542.43 542.44 542.44 542.44 542.45 542.45 542.45 542.45 542.46 542.46 542.46 542.46 542.47 542.47 542.47 542.47 542.48 542.48 542.48 542.48 542.49 542.49 542.49 542.49 542.50 542.50 542.50 542.50 542.51 542.51 542.51 542.51 542.52 542.52 542.52 542.52 542.53 542.53 542.53 542.53 542.54 542.54 542.54 542.54 542.55 542.55 542.55 542.55 542.56 542.56 542.56 542.56 542.57 542.57 542.57 542.57 542.58 542.58 542.58 542.58 542.59 542.59 542.59 542.59 542.60 542.60 542.60 542.60 542.61 542.61 542.61 542.61 542.62 542.62 542.62 542.62 542.63 542.63 542.63 542.63 542.64 542.64 542.64 542.64 542.65 542.65 542.65 542.65 542.66 542.66 542.66 542.66 542.67 542.67 542.67 542.67 542.68 542.68 542.68 542.68 542.69 542.69 542.69 542.69 542.70 542.70 542.70 542.70 542.71 542.71 542.71 542.71 542.72 542.72 542.72 542.72 542.73 542.73 542.73 542.73 542.74 542.74 542.74 542.74 542.75 542.75 542.75 542.75 542.76 542.76 542.76 542.76 542.77 542.77 542.77 542.77 542.78 542.78 542.78 542.78 542.79 542.79 542.79 542.79 542.80 542.80 542.80 542.80 542.81 542.81
542.41 542.41 542.41 542.42 542.42 542.42 542.42 542.43 542.43 542.43 542.43 542.44 542.44 542.44 542.44 542.45 542.45 542.45 542.45 542.46 542.46 542.46 542.46 542.47 542.47 542.47 542.47 542.48 542.48 542.48 542.48 542.49 542.49 542.49 542.49 542.50 542.50 542.50 542.50 542.51 542.51 542.51 542.51 542.52 542.52 542.52 542.52 542.53 542.53 542.53 542.53 542.54 542.54 542.54 542.54 542.55 542.55 542.55 542.55 542.56 542.56 542.56 542.56 542.57 542.57 542.57 542.57 542.58 542.58 542.58 542.58 542.59 542.59 542.59 542.59 542.60 542.60 542.60 542.60 542.61 542.61 542.61 542.61 542.62 542.62 542.62 542.62 542.63 542.63 542.63 542.63 542.64 542.64 542.64 542.64 542.65 542.65 542.65 542.65 542.66 542.66 542.66 542.66 542.67 542.67 542.67 542.67 542.68 542.68 542.68 542.68 542.69 542.69 542.69 542.69 542.70 542.70 542.70 542.70 542.71 542.71 542.71 542.71 542.72 542.72 542.72 542.72 542.73 542.73 542.73 542.73 542.74 542.74 542.74 542.74 542.75 542.75 542.75 542.75 542.76 542.76 542.76 542.77 542.77 542.77 542.77 542.78 542.78 542.78 542.78 542.79 542.79 542.79 542.79 542.80 542.80 542.80 542.80 542.81 542.81
542.41 542.41 542.41 542.41 542.42 542.42 542.42 542.42 542.43 542.43 542.43 542.43 542.44 542.44 542.44 542.44 542.45 542.45 542.45 542.45 542.46 542.46 542.46 542.46 542.47 542.47 542.47 542.47 542.48 542.48 542.48 542.48 542.49 542.49 542.49 542.49 542.50 542.50 542.50 542.50 542.51 542.51 542.51 542.51 542.52 542.52 542.52 542.52 542.53 542.53 542.53 542.53 542.54 542.54 542.54 542.54 542.55 542.55 542.55 542.55 542.56 542.56 542.56 542.56 542.57 542.57 542.57 542.57 542.58 542.58 542.58 542.58 542.59 542.59 542.59 542.59 542.60 542.60 542.60 542.60 542.61 542.61 542.61 542.61 542.62 542.62 542.62 542.62 542.63 542.63 542.63 542.63 542.64 542.64 542.64 542.64 542.65 542.65 542.65 542.65 542.66 542.66 542.66 542.66 542.67 542.67 542.67 542.67 542.68 542.68 542.68 542.68 542.69 542.69 542.69 542.70 542.70 542.70 542.70 542.71 542.71 542.71 542.71 542.72 542.72 542.72 542.72 542.73 542.73 542.73 542.73 542.74 542.74 542.74 542.74 542.75 542.75 542.75 542.75 542.76 542.76 542.76 542.76 542.77 542.77 542.77 542.77 542.78 542.78 542.78 542.78 542.79 542.79 542.79 542.79 542.80 542.80 542.80 542.80 542.81
542.40 542.41 542.41 542.41 542.41 542.42 542.42 542.42 542.42 542.43 542.43 542.43 542.43 542.44 542.44 542.44 542.44 542.45 542.45 542.45 542.45 542.46 542.46 542.46 542.46 542.47 542.47 542.47 542.47 542.48 542.48 542.48 542.48 542.49 542.49 542.49 542.49 542.50 542.50 542.50 542.50 542.51 542.51 542.51 542.51 542.52 542.52 542.52 542.52 542.53 542.53 542.53 542.53 542.54 542.54 542.54 542.54 542.55 542.55 542.55 542.55 542.56 542.56 542.56 542.56 542.57 542.57 542.57 542.57 542.58 542.58 542.58 542.58 542.59 542.59 542.59 542.59 542.60 542.60 542.60 542.60 542.61 542.61 542.61 542.62 542.62 542.62 542.62 542.63 542.63 542.63 542.63 542.64 542.64 542.64 542.64 542.65 542.65 542.65 542.65 542.66 542.66 542.66 542.66 542.67 542.67 542.67 542.67 542.68 542.68 542.68 542.68 542.69 542.69 542.69 542.69 542.70 542.70 542.70 542.70 542.71 542.71 542.71 542.71 542.72 542.72 542.72 542.72 542.73 542.73 542.73 542.73 542.74 542.74 542.74 542.74 542.75 542.75 542.75 542.75 542.76 542.76 542.76 542.76 542.77 542.77 542.77 542.77 542.78 542.78 542.78 542.78 542.79 542.79 542.79 542.79 542.80 542.80 542.80 542.80
542.40 542.40 542.41 542.41 542.41 542.41 542.42 542.42 542.42 542.42 542.43 542.43 542.43 542.43 542.44 542.44 542.44 542.44 542.45 542.45 542.45 542.45 542.46 542.46 542.46 542.46 542.47 542.47 542.47 542.47 542.48 542.48 542.48 542.48 542.49 542.49 542.49 542.49 542.50 542.50 542.50 542.50 542.51 542.51 542.51 542.51 542.52 542.52 542.52 542.53 542.53 542.53 542.53 542.54 542.54 542.54 542.54 542.55 542.55 542.55 542.55 542.56 542.56 542.56 542.56 542.57 542.57 542.57 542.57 542.58 542.58 542.58 542.58 542.59 542.59 542.59 542.59 542.60 542.60 542.60 542.60 542.61 542.61 542.61 542.61 542.62 542.62 542.62 542.62 542.63 542.63 542.63 542.63 542.64 542.64 542.64 542.64 542.65 542.65 542.65 542.65 542.66 542.66 542.66 542.66 542.67 542.67 542.67 542.67 542.68 542.68 542.68 542.68 542.69 542.69 542.69 542.69 542.70 542.70 542.70 542.70 542.71 542.71 542.71 542.71 542.72 542.72 542.72 542.72 542.73 542.73 542.73 542.73 542.74 542.74 542.74 542.74 542.75 542.75 542.75 542.75 542.76 542.76 542.76 542.76 542.77 542.77 542.77 542.77 542.78 542.78 542.78 542.78 542.79 542.79 542.79 542.79 542.80 542.80 542.80
542.40 542.40 542.40 542.41 542.41 542.41 542.41 542.42 542.42 542.42 542.42 542.43 542.43 542.43 542.43 542.44 542.44 542.44 542.45 542.45 542.45 542.45 542.46 542.46 542.46 542.46 542.47 542.47 542.47 542.47 542.48 542.48 542.48 542.48 542.49 542.49 542.49 542.49 542.50 542.50 542.50 542.50 542.51 542.51 542.51 542.51 542.52 542.52 542.52 542.52 542.53 542.53 542.53 542.53 542.54 542.54 542.54 542.54 542.55 542.55 542.55 542.55 542.56 542.56 542.56 542.56 542.57 542.57 542.57 542.57 542.58 542.58 542.58 542.58 542.59 542.59 542.59 542.59 542.60 542.60 542.60 542.60 542.61 542.61 542.61 542.61 542.62 542.62 542.62 542.62 542.63 542.63 542.63 542.63 542.64 542.64 542.64 542.64 542.65 542.65 542.65 542.65 542.66 542.66 542.66 542.66 542.67 542.67 542.67 542.67 542.68 542.68 542.68 542.68 542.69 542.69 542.69 542.69 542.70 542.70 542.70 542.70 542.71 542.71 542.71 542.71 542.72 542.72 542.72 542.72 542.73 542.73 542.73 542.73 542.74 542.74 542.74 542.74 542.75 542.75 542.75 542.75 542.76 542.76 542.76 542.76 542.77 542.77 542.77 542.77 542.78 542.78 542.78 542.78 542.79 542.79 542.79 542.79 542.80 542.80
542.40 542.40 542.40 542.41 542.41 542.41 542.41 542.42 542.42 542.42 542.42 542.43 542.43 542.43 542.43 542.44 542.44 542.44 542.44 542.45 542.45 542.45 542.45 542.46 542.46 542.46 542.46 542.47 542.47 542.47 542.47 542.48 542.48 542.48 542.48 542.49 542.49 542.49 542.49 542.50 542.50 542.50 542.50 542.51 542.51 542.51 542.51 542.52 542.52 542.52 542.52 542.53 542.53 542.53 542.53 542.54 542.54 542.54 542.54 542.55 542.55 542.55 542.55 542.56 542.56 542.56 542.56 542.57 542.57 542.57 542.57 542.58 542.58 542.58 542.58 542.59 542.59 542.59 542.59 542.60 542.60 542.60 542.60 542.61 542.61 542.61 542.61 542.62 542.62 542.62 542.62 542.63 542.63 542.63 542.63 542.64 542.64 542.64 542.64 542.65 542.65 542.65 542.65 542.66 542.66 542.66 542.66 542.67 542.67 542.67 542.67 542.68 542.68 542.68 542.68 542.69 542.69 542.69 542.69 542.70 542.70 542.70 542.70 542.71 542.71 542.71 542.71 542.72 542.72 542.72 542.72 542.73 542.73 542.73 542.73 542.74 542.74 542.74 542.74 542.75 542.75 542.75 542.75 542.76 542.76 542.76 542.77 542.77 542.77 542.77 542.78 542.78 542.78 542.78 542.79 542.79 542.79 542.79 542.80 542.80
542.40 542.40 542.40 542.40 542.41 542.41 542.41 542.41 542.42 542.42 542.42 542.42 542.43 542.43 542.43 542.43 542.44 542.44 542.44 542.44 542.45 542.45 542.45 542.45 542.46 542.46 542.46 542.46 542.47 542.47 542.47 542.47 542.48 542.48 542.48 542.48 542.49 542.49 542.49 542.49 542.50 542.50 542.50 542.50 542.51 542.51 542.51 542.51 542.52 542.52 542.52 542.52 542.53 542.53 542.53 542.53 542.54 542.54 542.54 542.54 542.55 542.55 542.55 542.55 542.56 542.56 542.56 542.56 542.57 542.57 542.57 542.57 542.58 542.58 542.58 542.58 542.59 542.59 542.59 542.59 542.60 542.60 542.60 542.60 542.61 542.61 542.61 542.61 542.62 542.62 542.62 542.62 542.63 542.63 542.63 542.63 542.64 542.64 542.64 542.64 542.65 542.65 542.65 542.65 542.66 542.66 542.66 542.66 542.67 542.67 542.67 542.67 542.68 542.68 542.68 542.68 542.69 542.69 542.69 542.70 542.70 542.70 542.70 542.71 542.71 542.71 542.71 542.72 542.72 542.72 542.72 542.73 542.73 542.73 542.73 542.74 542.74 542.74 542.74 542.75 542.75 542.75 542.75 542.76 542.76 542.76 542.76 542.77 542.77 542.77 542.77 542.78 542.78 542.78 542.78 542.79 542.79 542.79 542.79 542.80
542.39 542.40 542.40 542.40 542.40 542.41 542.41 542.41 542.41 542.42 542.42 542.42 542.42 542.43 542.43 542.43 542.43 542.44 542.44 542.44 542.44 542.45 542.45 542.45 542.45 542.46 542.46 542.46 542.46 542.47 542.47 542.47 542.47 542.48 542.48 542.48 542.48 542.49 542.49 542.49 542.49 542.50 542.50 542.50 542.50 542.51 542.51 542.51 542.51 542.52 542.52 542.52 542.52 542.53 542.53 542.53 542.53 542.54 542.54 542.54 542.54 542.55 542.55 542.55 542.55 542.56 542.56 542.56 542.56 542.57 542.57 542.57 542.57 542.58 542.58 542.58 542.58 542.59 542.59 542.59 542.59 542.60 542.60 542.60 542.60 542.61 542.61 542.61 542.62 542.62 542.62 542.62 542.63 542.63 542.63 542.63 542.64 542.64 542.64 542.64 542.65 542.65 542.65 542.65 542.66 542.66 542.66 542.66 542.67 542.67 542.67 542.67 542.68 542.68 542.68 542.68 542.69 542.69 542.69 542.69 542.70 542.70 542.70 542.70 542.71 542.71 542.71 542.71 542.72 542.72 542.72 542.72 542.73 542.73 542.73 542.73 542.74 542.74 542.74 542.74 542.75 542.75 542.75 542.75 542.76 542.76 542.76 542.76 542.77 542.77 542.77 542.77 542.78 542.78 542.78 542.78 542.79 542.79 542.79 542.79
542.39 542.39 542.40 542.40 542.40 542.40 542.41 542.41 542.41 542.41 542.42 542.42 542.42 542.42 542.43 542.43 542.43 542.43 542.44 542.44 542.44 542.44 542.45 542.45 542.45 542.45 542.46 542.46 542.46 542.46 542.47 542.47 542.47 542.47 542.48 542.48 542.48 542.48 542.49 542.49 542.49 542.49 542.50 542.50 542.50 542.50 542.51 542.51 542.51 542.51 542.52 542.52 542.52 542.52 542.53 542.53 542.53 542.54 542.54 542.54 542.54 542.55 542.55 542.55 542.55 542.56 542.56 542.56 542.56 542.57 542.57 542.57 542.57 542.58 542.58 542.58 542.58 542.59 542.59 542.59 542.59 542.60 542.60 542.60 542.60 542.61 542.61 542.61 542.61 542.62 542.62 542.62 542.62 542.63 542.63 542.63 542.63 542.64 542.64 542.64 542.64 542.65 542.65 542.65 542.65 542.66 542.66 542.66 542.66 542.67 542.67 542.67 542.67 542.68 542.68 542.68 542.68 542.69 542.69 542.69 542.69 542.70 542.70 542.70 542.70 542.71 542.71 542.71 542.71 542.72 542.72 542.72 542.72 542.73 542.73 542.73 542.73 542.74 542.74 542.74 542.74 542.75 542.75 542.75 542.75 542.76 542.76 542.76 542.76 542.77 542.77 542.77 542.77 542.78 542.78 542.78 542.78 542.79 542.79 542.79
542.39 542.39 542.39 542.40 542.40 542.40 542.40 542.41 542.41 542.41 542.41 542.42 542.42 542.42 542.42 542.43 542.43 542.43 542.43 542.44 542.44 542.44 542.45 542.45 542.45 542.45 542.46 542.46 542.46 542.46 542.47 542.47 542.47 542.47 542.48 542.48 542.48 542.48 542.49 542.49 542.49 542.49 542.50 542.50 542.50 542.50 542.51 542.51 542.51 542.51 542.52 542.52 542.52 542.52 542.53 542.53 542.53 542.53 542.54 542.54 542.54 542.54 542.55 542.55 542.55 542.55 542.56 542.56 542.56 542.56 542.57 542.57 542.57 542.57 542.58 542.58 542.58 542.58 542.59 542.59 542.59 542.59 542.60 542.60 542.60 542.60 542.61 542.61 542.61 542.61 542.62 542.62 542.62 542.62 542.63 542.63 542.63 542.63 542.64 542.64 542.64 542.64 542.65 542.65 542.65 542.65 542.66 542.66 542.66 542.66 542.67 542.67 542.67 542.67 542.68 542.68 542.68 542.68 542.69 542.69 542.69 542.69 542.70 542.70 542.70 542.70 542.71 542.71 542.71 542.71 542.72 542.72 542.72 542.72 542.73 542.73 542.73 542.73 542.74 542.74 542.74 542.74 542.75 542.75 542.75 542.75 542.76 542.76 542.76 542.76 542.77 542.77 542.77 542.77 542.78 542.78 542.78 542.78 542.79 542.79
542.39 542.39 542.39 542.40 542.40 542.40 542.40 542.41 542.41 542.41 542.41 542.42 542.42 542.42 542.42 542.43 542.43 542.43 542.43 542.44 542.44 542.44 542.44 542.45 542.45 542.45 542.45 542.46 542.46 542.46 542.46 542.47 542.47 542.47 542.47 542.48 542.48 542.48 542.48 542.49 542.49 542.49 542.49 542.50 542.50 542.50 542.50 542.51 542.51 542.51 542.51 542.52 542.52 542.52 542.52 542.53 542.53 542.53 542.53 542.54 542.54 542.54 542.54 542.55 542.55 542.55 542.55 542.56 542.56 542.56 542.56 542.57 542.57 542.57 542.57 542.58 542.58 542.58 542.58 542.59 542.59 542.59 542.59 542.60 542.60 542.60 542.60 542.61 542.61 542.61 542.61 542.62 542.62 542.62 542.62 542.63 542.63 542.63 542.63 542.64 542.64 542.64 542.64 542.65 542.65 542.65 542.65 542.66 542.66 542.66 542.66 542.67 542.67 542.67 542.67 542.68 542.68 542.68 542.68 542.69 542.69 542.69 542.69 542.70 542.70 542.70 542.70 542.71 542.71 542.71 542.71 542.72 542.72 542.72 542.72 542.73 542.73 542.73 542.73 542.74 542.74 542.74 542.74 542.75 542.75 542.75 542.75 542.76 542.76 542.76 542.77 542.77 542.77 542.77 542.78 542.78 542.78 542.78 542.79 542.79
542.39 542.39 542.39 542.39 542.40 542.40 542.40 542.40 542.41 542.41 542.41 542.41 542.42 542.42 542.42 542.42 542.43 542.43 542.43 542.43 542.44 542.44 542.44 542.44 542.45 542.45 542.45 542.45 542.46 542.46 542.46 542.46 542.47 542.47 542.47 542.47 542.48 542.48 542.48 542.48 542.49 542.49 542.49 542.49 542.50 542.50 542.50 542.50 542.51 542.51 542.51 542.51 542.52 542.52 542.52 542.52 542.53 542.53 542.53 542.53 542.54 542.54 542.54 542.54 542.55 542.55 542.55 542.55 542.56 542.56 542.56 542.56 542.57 542.57 542.57 542.57 542.58 542.58 542.58 542.58 542.59 542.59 542.59 542.59 542.60 542.60 542.60 542.60 542.61 542.61 542.61 542.61 542.62 542.62 542.62 542.62 542.63 542.63 542.63 542.63 542.64 542.64 542.64 542.64 542.65 542.65 542.65 542.65 542.66 542.66 542.66 542.66 542.67 542.67 542.67 542.67 542.68 542.68 542.68 542.68 542.69 542.69 542.69 542.70 542.70 542.70 542.70 542.71 542.71 542.71 542.71 542.72 542.72 542.72 542.72 542.73 542.73 542.73 542.73 542.74 542.74 542.74 542.74 542.75 542.75 542.75 542.75 542.76 542.76 542.76 542.76 542.77 542.77 542.77 542.77 542.78 542.78 542.78 542.78 542.79
542.38 542.39 542.39 542.39 542.39 542.40 542.40 542.40 542.40 542.41 542.41 542.41 542.41 542.42 542.42 542.42 542.42 542.43 542.43 542.43 542.43 542.44 542.44 542.44 542.44 542.45 542.45 542.45 542.45 542.46 542.46 542.46 542.46 542.47 542.47 542.47 542.47 542.48 542.48 542.48 542.48 542.49 542.49 542.49 542.49 542.50 542.50 542.50 542.50 542.51 542.51 542.51 542.51 542.52 542.52 542.52 542.52 542.53 542.53 542.53 542.53 542.54 542.54 542.54 542.54 542.55 542.55 542.55 542.55 542.56 542.56 542.56 542.56 542.57 542.57 542.57 542.57 542.58 542.58 542.58 542.58 542.59 542.59 542.59 542.59 542.60 542.60 542.60 542.60 542.61 542.61 542.61 542.62 542.62 542.62 542.62 542.63 542.63 542.63 542.63 542.64 542.64 542.64 542.64 542.65 542.65 542.65 542.65 542.66 542.66 542.66 542.66 542.67 542.67 542.67 542.67 542.68 542.68 542.68 542.68 542.69 542.69 542.69 542.69 542.70 542.70 542.70 542.70 542.71 542.71 542.71 542.71 542.72 542.72 542.72 542.72 542.73 542.73 542.73 542.73 542.74 542.74 542.74 542.74 542.75 542.75 542.75 542.75 542.76 542.76 542.76 542.76 542.77 542.77 542.77 542.77 542.78 542.78 542.78 542.78
542.38 542.38 542.39 542.39 542.39 542.39 542.40 542.40 542.40 542.40 542.41 542.41 542.41 542.41 542.42 542.42 542.42 542.42 542.43 542.43 542.43 542.43 542.44 542.44 542.44 542.44 542.45 542.45 542.45 542.45 542.46 542.46 542.46 542.46 542.47 542.47 542.47 542.47 542.48 542.48 542.48 542.48 542.49 542.49 542.49 542.49 542.50 542.50 542.50 542.50 542.51 542.51 542.51 542.51 542.52 542.52 542.52 542.52 542.53 542.53 542.53 542.54 542.54 542.54 542.54 542.55 542.55 542.55 542.55 542.56 542.56 542.56 542.56 542.57 542.57 542.57 542.57 542.58 542.58 542.58 542.58 542.59 542.59 542.59 542.59 542.60 542.60 542.60 542.60 542.61 542.61 542.61 542.61 542.62 542.62 542.62 542.62 542.63 542.63 542.63 542.63 542.64 542.64 542.64 542.64 542.65 542.65 542.65 542.65 542.66 542.66 542.66 542.66 542.67 542.67 542.67 542.67 542.68 542.68 542.68 542.68 542.69 542.69 542.69 542.69 542.70 542.70 542.70 542.70 542.71 542.71 542.71 542.71 542.72 542.72 542.72 542.72 542.73 542.73 542.73 542.73 542.74 542.74 542.74 542.74 542.75 542.75 542.75 542.75 542.76 542.76 542.76 542.76 542.77 542.77 542.77 542.77 542.78 542.78 542.78
542.38 542.38 542.38 542.39 542.39 542.39 542.39 542.40 542.40 542.40 542.40 542.41 542.41 542.41 542.41 542.42 542.42 542.42 542.42 542.43 542.43 542.43 542.43 542.44 542.44 542.44 542.45 542.45 542.45 542.45 542.46 542.46 542.46 542.46 542.47 542.47 542.47 542.47 542.48 542.48 542.48 542.48 542.49 542.49 542.49 542.49 542.50 542.50 542.50 542.50 542.51 542.51 542.51 542.51 542.52 542.52 542.52 542.52 542.53 542.53 542.53 542.53 542.54 542.54 542.54 542.54 542.55 542.55 542.55 542.55 542.56 542.56 542.56 542.56 542.57 542.57 542.57 542.57 542.58 542.58 542.58 542.58 542.59 542.59 542.59 542.59 542.60 542.60 542.60 542.60 542.61 542.61 542.61 542.61 542.62 542.62 542.62 542.62 542.63 542.63 542.63 542.63 542.64 542.64 542.64 542.64 542.65 542.65 542.65 542.65 542.66 542.66 542.66 542.66 542.67 542.67 542.67 542.67 542.68 542.68 542.68 542.68 542.69 542.69 542.69 542.69 542.70 542.70 542.70 542.70 542.71 542.71 542.71 542.71 542.72 542.72 542.72 542.72 542.73 542.73 542.73 542.73 542.74 542.74 542.74 542.74 542.75 542.75 542.75 542.75 542.76 542.76 542.76 542.76 542.77 542.77 542.77 542.77 542.78 542.78
542.38 542.38 542.38 542.39 542.39 542.39 542.39 542.40 542.40 542.40 542.40 542.41 542.41 542.41 542.41 542.42 542.42 542.42 542.42 542.43 542.43 542.43 542.43 542.44 542.44 542.44 542.44 542.45 542.45 542.45 542.45 542.46 542.46 542.46 542.46 542.47 542.47 542.47 542.47 542.48 542.48 542.48 542.48 542.49 542.49 542.49 542.49 542.50 542.50 542.50 542.50 542.51 542.51 542.51 542.51 542.52 542.52 542.52 542.52 542.53 542.53 542.53 542.53 542.54 542.54 542.54 542.54 542.55 542.55 542.55 542.55 542.56 542.56 542.56 542.56 542.57 542.57 542.57 542.57 542.58 542.58 542.58 542.58 542.59 542.59 542.59 542.59 542.60 542.60 542.60 542.60 542.61 542.61 542.61 542.61 542.62 542.62 542.62 542.62 542.63 542.63 542.63 542.63 542.64 542.64 542.64 542.64 542.65 542.65 542.65 542.65 542.66 542.66 542.66 542.66 542.67 542.67 542.67 542.67 542.68 542.68 542.68 542.68 542.69 542.69 542.69 542.69 542.70 542.70 542.70 542.70 542.71 542.71 542.71 542.71 542.72 542.72 542.72 542.72 542.73 542.73 542.73 542.73 542.74 542.74 542.74 542.74 542.75 542.75 542.75 542.75 542.76 542.76 542.76 542.76 542.77 542.77 542.77 542.78 542.78
542.38 542.38 542.38 542.38 542.39 542.39 542.39 542.39 542.40 542.40 542.40 542.40 542.41 542.41 542.41 542.41 542.42 542.42 542.42 542.42 542.43 542.43 542.43 542.43 542.44 542.44 542.44 542.44 542.45 542.45 542.45 542.45 542.46 542.46 542.46 542.46 542.47 542.47 542.47 542.47 542.48 542.48 542.48 542.48 542.49 542.49 542.49 542.49 542.50 542.50 542.50 542.50 542.51 542.51 542.51 542.51 542.52 542.52 542.52 542.52 542.53 542.53 542.53 542.53 542.54 542.54 542.54 542.54 542.55 542.55 542.55 542.55 542.56 542.56 542.56 542.56 542.57 542.57 542.57 542.57 542.58 542.58 542.58 542.58 542.59 542.59 542.59 542.59 542.60 542.60 542.60 542.60 542.61 542.61 542.61 542.61 542.62 542.62 542.62 542.62 542.63 542.63 542.63 542.63 542.64 542.64 542.64 542.64 542.65 542.65 542.65 542.65 542.66 542.66 542.66 542.66 542.67 542.67 542.67 542.67 542.68 542.68 542.68 542.68 542.69 542.69 542.69 542.70 542.70 542.70 542.70 542.71 542.71 542.71 542.71 542.72 542.72 542.72 542.72 542.73 542.73 542.73 542.73 542.74 542.74 542.74 542.74 542.75 542.75 542.75 542.75 542.76 542.76 542.76 542.76 542.77 542.77 542.77 542.77 542.78
542.37 542.38 542.38 542.38 542.38 542.39 542.39 542.39 542.39 542.40 542.40 542.40 542.40 542.41 542.41 542.41 542.41 542.42 542.42 542.42 542.42 542.43 542.43 542.43 542.43 542.44 542.44 542.44 542.44 542.45 542.45 542.45 542.45 542.46 542.46 542.46 542.46 542.47 542.47 542.47 542.47 542.48 542.48 542.48 542.48 542.49 542.49 542.49 542.49 542.50 542.50 542.50 542.50 542.51 542.51 542.51 542.51 542.52 542.52 542.52 542.52 542.53 542.53 542.53 542.53 542.54 542.54 542.54 542.54 542.55 542.55 542.55 542.55 542.56 542.56 542.56 542.56 542.57 542.57 542.57 542.57 542.58 542.58 542.58 542.58 542.59 542.59 542.59 542.59 542.60 542.60 542.60 542.60 542.61 542.61 542.61 542.62 542.62 542.62 542.62 542.63 542.63 542.63 542.63 542.64 542.64 542.64 542.64 542.65 542.65 542.65 542.65 542.66 542.66 542.66 542.66 542.67 542.67 542.67 542.67 542.68 542.68 542.68 542.68 542.69 542.69 542.69 542.69 542.70 542.70 542.70 542.70 542.71 542.71 542.71 542.71 542.72 542.72 542.72 542.72 542.73 542.73 542.73 542.73 542.74 542.74 542.74 542.74 542.75 542.75 542.75 542.75 542.76 542.76 542.76 542.76 542.77 542.77 542.77 542.77
542.37 542.37 542.38 542.38 542.38 542.38 542.39 542.39 542.39 542.39 542.40 542.40 542.40 542.40 542.41 542.41 542.41 542.41 542.42 542.42 542.42 542.42 542.43 542.43 542.43 542.43 542.44 542.44 542.44 542.44 542.45 542.45 542.45 542.45 542.46 542.46 542.46 542.46 542.47 542.47 542.47 542.47 542.48 542.48 542.48 542.48 542.49 542.49 542.49 542.49 542.50 542.50 542.50 542.50 542.51 542.51 542.51 542.51 542.52 542.52 542.52 542.52 542.53 542.53 542.53 542.54 542.54 542.54 542.54 542.55 542.55 542.55 542.55 542.56 542.56 542.56 542.56 542.57 542.57 542.57 542.57 542.58 542.58 542.58 542.58 542.59 542.59 542.59 542.59 542.60 542.60 542.60 542.60 542.61 542.61 542.61 542.61 542.62 542.62 542.62 542.62 542.63 542.63 542.63 542.63 542.64 542.64 542.64 542.64 542.65 542.65 542.65 542.65 542.66 542.66 542.66 542.66 542.67 542.67 542.67 542.67 542.68 542.68 542.68 542.68 542.69 542.69 542.69 542.69 542.70 542.70 542.70 542.70 542.71 542.71 542.71 542.71 542.72 542.72 542.72 542.72 542.73 542.73 542.73 542.73 542.74 542.74 542.74 542.74 542.75 542.75 542.75 542.75 542.76 542.76 542.76 542.76 542.77 542.77 542.77
542.37 542.37 542.37 542.38 542.38 542.38 542.38 542.39 542.39 542.39 542.39 542.40 542.40 542.40 542.40 542.41 542.41 542.41 542.41 542.42 542.42 542.42 542.42 542.43 542.43 542.43 542.43 542.44 542.44 542.44 542.44 542.45 542.45 542.45 542.46 542.46 542.46 542.46 542.47 542.47 542.47 542.47 542.48 542.48 542.48 542.48 542.49 542.49 542.49 542.49 542.50 542.50 542.50 542.50 542.51 542.51 542.51 542.51 542.52 542.52 542.52 542.52 542.53 542.53 542.53 542.53 542.54 542.54 542.54 542.54 542.55 542.55 542.55 542.55 542.56 542.56 542.56 542.56 542.57 542.57 542.57 542.57 542.58 542.58 542.58 542.58 542.59 542.59 542.59 542.59 542.60 542.60 542.60 542.60 542.61 542.61 542.61 542.61 542.62 542.62 542.62 542.62 542.63 542.63 542.63 542.63 542.64 542.64 542.64 542.64 542.65 542.65 542.65 542.65 542.66 542.66 542.66 542.66 542.67 542.67 542.67 542.67 542.68 542.68 542.68 542.68 542.69 542.69 542.69 542.69 542.70 542.70 542.70 542.70 542.71 542.71 542.71 542.71 542.72 542.72 542.72 542.72 542.73 542.73 542.73 542.73 542.74 542.74 542.74 542.74 542.75 542.75 542.75 542.75 542.76 542.76 542.76 542.76 542.77 542.77
542.37 542.37 542.37 542.38 542.38 542.38 542.38 542.39 542.39 542.39 542.39 542.40 542.40 542.40 542.40 542.41 542.41 542.41 542.41 542.42 542.42 542.42 542.42 542.43 542.43 542.43 542.43 542.44 542.44 542.44 542.44 542.45 542.45 542.45 542.45 542.46 542.46 542.46 542.46 542.47 542.47 542.47 542.47 542.48 542.48 542.48 542.48 542.49 542.49 542.49 542.49 542.50 542.50 542.50 542.50 542.51 542.51 542.51 542.51 542.52 542.52 542.52 542.52 542.53 542.53 542.53 542.53 542.54 542.54 542.54 542.54 542.55 542.55 542.55 542.55 542.56 542.56 542.56 542.56 542.57 542.57 542.57 542.57 542.58 542.58 542.58 542.58 542.59 542.59 542.59 542.59 542.60 542.60 542.60 542.60 542.61 542.61 542.61 542.61 542.62 542.62 542.62 542.62 542.63 542.63 542.63 542.63 542.64 542.64 542.64 542.64 542.65 542.65 542.65 542.65 542.66 542.66 542.66 542.66 542.67 542.67 542.67 542.67 542.68 542.68 542.68 542.68 542.69 542.69 542.69 542.69 542.70 542.70 542.70 542.70 542.71 542.71 542.71 542.71 542.72 542.72 542.72 542.72 542.73 542.73 542.73 542.73 542.74 542.74 542.74 542.74 542.75 542.75 542.75 542.75 542.76 542.76 542.76 542.76 542.77
542.37 542.37 542.37 542.37 542.38 542.38 542.38 542.38 542.39 542.39 542.39 542.39 542.40 542.40 542.40 542.40 542.41 542.41 542.41 542.41 542.42 542.42 542.42 542.42 542.43 542.43 542.43 542.43 542.44 542.44 542.44 542.44 542.45 542.45 542.45 542.45 542.46 542.46 542.46 542.46 542.47 542.47 542.47 542.47 542.48 542.48 542.48 542.48 542.49 542.49 542.49 542.49 542.50 542.50 542.50 542.50 542.51 542.51 542.51 542.51 542.52 542.52 542.52 542.52 542.53 542.53 542.53 542.53 542.54 542.54 542.54 542.54 542.55 542.55 542.55 542.55 542.56 542.56 542.56 542.56 542.57 542.57 542.57 542.57 542.58 542.58 542.58 542.58 542.59 542.59 542.59 542.59 542.60 542.60 542.60 542.60 542.61 542.61 542.61 542.61 542.62 542.62 542.62 542.62 542.63 542.63 542.63 542.63 542.64 542.64 542.64 542.64 542.65 542.65 542.65 542.65 542.66 542.66 542.66 542.66 542.67 542.67 542.67 542.67 542.68 542.68 542.68 542.68 542.69 542.69 542.69 542.70 542.70 542.70 542.70 542.71 542.71 542.71 542.71 542.72 542.72 542.72 542.72 542.73 542.73 542.73 542.73 542.74 542.74 542.74 542.74 542.75 542.75 542.75 542.75 542.76 542.76 542.76 542.76 542.77
542.36 542.37 542.37 542.37 542.37 542.38 542.38 542.38 542.38 542.39 542.39 542.39 542.39 542.40 542.40 542.40 542.40 542.41 542.41 542.41 542.41 542.42 542.42 542.42 542.42 542.43 542.43 542.43 542.43 542.44 542.44 542.44 542.44 542.45 542.45 542.45 542.45 542.46 542.46 542.46 542.46 542.47 542.47 542.47 542.47 542.48 542.48 542.48 542.48 542.49 542.49 542.49 542.49 542.50 542.50 542.50 542.50 542.51 542.51 542.51 542.51 542.52 542.52 542.52 542.52 542.53 542.53 542.53 542.53 542.54 542.54 542.54 542.54 542.55 542.55 542.55 542.55 542.56 542.56 542.56 542.56 542.57 542.57 542.57 542.57 542.58 542.58 542.58 542.58 542.59 542.59 542.59 542.59 542.60 542.60 542.60 542.60 542.61 542.61 542.61 542.62 542.62 542.62 542.62 542.63 542.63 542.63 542.63 542.64 542.64 542.64 542.64 542.65 542.65 542.65 542.65 542.66 542.66 542.66 542.66 542.67 542.67 542.67 542.67 542.68 542.68 542.68 542.68 542.69 542.69 542.69 542.69 542.70 542.70 542.70 542.70 542.71 542.71 542.71 542.71 542.72 542.72 542.72 542.72 542.73 542.73 542.73 542.73 542.74 542.74 542.74 542.74 542.75 542.75 542.75 542.75 542.76 542.76 542.76 542.76
542.36 542.36 542.37 542.37 542.37 542.37 542.38 542.38 542.38 542.38 542.39 542.39 542.39 542.39 542.40 542.40 542.40 542.40 542.41 542.41 542.41 542.41 542.42 542.42 542.42 542.42 542.43 542.43 542.43 542.43 542.44 542.44 542.44 542.44 542.45 542.45 542.45 542.45 542.46 542.46 542.46 542.46 542.47 542.47 542.47 542.47 542.48 542.48 542.48 542.48 542.49 542.49 542.49 542.49 542.50 542.50 542.50 542.50 542.51 542.51 542.51 542.51 542.52 542.52 542.52 542.52 542.53 542.53 542.53 542.54 542.54 542.54 542.54 542.55 542.55 542.55 542.55 542.56 542.56 542.56 542.56 542.57 542.57 542.57 542.57 542.58 542.58 542.58 542.58 542.59 542.59 542.59 542.59 542.60 542.60 542.60 542.60 542.61 542.61 542.61 542.61 542.62 542.62 542.62 542.62 542.63 542.63 542.63 542.63 542.64 542.64 542.64 542.64 542.65 542.65 542.65 542.65 542.66 542.66 542.66 542.66 542.67 542.67 542.67 542.67 542.68 542.68 542.68 542.68 542.69 542.69 542.69 542.69 542.70 542.70 542.70 542.70 542.71 542.71 542.71 542.71 542.72 542.72 542.72 542.72 542.73 542.73 542.73 542.73 542.74 542.74 542.74 542.74 542.75 542.75 542.75 542.75 542.76 542.76 542.76
542.36 542.36 542.36 542.37 542.37 542.37 542.37 542.38 542.38 542.38 542.38 542.39 542.39 542.39 542.39 542.40 542.40 542.40 542.40 542.41 542.41 542.41 542.41 542.42 542.42 542.42 542.42 542.43 542.43 542.43 542.43 542.44 542.44 542.44 542.44 542.45 542.45 542.45 542.46 542.46 542.46 542.46 542.47 542.47 542.47 542.47 542.48 542.48 542.48 542.48 542.49 542.49 542.49 542.49 542.50 542.50 542.50 542.50 542.51 542.51 542.51 542.51 542.52 542.52 542.52 542.52 542.53 542.53 542.53 542.53 542.54 542.54 542.54 542.54 542.55 542.55 542.55 542.55 542.56 542.56 542.56 542.56 542.57 542.57 542.57 542.57 542.58 542.58 542.58 542.58 542.59 542.59 542.59 542.59 542.60 542.60 542.60 542.60 542.61 542.61 542.61 542.61 542.62 542.62 542.62 542.62 542.63 542.63 542.63 542.63 542.64 542.64 542.64 542.64 542.65 542.65 542.65 542.65 542.66 542.66 542.66 542.66 542.67 542.67 542.67 542.67 542.68 542.68 542.68 542.68 542.69 542.69 542.69 542.69 542.70 542.70 542.70 542.70 542.71 542.71 542.71 542.71 542.72 542.72 542.72 542.72 542.73 542.73 542.73 542.73 542.74 542.74 542.74 542.74 542.75 542.75 542.75 542.75 542.76 542.76
542.36 542.36 542.36 542.36 542.37 542.37 542.37 542.38 542.38 542.38 542.38 542.39 542.39 542.39 542.39 542.40 542.40 542.40 542.40 542.41 542.41 542.41 542.41 542.42 542.42 542.42 542.42 542.43 542.43 542.43 542.43 542.44 542.44 542.44 542.44 542.45 542.45 542.45 542.45 542.46 542.46 542.46 542.46 542.47 542.47 542.47 542.47 542.48 542.48 542.48 542.48 542.49 542.49 542.49 542.49 542.50 542.50 542.50 542.50 542.51 542.51 542.51 542.51 542.52 542.52 542.52 542.52 542.53 542.53 542.53 542.53 542.54 542.54 542.54 542.54 542.55 542.55 542.55 542.55 542.56 542.56 542.56 542.56 542.57 542.57 542.57 542.57 542.58 542.58 542.58 542.58 542.59 542.59 542.59 542.59 542.60 542.60 542.60 542.60 542.61 542.61 542.61 542.61 542.62 542.62 542.62 542.62 542.63 542.63 542.63 542.63 542.64 542.64 542.64 542.64 542.65 542.65 542.65 542.65 542.66 542.66 542.66 542.66 542.67 542.67 542.67 542.67 542.68 542.68 542.68 542.68 542.69 542.69 542.69 542.69 542.70 542.70 542.70 542.70 542.71 542.71 542.71 542.71 542.72 542.72 542.72 542.72 542.73 542.73 542.73 542.73 542.74 542.74 542.74 542.74 542.75 542.75 542.75 542.75 542.76
542.36 542.36 542.36 542.36 542.37 542.37 542.37 542.37 542.38 542.38 542.38 542.38 542.39 542.39 542.39 542.39 542.40 542.40 542.40 542.40 542.41 542.41 542.41 542.41 542.42 542.42 542.42 542.42 542.43 542.43 542.43 542.43 542.44 542.44 542.44 542.44 542.45 542.45 542.45 542.45 542.46 542.46 542.46 542.46 542.47 542.47 542.47 542.47 542.48 542.48 542.48 542.48 542.49 542.49 542.49 542.49 542.50 542.50 542.50 542.50 542.51 542.51 542.51 542.51 542.52 542.52 542.52 542.52 542.53 542.53 542.53 542.53 542.54 542.54 542.54 542.54 542.55 542.55 542.55 542.55 542.56 542.56 542.56 542.56 542.57 542.57 542.57 542.57 542.58 542.58 542.58 542.58 542.59 542.59 542.59 542.59 542.60 542.60 542.60 542.60 542.61 542.61 542.61 542.61 542.62 542.62 542.62 542.62 542.63 542.63 542.63 542.63 542.64 542.64 542.64 542.64 542.65 542.65 542.65 542.65 542.66 542.66 542.66 542.66 542.67 542.67 542.67 542.67 542.68 542.68 542.68 542.68 542.69 542.69 542.69 542.70 542.70 542.70 542.70 542.71 542.71 542.71 542.71 542.72 542.72 542.72 542.72 542.73 542.73 542.73 542.73 542.74 542.74 542.74 542.74 542.75 542.75 542.75 542.75 542.76
542.35 542.36 542.36 542.36 542.36 542.37 542.37 542.37 542.37 542.38 542.38 542.38 542.38 542.39 542.39 542.39 542.39 542.40 542.40 542.40 542.40 542.41 542.41 542.41 542.41 542.42 542.42 542.42 542.42 542.43 542.43 542.43 542.43 542.44 542.44 542.44 542.44 542.45 542.45 542.45 542.45 542.46 542.46 542.46 542.46 542.47 542.47 542.47 542.47 542.48 542.48 542.48 542.48 542.49 542.49 542.49 542.49 542.50 542.50 542.50 542.50 542.51 542.51 542.51 542.51 542.52 542.52 542.52 542.52 542.53 542.53 542.53 542.53 542.54 542.54 542.54 542.54 542.55 542.55 542.55 542.55 542.56 542.56 542.56 542.56 542.57 542.57 542.57 542.57 542.58 542.58 542.58 542.58 542.59 542.59 542.59 542.59 542.60 542.60 542.60 542.60 542.61 542.61 542.61 542.61 542.62 542.62 542.62 542.63 542.63 542.63 542.63 542.64 542.64 542.64 542.64 542.65 542.65 542.65 542.65 542.66 542.66 542.66 542.66 542.67 542.67 542.67 542.67 542.68 542.68 542.68 542.68 542.69 542.69 542.69 542.69 542.70 542.70 542.70 542.70 542.71 542.71 542.71 542.71 542.72 542.72 542.72 542.72 542.73 542.73 542.73 542.73 542.74 542.74 542.74 542.74 542.75 542.75 542.75 542.75
542.35 542.35 542.36 542.36 542.36 542.36 542.37 542.37 542.37 542.37 542.38 542.38 542.38 542.38 542.39 542.39 542.39 542.39 542.40 542.40 542.40 542.40 542.41 542.41 542.41 542.41 542.42 542.42 542.42 542.42 542.43 542.43 558.50 558.50 558.50 558.50 558.50 558.50 558.50 558.50 558.50 558.50 558.50 558.50 558.50 558.50 558.50 558.50 558.50 558.50 558.50 558.50 558.50 558.50 558.50 558.50 558.50 558.50 558.50 558.50 558.50 558.50 558.50 558.50 558.50 558.50 558.50 558.50 558.50 558.50 558.50 558.50 558.50 558.50 558.50 558.50 558.50 558.50 558.50 558.50 558.50 558.50 558.50 558.50 558.50 558.50 558.50 558.50 558.50 558.50 558.50 558.50 558.50 558.50 558.50 558.50 558.50 558.50 558.50 558.50 558.50 558.50 558.50 558.50 558.50 558.50 558.50 558.50 558.50 558.50 558.50 558.50 558.50 558.50 558.50 558.50 558.50 558.50 558.50 558.50 558.50 558.50 558.50 558.50 558.50 558.50 558.50 558.50 542.67 542.68 542.68 542.68 542.68 542.69 542.69 542.69 542.69 542.70 542.70 542.70 542.70 542.71 542.71 542.71 542.71 542.72 542.72 542.72 542.72 542.73 542.73 542.73 542.73 542.74 542.74 542.74 542.74 542.75 542.75 542.75
542.35 542.35 542.35 542.36 542.36 542.36 542.36 542.37 542.37 542.37 542.37 542.38 542.38 542.38 542.38 542.39 542.39 542.39 542.39 542.40 542.40 542.40 542.40 542.41 542.41 542.41 542.41 542.42 542.42 542.42 542.42 542.43 558.50 558.50 558.50 558.50 558.50 558.50 558.50 558.50 558.50 558.50 558.50 558.50 558.50 558.50 558.50 558.50 558.50 558.50 558.50 558.50 558.50 558.50 558.50 558.50 558.50 558.50 558.50 558.50 558.50 558.50 558.50 558.50 558.50 558.50 558.50 558.50 558.50 558.50 558.50 558.50 558.50 558.50 558.50 558.50 558.50 558.50 558.50 558.50 558.50 558.50 558.50 558.50 558.50 558.50 558.50 558.50 558.50 558.50 558.50 558.50 558.50 558.50 558.50 558.50 558.50 558.50 558.50 558.50 558.50 558.50 558.50 558.50 558.50 558.50 558.50 558.50 558.50 558.50 558.50 558.50 558.50 558.50 558.50 558.50 558.50 558.50 558.50 558.50 558.50 558.50 558.50 558.50 558.50 558.50 558.50 558.50 542.67 542.67 542.68 542.68 542.68 542.68 542.69 542.69 542.69 542.69 542.70 542.70 542.70 542.70 542.71 542.71 542.71 542.71 542.72 542.72 542.72 542.72 542.73 542.73 542.73 542.73 542.74 542.74 542.74 542.74 542.75 542.75
542.35 542.35 542.35 542.35 542.36 542.36 542.36 542.36 542.37 542.37 542.37 542.38 542.38 542.38 542.38 542.39 542.39 542.39 542.39 542.40 542.40 542.40 542.40 542.41 542.41 542.41 542.41 542.42 542.42 542.42 542.42 542.43 558.50 558.50 558.50 558.50 558.50 558.50 558.50 558.50 558.50 558.50 558.50 558.50 558.50 558.50 558.50 558.50 558.50 558.50 558.50 558.50 558.50 558.50 558.50 558.50 558.50 558.50 558.50 558.50 558.50 558.50 558.50 558.50 558.50 558.50 558.50 558.50 558.50 558.50 558.50 558.50 558.50 558.50 558.50 558.50 558.50 558.50 558.50 558.50 558.50 558.50 558.50 558.50 558.50 558.50 558.50 558.50 558.50 558.50 558.50 558.50 558.50 558.50 558.50 558.50 558.50 558.50 558.50 558.50 558.50 558.50 558.50 558.50 558.50 558.50 558.50 558.50 558.50 558.50 558.50 558.50 558.50 558.50 558.50 558.50 558.50 558.50 558.50 558.50 558.50 558.50 558.50 558.50 558.50 558.50 558.50 558.50 542.67 542.67 542.67 542.68 542.68 542.68 542.68 542.69 542.69 542.69 542.69 542.70 542.70 542.70 542.70 542.71 542.71 542.71 542.71 542.72 542.72 542.72 542.72 542.73 542.73 542.73 542.73 542.74 542.74 542.74 542.74 542.75
542.35 542.35 542.35 542.35 542.36 542.36 542.36 542.36 542.37 542.37 542.37 542.37 542.38 542.38 542.38 542.38 542.39 542.39 542.39 542.39 542.40 542.40 542.40 542.40 542.41 542.41 542.41 542.41 542.42 542.42 542.42 542.42 558.50 558.50 558.50 558.50 558.50 558.50 558.50 558.50 558.50 558.50 558.50 558.50 558.50 558.50 558.50 558.50 558.50 558.50 558.50 558.50 558.50 558.50 558.50 558.50 558.50 558.50 558.50 558.50 558.50 558.50 558.50 558.50 558.50 558.50 558.50 558.50 558.50 558.50 558.50 558.50 558.50 558.50 558.50 558.50 558.50 558.50 558.50 558.50 558.50 558.50 558.50 558.50 558.50 558.50 558.50 558.50 558.50 558.50 558.50 558.50 558.50 558.50 558.50 558.50 558.50 558.50 558.50 558.50 558.50 558.50 558.50 558.50 558.50 558.50 558.50 558.50 558.50 558.50 558.50 558.50 558.50 558.50 558.50 558.50 558.50 558.50 558.50 558.50 558.50 558.50 558.50 558.50 558.50 558.50 558.50 558.50 542.67 542.67 542.67 542.67 542.68 542.68 542.68 542.68 542.69 542.69 542.69 542.70 542.70 542.70 542.70 542.71 542.71 542.71 542.71 542.72 542.72 542.72 542.72 542.73 542.73 542.73 542.73 542.74 542.74 542.74 542.74 542.75
542.34 542.35 542.35 542.35 542.35 542.36 542.36 542.36 542.36 542.37 542.37 542.37 542.37 542.38 542.38 542.38 542.38 542.39 542.39 542.39 542.39 542.40 542.40 542.40 542.40 542.41 542.41 542.41 542.41 542.42 542.42 542.42 558.50 558.50 558.50 558.50 558.50 558.50 558.50 558.50 558.50 558.50 558.50 558.50 558.50 558.50 558.50 558.50 558.50 558.50 558.50 558.50 558.50 558.50 558.50 558.50 558.50 558.50 558.50 558.50 558.50 558.50 558.50 558.50 558.50 558.50 558.50 558.50 558.50 558.50 558.50 558.50 558.50 558.50 558.50 558.50 558.50 558.50 558.50 558.50 558.50 558.50 558.50 558.50 558.50 558.50 558.50 558.50 558.50 558.50 558.50 558.50 558.50 558.50 558.50 558.50 558.50 558.50 558.50 558.50 558.50 558.50 558.50 558.50 558.50 558.50 558.50 558.50 558.50 558.50 558.50 558.50 558.50 558.50 558.50 558.50 558.50 558.50 558.50 558.50 558.50 558.50 558.50 558.50 558.50 558.50 558.50 558.50 542.67 542.67 542.67 542.67 542.68 542.68 542.68 542.68 542.69 542.69 542.69 542.69 542.70 542.70 542.70 542.70 542.71 542.71 542.71 542.71 542.72 542.72 542.72 542.72 542.73 542.73 542.73 542.73 542.74 542.74 542.74 542.74
542.34 542.34 542.35 542.35 542.35 542.35 542.36 542.36 542.36 542.36 542.37 542.37 542.37 542.37 542.38 542.38 542.38 542.38 542.39 542.39 542.39 542.39 542.40 542.40 542.40 542.40 542.41 542.41 542.41 542.41 542.42 542.42 558.50 558.50 558.50 558.50 558.50 558.50 558.50 558.50 558.50 558.50 558.50 558.50 558.50 558.50 558.50 558.50 558.50 558.50 558.50 558.50 558.50 558.50 558.50 558.50 558.50 558.50 558.50 558.50 558.50 558.50 558.50 558.50 558.50 558.50 558.50 558.50 558.50 558.50 558.50 558.50 558.50 558.50 558.50 558.50 558.50 558.50 558.50 558.50 558.50 558.50 558.50 558.50 558.50 558.50 558.50 558.50 558.50 558.50 558.50 558.50 558.50 558.50 558.50 558.50 558.50 558.50 558.50 558.50 558.50 558.50 558.50 558.50 558.50 558.50 558.50 558.50 558.50 558.50 558.50 558.50 558.50 558.50 558.50 558.50 558.50 558.50 558.50 558.50 558.50 558.50 558.50 558.50 558.50 558.50 558.50 558.50 542.66 542.67 542.67 542.67 542.67 542.68 542.68 542.68 542.68 542.69 542.69 542.69 542.69 542.70 542.70 542.70 542.70 542.71 542.71 542.71 542.71 542.72 542.72 542.72 542.72 542.73 542.73 542.73 542.73 542.74 542.74 542.74
542.34 542.34 542.34 542.35 542.35 542.35 542.35 542.36 542.36 542.36 542.36 542.37 542.37 542.37 542.37 542.38 542.38 542.38 542.38 542.39 542.39 542.39 542.39 542.40 542.40 542.40 542.40 542.41 542.41 542.41 542.41 542.42 558.50 558.50 558.50 558.50 558.50 558.50 558.50 558.50 558.50 558.50 558.50 558.50 558.50 558.50 558.50 558.50 558.50 558.50 558.50 558.50 558.50 558.50 558.50 558.50 558.50 558.50 558.50 558.50 558.50 558.50 558.50 558.50 558.50 558.50 558.50 558.50 558.50 558.50 558.50 558.50 558.50 558.50 558.50 558.50 558.50 558.50 558.50 558.50 558.50 558.50 558.50 558.50 558.50 558.50 558.50 558.50 558.50 558.50 558.50 558.50 558.50 558.50 558.50 558.50 558.50 558.50 558.50 558.50 558.50 558.50 558.50 558.50 558.50 558.50 558.50 558.50 558.50 558.50 558.50 558.50 558.50 558.50 558.50 558.50 558.50 558.50 558.50 558.50 558.50 558.50 558.50 558.50 558.50 558.50 558.50 558.50 542.66 542.66 542.67 542.67 542.67 542.67 542.68 542.68 542.68 542.68 542.69 542.69 542.69 542.69 542.70 542.70 542.70 542.70 542.71 542.71 542.71 542.71 542.72 542.72 542.72 542.72 542.73 542.73 542.73 542.73 542.74 542.74
542.34 542.34 542.34 542.34 542.35 542.35 542.35 542.35 542.36 542.36 542.36 542.36 542.37 542.37 542.37 542.38 542.38 542.38 542.38 542.39 542.39 542.39 542.39 542.40 542.40 542.40 542.40 542.41 542.41 542.41 542.41 542.42 558.50 558.50 558.50 558.50 558.50 558.50 558.50 558.50 558.50 558.50 558.50 558.50 558.50 558.50 558.50 558.50 558.50 558.50 558.50 558.50 558.50 558.50 558.50 558.50 558.50 558.50 558.50 558.50 558.50 558.50 558.50 558.50 558.50 558.50 558.50 558.50 558.50 558.50 558.50 558.50 558.50 558.50 558.50 558.50 558.50 558.50 558.50 558.50 558.50 558.50 558.50 558.50 558.50 558.50 558.50 558.50 558.50 558.50 558.50 558.50 558.50 558.50 558.50 558.50 558.50 558.50 558.50 558.50 558.50 558.50 558.50 558.50 558.50 558.50 558.50 558.50 558.50 558.50 558.50 558.50 558.50 558.50 558.50 558.50 558.50 558.50 558.50 558.50 558.50 558.50 558.50 558.50 558.50 558.50 558.50 558.50 542.66 542.66 542.66 542.67 542.67 542.67 542.67 542.68 542.68 542.68 542.68 542.69 542.69 542.69 542.69 542.70 542.70 542.70 542.70 542.71 542.71 542.71 542.71 542.72 542.72 542.72 542.72 542.73 542.73 542.73 542.73 542.74
542.34 542.34 542.34 542.34 542.35 542.35 542.35 542.35 542.36 542.36 542.36 542.36 542.37 542.37 542.37 542.37 542.38 542.38 542.38 542.38 542.39 542.39 542.39 542.39 542.40 542.40 542.40 542.40 542.41 542.41 542.41 542.41 558.50 558.50 558.50 558.50 558.50 558.50 558.50 558.50 558.50 558.50 558.50 558.50 558.50 558.50 558.50 558.50 558.50 558.50 558.50 558.50 558.50 558.50 558.50 558.50 558.50 558.50 558.50 558.50 558.50 558.50 558.50 558.50 558.50 558.50 558.50 558.50 558.50 558.50 558.50 558.50 558.50 558.50 558.50 558.50 558.50 558.50 558.50 558.50 558.50 558.50 558.50 558.50 558.50 558.50 558.50 558.50 558.50 558.50 558.50 558.50 558.50 558.50 558.50 558.50 558.50 558.50 558.50 558.50 558.50 558.50 558.50 558.50 558.50 558.50 558.50 558.50 558.50 558.50 558.50 558.50 558.50 558.50 558.50 558.50 558.50 558.50 558.50 558.50 558.50 558.50 558.50 558.50 558.50 558.50 558.50 558.50 542.66 542.66 542.66 542.66 542.67 542.67 542.67 542.67 542.68 542.68 542.68 542.68 542.69 542.69 542.69 542.70 542.70 542.70 542.70 542.71 542.71 542.71 542.71 542.72 542.72 542.72 542.72 542.73 542.73 542.73 542.73 542.74
542.33 542.34 542.34 542.34 542.34 542.35 542.35 542.35 542.35 542.36 542.36 542.36 542.36 542.37 542.37 542.37 542.37 542.38 542.38 542.38 542.38 542.39 542.39 542.39 542.39 542.40 542.40 542.40 542.40 542.41 542.41 542.41 558.50 558.50 558.50 558.50 558.50 558.50 558.50 558.50 558.50 558.50 558.50 558.50 558.50 558.50 558.50 558.50 558.50 558.50 558.50 558.50 558.50 558.50 558.50 558.50 558.50 558.50 558.50 558.50 558.50 558.50 558.50 558.50 558.50 558.50 558.50 558.50 558.50 558.50 558.50 558.50 558.50 558.50 558.50 558.50 558.50 558.50 558.50 558.50 558.50 558.50 558.50 558.50 558.50 558.50 558.50 558.50 558.50 558.50 558.50 558.50 558.50 558.50 558.50 558.50 558.50 558.50 558.50 558.50 558.50 558.50 558.50 558.50 558.50 558.50 558.50 558.50 558.50 558.50 558.50 558.50 558.50 558.50 558.50 558.50 558.50 558.50 558.50 558.50 558.50 558.50 558.50 558.50 558.50 558.50 558.50 558.50 542.66 542.66 542.66 542.66 542.67 542.67 542.67 542.67 542.68 542.68 542.68 542.68 542.69 542.69 542.69 542.69 542.70 542.70 542.70 542.70 542.71 542.71 542.71 542.71 542.72 542.72 542.72 542.72 542.73 542.73 542.73 542.73
542.33 542.33 542.34 542.34 542.34 542.34 542.35 542.35 542.35 542.35 542.36 542.36 542.36 542.36 542.37 542.37 542.37 542.37 542.38 542.38 542.38 542.38 542.39 542.39 542.39 542.39 542.40 542.40 542.40 542.40 542.41 542.41 558.50 558.50 558.50 558.50 558.50 558.50 558.50 558.50 558.50 558.50 558.50 558.50 558.50 558.50 558.50 558.50 558.50 558.50 558.50 558.50 558.50 558.50 558.50 558.50 558.50 558.50 558.50 558.50 558.50 558.50 558.50 558.50 558.50 558.50 558.50 558.50 558.50 558.50 558.50 558.50 558.50 558.50 558.50 558.50 558.50 558.50 558.50 558.50 558.50 558.50 558.50 558.50 558.50 558.50 558.50 558.50 558.50 558.50 558.50 558.50 558.50 558.50 558.50 558.50 558.50 558.50 558.50 558.50 558.50 558.50 558.50 558.50 558.50 558.50 558.50 558.50 558.50 558.50 558.50 558.50 558.50 558.50 558.50 558.50 558.50 558.50 558.50 558.50 558.50 558.50 558.50 558.50 558.50 558.50 558.50 558.50 542.65 542.66 542.66 542.66 542.66 542.67 542.67 542.67 542.67 542.68 542.68 542.68 542.68 542.69 542.69 542.69 542.69 542.70 542.70 542.70 542.70 542.71 542.71 542.71 542.71 542.72 542.72 542.72 542.72 542.73 542.73 542.73
542.33 542.33 542.33 542.34 542.34 542.34 542.34 542.35 542.35 542.35 542.35 542.36 542.36 542.36 542.36 542.37 542.37 542.37 542.37 542.38 542.38 542.38 542.38 542.39 542.39 542.39 542.39 542.40 542.40 542.40 542.40 542.41 558.50 558.50 558.50 558.50 558.50 558.50 558.50 558.50 558.50 558.50 558.50 558.50 558.50 558.50 558.50 558.50 558.50 558.50 558.50 558.50 558.50 558.50 558.50 558.50 558.50 558.50 558.50 558.50 558.50 558.50 558.50 558.50 558.50 558.50 558.50 558.50 558.50 558.50 558.50 558.50 558.50 558.50 558.50 558.50 558.50 558.50 558.50 558.50 558.50 558.50 558.50 558.50 558.50 558.50 558.50 558.50 558.50 558.50 558.50 558.50 558.50 558.50 558.50 558.50 558.50 558.50 558.50 558.50 558.50 558.50 558.50 558.50 558.50 558.50 558.50 558.50 558.50 558.50 558.50 558.50 558.50 558.50 558.50 558.50 558.50 558.50 558.50 558.50 558.50 558.50 558.50 558.50 558.50 558.50 558.50 558.50 542.65 542.65 542.66 542.66 542.66 542.66 542.67 542.67 542.67 542.67 542.68 542.68 542.68 542.68 542.69 542.69 542.69 542.69 542.70 542.70 542.70 542.70 542.71 542.71 542.71 542.71 542.72 542.72 542.72 542.72 542.73 542.73
542.33 542.33 542.33 542.33 542.34 542.34 542.34 542.34 542.35 542.35 542.35 542.35 542.36 542.36 542.36 542.36 542.37 542.37 542.37 542.38 542.38 542.38 542.38 542.39 542.39 542.39 542.39 542.40 542.40 542.40 542.40 542.41 558.50 558.50 558.50 558.50 558.50 558.50 558.50 558.50 558.50 558.50 558.50 558.50 558.50 558.50 558.50 558.50 558.50 558.50 558.50 558.50 558.50 558.50 558.50 558.50 558.50 558.50 558.50 558.50 558.50 558.50 558.50 558.50 558.50 558.50 558.50 558.50 558.50 558.50 558.50 558.50 558.50 558.50 558.50 558.50 558.50 558.50 558.50 558.50 558.50 558.50 558.50 558.50 558.50 558.50 558.50 558.50 558.50 558.50 558.50 558.50 558.50 558.50 558.50 558.50 558.50 558.50 558.50 558.50 558.50 558.50 558.50 558.50 558.50 558.50 558.50 558.50 558.50 558.50 558.50 558.50 558.50 558.50 558.50 558.50 558.50 558.50 558.50 558.50 558.50 558.50 558.50 558.50 558.50 558.50 558.50 558.50 542.65 542.65 542.65 542.66 542.66 542.66 542.66 542.67 542.67 542.67 542.67 542.68 542.68 542.68 542.68 542.69 542.69 542.69 542.69 542.70 542.70 542.70 542.70 542.71 542.71 542.71 542.71 542.72 542.72 542.72 542.72 542.73
542.33 542.33 542.33 542.33 542.34 542.34 542.34 542.34 542.35 542.35 542.35 542.35 542.36 542.36 542.36 542.36 542.37 542.37 542.37 542.37 542.38 542.38 542.38 542.38 542.39 542.39 542.39 542.39 542.40 542.40 542.40 542.40 558.50 558.50 558.50 558.50 558.50 558.50 558.50 558.50 558.50 558.50 558.50 558.50 558.50 558.50 558.50 558.50 558.50 558.50 558.50 558.50 558.50 558.50 558.50 558.50 558.50 558.50 558.50 558.50 558.50 558.50 558.50 558.50 558.50 558.50 558.50 558.50 558.50 558.50 558.50 558.50 558.50 558.50 558.50 558.50 558.50 558.50 558.50 558.50 558.50 558.50 558.50 558.50 558.50 558.50 558.50 558.50 558.50 558.50 558.50 558.50 558.50 558.50 558.50 558.50 558.50 558.50 558.50 558.50 558.50 558.50 558.50 558.50 558.50 558.50 558.50 558.50 558.50 558.50 558.50 558.50 558.50 558.50 558.50 558.50 558.50 558.50 558.50 558.50 558.50 558.50 558.50 558.50 558.50 558.50 558.50 558.50 542.65 542.65 542.65 542.65 542.66 542.66 542.66 542.66 542.67 542.67 542.67 542.67 542.68 542.68 542.68 542.68 542.69 542.69 542.69 542.70 542.70 542.70 542.70 542.71 542.71 542.71 542.71 542.72 542.72 542.72 542.72 542.73
542.32 542.33 542.33 542.33 542.33 542.34 542.34 542.34 542.34 542.35 542.35 542.35 542.35 542.36 542.36 542.36 542.36 542.37 542.37 542.37 542.37 542.38 542.38 542.38 542.38 542.39 542.39 542.39 542.39 542.40 542.40 542.40 558.50 558.50 558.50 558.50 558.50 558.50 558.50 558.50 558.50 558.50 558.50 558.50 558.50 558.50 558.50 558.50 558.50 558.50 558.50 558.50 558.50 558.50 558.50 558.50 558.50 558.50 558.50 558.50 558.50 558.50 558.50 558.50 558.50 558.50 558.50 558.50 558.50 558.50 558.50 558.50 558.50 558.50 558.50 558.50 558.50 558.50 558.50 558.50 558.50 558.50 558.50 558.50 558.50 558.50 558.50 558.50 558.50 558.50 558.50 558.50 558.50 558.50 558.50 558.50 558.50 558.50 558.50 558.50 558.50 558.50 558.50 558.50 558.50 558.50 558.50 558.50 558.50 558.50 558.50 558.50 558.50 558.50 558.50 558.50 558.50 558.50 558.50 558.50 558.50 558.50 558.50 558.50 558.50 558.50 558.50 558.50 542.65 542.65 542.65 542.65 542.66 542.66 542.66 542.66 542.67 542.67 542.67 542.67 542.68 542.68 542.68 542.68 542.69 542.69 542.69 542.69 542.70 542.70 542.70 542.70 542.71 542.71 542.71 542.71 542.72 542.72 542.72 542.72
542.32 542.32 542.33 542.33 542.33 542.33 542.34 542.34 542.34 542.34 542.35 542.35 542.35 542.35 542.36 542.36 542.36 542.36 542.37 542.37 542.37 542.37 542.38 542.38 542.38 542.38 542.39 542.39 542.39 542.39 542.40 542.40 558.50 558.50 558.50 558.50 558.50 558.50 558.50 558.50 558.50 558.50 558.50 558.50 558.50 558.50 558.50 558.50 558.50 558.50 558.50 558.50 558.50 558.50 558.50 558.50 558.50 558.50 558.50 558.50 558.50 558.50 558.50 558.50 558.50 558.50 558.50 558.50 558.50 558.50 558.50 558.50 558.50 558.50 558.50 558.50 558.50 558.50 558.50 558.50 558.50 558.50 558.50 558.50 558.50 558.50 558.50 558.50 558.50 558.50 558.50 558.50 558.50 558.50 558.50 558.50 558.50 558.50 558.50 558.50 558.50 558.50 558.50 558.50 558.50 558.50 558.50 558.50 558.50 558.50 558.50 558.50 558.50 558.50 558.50 558.50 558.50 558.50 558.50 558.50 558.50 558.50 558.50 558.50 558.50 558.50 558.50 558.50 542.64 542.65 542.65 542.65 542.65 542.66 542.66 542.66 542.66 542.67 542.67 542.67 542.67 542.68 542.68 542.68 542.68 542.69 542.69 542.69 542.69 542.70 542.70 542.70 542.70 542.71 542.71 542.71 542.71 542.72 542.72 542.72
542.32 542.32 542.32 542.33 542.33 542.33 542.33 542.34 542.34 542.34 542.34 542.35 542.35 542.35 542.35 542.36 542.36 542.36 542.36 542.37 542.37 542.37 542.37 542.38 542.38 542.38 542.38 542.39 542.39 542.39 542.39 542.40 558.50 558.50 558.50 558.50 558.50 558.50 558.50 558.50 558.50 558.50 558.50 558.50 558.50 558.50 558.50 558.50 558.50 558.50 558.50 558.50 558.50 558.50 558.50 558.50 558.50 558.50 558.50 558.50 558.50 558.50 558.50 558.50 558.50 558.50 558.50 558.50 558.50 558.50 558.50 558.50 558.50 558.50 558.50 558.50 558.50 558.50 558.50 558.50 558.50 558.50 558.50 558.50 558.50 558.50 558.50 558.50 558.50 558.50 558.50 558.50 558.50 558.50 558.50 558.50 558.50 558.50 558.50 558.50 558.50 558.50 558.50 558.50 558.50 558.50 558.50 558.50 558.50 558.50 558.50 558.50 558.50 558.50 558.50 558.50 558.50 558.50 558.50 558.50 558.50 558.50 558.50 558.50 558.50 558.50 558.50 558.50 542.64 542.64 542.65 542.65 542.65 542.65 542.66 542.66 542.66 542.66 542.67 542.67 542.67 542.67 542.68 542.68 542.68 542.68 542.69 542.69 542.69 542.69 542.70 542.70 542.70 542.70 542.71 542.71 542.71 542.71 542.72 542.72
542.32 542.32 542.32 542.32 542.33 542.33 542.33 542.33 542.34 542.34 542.34 542.34 542.35 542.35 542.35 542.35 542.36 542.36 542.36 542.36 542.37 542.37 542.37 542.38 542.38 542.38 542.38 542.39 542.39 542.39 542.39 542.40 558.50 558.50 558.50 558.50 558.50 558.50 558.50 558.50 558.50 558.50 558.50 558.50 558.50 558.50 558.50 558.50 558.50 558.50 558.50 558.50 558.50 558.50 558.50 558.50 558.50 558.50 558.50 558.50 558.50 558.50 558.50 558.50 558.50 558.50 558.50 558.50 558.50 558.50 558.50 558.50 558.50 558.50 558.50 558.50 558.50 558.50 558.50 558.50 558.50 558.50 558.50 558.50 558.50 558.50 558.50 558.50 558.50 558.50 558.50 558.50 558.50 558.50 558.50 558.50 558.50 558.50 558.50 558.50 558.50 558.50 558.50 558.50 558.50 558.50 558.50 558.50 558.50 558.50 558.50 558.50 558.50 558.50 558.50 558.50 558.50 558.50 558.50 558.50 558.50 558.50 558.50 558.50 558.50 558.50 558.50 558.50 542.64 542.64 542.64 542.65 542.65 542.65 542.65 542.66 542.66 542.66 542.66 542.67 542.67 542.67 542.67 542.68 542.68 542.68 542.68 542.69 542.69 542.69 542.69 542.70 542.70 542.70 542.70 542.71 542.71 542.71 542.71 542.72
542.32 542.32 542.32 542.32 542.33 542.33 542.33 542.33 542.34 542.34 542.34 542.34 542.35 542.35 542.35 542.35 542.36 542.36 542.36 542.36 542.37 542.37 542.37 542.37 542.38 542.38 542.38 542.38 542.39 542.39 542.39 542.39 558.50 558.50 558.50 558.50 558.50 558.50 558.50 558.50 558.50 558.50 558.50 558.50 558.50 558.50 558.50 558.50 558.50 558.50 558.50 558.50 558.50 558.50 558.50 558.50 558.50 558.50 558.50 558.50 558.50 558.50 558.50 558.50 558.50 558.50 558.50 558.50 561.70 561.70 561.70 561.70 561.70 561.70 561.70 561.70 561.70 561.70 561.70 561.70 561.70 561.70 561.70 561.70 561.70 561.70 561.70 561.70 561.70 561.70 561.70 561.70 558.50 558.50 558.50 558.50 558.50 558.50 558.50 558.50 558.50 558.50 558.50 558.50 558.50 558.50 558.50 558.50 558.50 558.50 558.50 558.50 558.50 558.50 558.50 558.50 558.50 558.50 558.50 558.50 558.50 558.50 558.50 558.50 558.50 558.50 558.50 558.50 542.64 542.64 542.64 542.64 542.65 542.65 542.65 542.65 542.66 542.66 542.66 542.66 542.67 542.67 542.67 542.67 542.68 542.68 542.68 542.68 542.69 542.69 542.69 542.70 542.70 542.70 542.70 542.71 542.71 542.71 542.71 542.72
542.31 542.32 542.32 542.32 542.32 542.33 542.33 542.33 542.33 542.34 542.34 542.34 542.34 542.35 542.35 542.35 542.35 542.36 542.36 542.36 542.36 542.37 542.37 542.37 542.37 542.38 542.38 542.38 542.38 542.39 542.39 542.39 558.50 558.50 558.50 558.50 558.50 558.50 558.50 558.50 558.50 558.50 558.50 558.50 558.50 558.50 558.50 558.50 558.50 558.50 558.50 558.50 558.50 558.50 558.50 558.50 558.50 558.50 558.50 558.50 558.50 558.50 558.50 558.50 558.50 558.50 558.50 558.50 561.70 561.70 561.70 561.70 561.70 561.70 561.70 561.70 561.70 561.70 561.70 561.70 561.70 561.70 561.70 561.70 561.70 561.70 561.70 561.70 561.70 561.70 561.70 561.70 558.50 558.50 558.50 558.50 558.50 558.50 558.50 558.50 558.50 558.50 558.50 558.50 558.50 558.50 558.50 558.50 558.50 558.50 558.50 558.50 558.50 558.50 558.50 558.50 558.50 558.50 558.50 558.50 558.50 558.50 558.50 558.50 558.50 558.50 558.50 558.50 542.64 542.64 542.64 542.64 542.65 542.65 542.65 542.65 542.66 542.66 542.66 542.66 542.67 542.67 542.67 542.67 542.68 542.68 542.68 542.68 542.69 542.69 542.69 542.69 542.70 542.70 542.70 542.70 542.71 542.71 542.71 542.71
542.31 542.31 542.32 542.32 542.32 542.32 542.33 542.33 542.33 542.33 542.34 542.34 542.34 542.34 542.35 542.35 542.35 542.35 542.36 542.36 542.36 542.36 542.37 542.37 542.37 542.37 542.38 542.38 542.38 542.38 542.39 542.39 558.50 558.50 558.50 558.50 558.50 558.50 558.50 558.50 558.50 558.50 558.50 558.50 558.50 558.50 558.50 558.50 558.50 558.50 558.50 558.50 558.50 558.50 558.50 558.50 558.50 558.50 558.50 558.50 558.50 558.50 558.50 558.50 558.50 558.50 558.50 558.50 561.70 561.70 561.70 561.70 561.70 561.70 561.70 561.70 561.70 561.70 561.70 561.70 561.70 561.70 561.70 561.70 561.70 561.70 561.70 561.70 561.70 561.70 561.70 561.70 558.50 558.50 558.50 558.50 558.50 558.50 558.50 558.50 558.50 558.50 558.50 558.50 558.50 558.50 558.50 558.50 558.50 558.50 558.50 558.50 558.50 558.50 558.50 558.50 558.50 558.50 558.50 558.50 558.50 558.50 558.50 558.50 558.50 558.50 558.50 558.50 542.63 542.64 542.64 542.64 542.64 542.65 542.65 542.65 542.65 542.66 542.66 542.66 542.66 542.67 542.67 542.67 542.67 542.68 542.68 542.68 542.68 542.69 542.69 542.69 542.69 542.70 542.70 542.70 542.70 542.71 542.71 542.71
542.31 542.31 542.31 542.32 542.32 542.32 542.32 542.33 542.33 542.33 542.33 542.34 542.34 542.34 542.34 542.35 542.35 542.35 542.35 542.36 542.36 542.36 542.36 542.37 542.37 542.37 542.37 542.38 542.38 542.38 542.38 542.39 558.50 558.50 558.50 558.50 558.50 558.50 558.50 558.50 558.50 558.50 558.50 558.50 558.50 558.50 558.50 558.50 558.50 558.50 558.50 558.50 558.50 558.50 558.50 558.50 558.50 558.50 558.50 558.50 558.50 558.50 558.50 558.50 558.50 558.50 558.50 558.50 561.70 561.70 561.70 561.70 561.70 561.70 561.70 561.70 561.70 561.70 561.70 561.70 561.70 561.70 561.70 561.70 561.70 561.70 561.70 561.70 561.70 561.70 561.70 561.70 558.50 558.50 558.50 558.50 558.50 558.50 558.50 558.50 558.50 558.50 558.50 558.50 558.50 558.50 558.50 558.50 558.50 558.50 558.50 558.50 558.50 558.50 558.50 558.50 558.50 558.50 558.50 558.50 558.50 558.50 558.50 558.50 558.50 558.50 558.50 558.50 542.63 542.63 542.64 542.64 542.64 542.64 542.65 542.65 542.65 542.65 542.66 542.66 542.66 542.66 542.67 542.67 542.67 542.67 542.68 542.68 542.68 542.68 542.69 542.69 542.69 542.69 542.70 542.70 542.70 542.70 542.71 542.71
542.31 542.31 542.31 542.31 542.32 542.32 542.32 542.32 542.33 542.33 542.33 542.33 542.34 542.34 542.34 542.34 542.35 542.35 542.35 542.35 542.36 542.36 542.36 542.36 542.37 542.37 542.37 542.38 542.38 542.38 542.38 542.39 558.50 558.50 558.50 558.50 558.50 558.50 558.50 558.50 558.50 558.50 558.50 558.50 558.50 558.50 558.50 558.50 558.50 558.50 558.50 558.50 558.50 558.50 558.50 558.50 558.50 558.50 558.50 558.50 558.50 558.50 558.50 558.50 558.50 558.50 558.50 558.50 561.70 561.70 561.70 561.70 561.70 561.70 561.70 561.70 561.70 561.70 561.70 561.70 561.70 561.70 561.70 561.70 561.70 561.70 561.70 561.70 561.70 561.70 561.70 561.70 558.50 558.50 558.50 558.50 558.50 558.50 558.50 558.50 558.50 558.50 558.50 558.50 558.50 558.50 558.50 558.50 558.50 558.50 558.50 558.50 558.50 558.50 558.50 558.50 558.50 558.50 558.50 558.50 558.50 558.50 558.50 558.50 558.50 558.50 558.50 558.50 542.63 542.63 542.63 542.64 542.64 542.64 542.64 542.65 542.65 542.65 542.65 542.66 542.66 542.66 542.66 542.67 542.67 542.67 542.67 542.68 542.68 542.68 542.68 542.69 542.69 542.69 542.69 542.70 542.70 542.70 542.70 542.71
542.31 542.31 542.31 542.31 542.32 542.32 542.32 542.32 542.33 542.33 542.33 542.33 542.34 542.34 542.34 542.34 542.35 542.35 542.35 542.35 542.36 542.36 542.36 542.36 542.37 542.37 542.37 542.37 542.38 542.38 542.38 542.38 558.50 558.50 558.50 558.50 558.50 558.50 558.50 558.50 558.50 558.50 558.50 558.50 558.50 558.50 558.50 558.50 558.50 558.50 558.50 558.50 558.50 558.50 558.50 558.50 558.50 558.50 558.50 558.50 558.50 558.50 558.50 558.50 558.50 558.50 558.50 558.50 561.70 561.70 561.70 561.70 561.70 561.70 561.70 561.70 561.70 561.70 561.70 561.70 561.70 561.70 561.70 561.70 561.70 561.70 561.70 561.70 561.70 561.70 561.70 561.70 558.50 558.50 558.50 558.50 558.50 558.50 558.50 558.50 558.50 558.50 558.50 558.50 558.50 558.50 558.50 558.50 558.50 558.50 558.50 558.50 558.50 558.50 558.50 558.50 558.50 558.50 558.50 558.50 558.50 558.50 558.50 558.50 558.50 558.50 558.50 558.50 542.63 542.63 542.63 542.63 542.64 542.64 542.64 542.64 542.65 542.65 542.65 542.65 542.66 542.66 542.66 542.66 542.67 542.67 542.67 542.67 542.68 542.68 542.68 542.68 542.69 542.69 542.69 542.69 542.70 542.70 542.70 542.71
542.30 542.31 542.31 542.31 542.31 542.32 542.32 542.32 542.32 542.33 542.33 542.33 542.33 542.34 542.34 542.34 542.34 542.35 542.35 542.35 542.35 542.36 542.36 542.36 542.36 542.37 542.37 542.37 542.37 542.38 542.38 542.38 558.50 558.50 558.50 558.50 558.50 558.50 558.50 558.50 558.50 558.50 558.50 558.50 558.50 558.50 558.50 558.50 558.50 558.50 558.50 558.50 558.50 558.50 558.50 558.50 558.50 558.50 558.50 558.50 558.50 558.50 558.50 558.50 558.50 558.50 558.50 558.50 561.70 561.70 561.70 561.70 561.70 561.70 561.70 561.70 561.70 561.70 561.70 561.70 561.70 561.70 561.70 561.70 561.70 561.70 561.70 561.70 561.70 561.70 561.70 561.70 558.50 558.50 558.50 558.50 558.50 558.50 558.50 558.50 558.50 558.50 558.50 558.50 558.50 558.50 558.50 558.50 558.50 558.50 558.50 558.50 558.50 558.50 558.50 558.50 558.50 558.50 558.50 558.50 558.50 558.50 558.50 558.50 558.50 558.50 558.50 558.50 542.63 542.63 542.63 542.63 542.64 542.64 542.64 542.64 542.65 542.65 542.65 542.65 542.66 542.66 542.66 542.66 542.67 542.67 542.67 542.67 542.68 542.68 542.68 542.68 542.69 542.69 542.69 542.69 542.70 542.70 542.70 542.70
542.30 542.30 542.31 542.31 542.31 542.31 542.32 542.32 542.32 542.32 542.33 542.33 542.33 542.33 542.34 542.34 542.34 542.34 542.35 542.35 542.35 542.35 542.36 542.36 542.36 542.36 542.37 542.37 542.37 542.37 542.38 542.38 558.50 558.50 558.50 558.50 558.50 558.50 558.50 558.50 558.50 558.50 558.50 558.50 558.50 558.50 558.50 558.50 558.50 558.50 558.50 558.50 558.50 558.50 558.50 558.50 558.50 558.50 558.50 558.50 558.50 558.50 558.50 558.50 558.50 558.50 558.50 558.50 561.70 561.70 561.70 561.70 561.70 561.70 561.70 561.70 561.70 561.70 561.70 561.70 561.70 561.70 561.70 561.70 561.70 561.70 561.70 561.70 561.70 561.70 561.70 561.70 558.50 558.50 558.50 558.50 558.50 558.50 558.50 558.50 558.50 558.50 558.50 558.50 558.50 558.50 558.50 558.50 558.50 558.50 558.50 558.50 558.50 558.50 558.50 558.50 558.50 558.50 558.50 558.50 558.50 558.50 558.50 558.50 558.50 558.50 558.50 558.50 542.62 542.63 542.63 542.63 542.63 542.64 542.64 542.64 542.64 542.65 542.65 542.65 542.65 542.66 542.66 542.66 542.66 542.67 542.67 542.67 542.67 542.68 542.68 542.68 542.68 542.69 542.69 542.69 542.69 542.70 542.70 542.70
542.30 542.30 542.30 542.31 542.31 542.31 542.31 542.32 542.32 542.32 542.32 542.33 542.33 542.33 542.33 542.34 542.34 542.34 542.34 542.35 542.35 542.35 542.35 542.36 542.36 542.36 542.36 542.37 542.37 542.37 542.37 542.38 558.50 558.50 558.50 558.50 558.50 558.50 558.50 558.50 558.50 558.50 558.50 558.50 558.50 558.50 558.50 558.50 558.50 558.50 558.50 558.50 558.50 558.50 558.50 558.50 558.50 558.50 558.50 558.50 558.50 558.50 558.50 558.50 558.50 558.50 558.50 558.50 561.70 561.70 561.70 561.70 561.70 561.70 561.70 561.70 561.70 561.70 561.70 561.70 561.70 561.70 561.70 561.70 561.70 561.70 561.70 561.70 561.70 561.70 561.70 561.70 558.50 558.50 558.50 558.50 558.50 558.50 558.50 558.50 558.50 558.50 558.50 558.50 558.50 558.50 558.50 558.50 558.50 558.50 558.50 558.50 558.50 558.50 558.50 558.50 558.50 558.50 558.50 558.50 558.50 558.50 558.50 558.50 558.50 558.50 558.50 558.50 542.62 542.62 542.63 542.63 542.63 542.63 542.64 542.64 542.64 542.64 542.65 542.65 542.65 542.65 542.66 542.66 542.66 542.66 542.67 542.67 542.67 542.67 542.68 542.68 542.68 542.68 542.69 542.69 542.69 542.69 542.70 542.70
542.30 542.30 542.30 542.30 542.31 542.31 542.31 542.31 542.32 542.32 542.32 542.32 542.33 542.33 542.33 542.33 542.34 542.34 542.34 542.34 542.35 542.35 542.35 542.35 542.36 542.36 542.36 542.36 542.37 542.37 542.37 542.37 558.50 558.50 558.50 558.50 558.50 558.50 558.50 558.50 558.50 558.50 558.50 558.50 558.50 558.50 558.50 558.50 558.50 558.50 558.50 558.50 558.50 558.50 558.50 558.50 558.50 558.50 558.50 558.50 558.50 558.50 558.50 558.50 558.50 558.50 558.50 558.50 561.70 561.70 561.70 561.70 561.70 561.70 561.70 561.70 561.70 561.70 561.70 561.70 561.70 561.70 561.70 561.70 561.70 561.70 561.70 561.70 561.70 561.70 561.70 561.70 558.50 558.50 558.50 558.50 558.50 558.50 558.50 558.50 558.50 558.50 558.50 558.50 558.50 558.50 558.50 558.50 558.50 558.50 558.50 558.50 558.50 558.50 558.50 558.50 558.50 558.50 558.50 558.50 558.50 558.50 558.50 558.50 558.50 558.50 558.50 558.50 542.62 542.62 542.62 542.63 542.63 542.63 542.63 542.64 542.64 542.64 542.64 542.65 542.65 542.65 542.65 542.66 542.66 542.66 542.66 542.67 542.67 542.67 542.67 542.68 542.68 542.68 542.68 542.69 542.69 542.69 542.69 542.70
542.29 542.30 542.30 542.30 542.31 542.31 542.31 542.31 542.32 542.32 542.32 542.32 542.33 542.33 542.33 542.33 542.34 542.34 542.34 542.34 542.35 542.35 542.35 542.35 542.36 542.36 542.36 542.36 542.37 542.37 542.37 542.37 558.50 558.50 558.50 558.50 558.50 558.50 558.50 558.50 558.50 558.50 558.50 558.50 558.50 558.50 558.50 558.50 558.50 558.50 558.50 558.50 558.50 558.50 558.50 558.50 558.50 558.50 558.50 558.50 558.50 558.50 558.50 558.50 558.50 558.50 558.50 558.50 561.70 561.70 561.70 561.70 561.70 561.70 561.70 561.70 561.70 561.70 561.70 561.70 561.70 561.70 561.70 561.70 561.70 561.70 561.70 561.70 561.70 561.70 561.70 561.70 558.50 558.50 558.50 558.50 558.50 558.50 558.50 558.50 558.50 558.50 558.50 558.50 558.50 558.50 558.50 558.50 558.50 558.50 558.50 558.50 558.50 558.50 558.50 558.50 558.50 558.50 558.50 558.50 558.50 558.50 558.50 558.50 558.50 558.50 558.50 558.50 542.62 542.62 542.62 542.62 542.63 542.63 542.63 542.63 542.64 542.64 542.64 542.64 542.65 542.65 542.65 542.65 542.66 542.66 542.66 542.66 542.67 542.67 542.67 542.67 542.68 542.68 542.68 542.68 542.69 542.69 542.69 542.69
542.29 542.30 542.30 542.30 542.30 542.31 542.31 542.31 542.31 542.32 542.32 542.32 542.32 542.33 542.33 542.33 542.33 542.34 542.34 542.34 542.34 542.35 542.35 542.35 542.35 542.36 542.36 542.36 542.36 542.37 542.37 542.37 558.50 558.50 558.50 558.50 558.50 558.50 558.50 558.50 558.50 558.50 558.50 558.50 558.50 558.50 558.50 558.50 558.50 558.50 558.50 558.50 558.50 558.50 558.50 558.50 558.50 558.50 558.50 558.50 558.50 558.50 558.50 558.50 558.50 558.50 558.50 558.50 561.70 561.70 561.70 561.70 561.70 561.70 561.70 561.70 561.70 561.70 561.70 561.70 561.70 561.70 561.70 561.70 561.70 561.70 561.70 561.70 561.70 561.70 561.70 561.70 558.50 558.50 558.50 558.50 558.50 558.50 558.50 558.50 558.50 558.50 558.50 558.50 558.50 558.50 558.50 558.50 558.50 558.50 558.50 558.50 558.50 558.50 558.50 558.50 558.50 558.50 558.50 558.50 558.50 558.50 558.50 558.50 558.50 558.50 558.50 558.50 542.61 542.62 542.62 542.62 542.62 542.63 542.63 542.63 542.64 542.64 542.64 542.64 542.65 542.65 542.65 542.65 542.66 542.66 542.66 542.66 542.67 542.67 542.67 542.67 542.68 542.68 542.68 542.68 542.69 542.69 542.69 542.69
542.29 542.29 542.30 542.30 542.30 542.30 542.31 542.31 542.31 542.31 542.32 542.32 542.32 542.32 542.33 542.33 542.33 542.33 542.34 542.34 542.34 542.34 542.35 542.35 542.35 542.35 542.36 542.36 542.36 542.36 542.37 542.37 558.50 558.50 558.50 558.50 558.50 558.50 558.50 558.50 558.50 558.50 558.50 558.50 558.50 558.50 558.50 558.50 558.50 558.50 558.50 558.50 558.50 558.50 558.50 558.50 558.50 558.50 558.50 558.50 558.50 558.50 558.50 558.50 558.50 558.50 558.50 558.50 561.70 561.70 561.70 561.70 561.70 561.70 561.70 561.70 561.70 561.70 561.70 561.70 561.70 561.70 561.70 561.70 561.70 561.70 561.70 561.70 561.70 561.70 561.70 561.70 558.50 558.50 558.50 558.50 558.50 558.50 558.50 558.50 558.50 558.50 558.50 558.50 558.50 558.50 558.50 558.50 558.50 558.50 558.50 558.50 558.50 558.50 558.50 558.50 558.50 558.50 558.50 558.50 558.50 558.50 558.50 558.50 558.50 558.50 558.50 558.50 542.61 542.62 542.62 542.62 542.62 542.63 542.63 542.63 542.63 542.64 542.64 542.64 542.64 542.65 542.65 542.65 542.65 542.66 542.66 542.66 542.66 542.67 542.67 542.67 542.67 542.68 542.68 542.68 542.68 542.69 542.69 542.69
542.29 542.29 542.29 542.30 542.30 542.30 542.30 542.31 542.31 542.31 542.31 542.32 542.32 542.32 542.32 542.33 542.33 542.33 542.33 542.34 542.34 542.34 542.34 542.35 542.35 542.35 542.35 542.36 542.36 542.36 542.36 542.37 558.50 558.50 558.50 558.50 558.50 558.50 558.50 558.50 558.50 558.50 558.50 558.50 558.50 558.50 558.50 558.50 558.50 558.50 558.50 558.50 558.50 558.50 558.50 558.50 558.50 558.50 558.50 558.50 558.50 558.50 558.50 558.50 558.50 558.50 558.50 558.50 561.70 561.70 561.70 561.70 561.70 561.70 561.70 561.70 561.70 561.70 561.70 561.70 561.70 561.70 561.70 561.70 561.70 561.70 561.70 561.70 561.70 561.70 561.70 561.70 558.50 558.50 558.50 558.50 558.50 558.50 558.50 558.50 558.50 558.50 558.50 558.50 558.50 558.50 558.50 558.50 558.50 558.50 558.50 558.50 558.50 558.50 558.50 558.50 558.50 558.50 558.50 558.50 558.50 558.50 558.50 558.50 558.50 558.50 558.50 558.50 542.61 542.61 542.62 542.62 542.62 542.62 542.63 542.63 542.63 542.63 542.64 542.64 542.64 542.64 542.65 542.65 542.65 542.65 542.66 542.66 542.66 542.66 542.67 542.67 542.67 542.67 542.68 542.68 542.68 542.68 542.69 542.69
542.29 542.29 542.29 542.29 542.30 542.30 542.30 542.30 542.31 542.31 542.31 542.31 542.32 542.32 542.32 542.32 542.33 542.33 542.33 542.33 542.34 542.34 542.34 542.34 542.35 542.35 542.35 542.35 542.36 542.36 542.36 542.36 558.50 558.50 558.50 558.50 558.50 558.50 558.50 558.50 558.50 558.50 558.50 558.50 558.50 558.50 558.50 558.50 558.50 558.50 558.50 558.50 558.50 558.50 558.50 558.50 558.50 558.50 558.50 558.50 558.50 558.50 558.50 558.50 558.50 558.50 558.50 558.50 561.70 561.70 561.70 561.70 561.70 561.70 561.70 561.70 561.70 561.70 561.70 561.70 561.70 561.70 561.70 561.70 561.70 561.70 561.70 561.70 561.70 561.70 561.70 561.70 558.50 558.50 558.50 558.50 558.50 558.50 558.50 558.50 558.50 558.50 558.50 558.50 558.50 558.50 558.50 558.50 558.50 558.50 558.50 558.50 558.50 558.50 558.50 558.50 558.50 558.50 558.50 558.50 558.50 558.50 558.50 558.50 558.50 558.50 558.50 558.50 542.61 542.61 542.61 542.62 542.62 542.62 542.62 542.63 542.63 542.63 542.63 542.64 542.64 542.64 542.64 542.65 542.65 542.65 542.65 542.66 542.66 542.66 542.66 542.67 542.67 542.67 542.67 542.68 542.68 542.68 542.68 542.69
542.28 542.29 542.29 542.29 542.29 542.30 542.30 542.30 542.30 542.31 542.31 542.31 542.32 542.32 542.32 542.32 542.33 542.33 542.33 542.33 542.34 542.34 542.34 542.34 542.35 542.35 542.35 542.35 542.36 542.36 542.36 542.36 558.50 558.50 558.50 558.50 558.50 558.50 558.50 558.50 558.50 558.50 558.50 558.50 558.50 558.50 558.50 558.50 558.50 558.50 558.50 558.50 558.50 558.50 558.50 558.50 558.50 558.50 558.50 558.50 558.50 558.50 558.50 558.50 558.50 558.50 558.50 558.50 561.70 561.70 561.70 561.70 561.70 561.70 561.70 561.70 561.70 561.70 561.70 561.70 561.70 561.70 561.70 561.70 561.70 561.70 561.70 561.70 561.70 561.70 561.70 561.70 558.50 558.50 558.50 558.50 558.50 558.50 558.50 558.50 558.50 558.50 558.50 558.50 558.50 558.50 558.50 558.50 558.50 558.50 558.50 558.50 558.50 558.50 558.50 558.50 558.50 558.50 558.50 558.50 558.50 558.50 558.50 558.50 558.50 558.50 558.50 558.50 542.61 542.61 542.61 542.61 542.62 542.62 542.62 542.62 542.63 542.63 542.63 542.63 542.64 542.64 542.64 542.64 542.65 542.65 542.65 542.65 542.66 542.66 542.66 542.66 542.67 542.67 542.67 542.67 542.68 542.68 542.68 542.68
542.28 542.29 542.29 542.29 542.29 542.30 542.30 542.30 542.30 542.31 542.31 542.31 542.31 542.32 542.32 542.32 542.32 542.33 542.33 542.33 542.33 542.34 542.34 542.34 542.34 542.35 542.35 542.35 542.35 542.36 542.36 542.36 558.50 558.50 558.50 558.50 558.50 558.50 558.50 558.50 558.50 558.50 558.50 558.50 558.50 558.50 558.50 558.50 558.50 558.50 558.50 558.50 558.50 558.50 558.50 558.50 558.50 558.50 558.50 558.50 558.50 558.50 558.50 558.50 558.50 558.50 558.50 558.50 558.50 558.50 558.50 558.50 558.50 558.50 558.50 558.50 558.50 558.50 558.50 558.50 558.50 558.50 558.50 558.50 558.50 558.50 558.50 558.50 558.50 558.50 558.50 558.50 558.50 558.50 558.50 558.50 558.50 558.50 558.50 558.50 558.50 558.50 558.50 558.50 558.50 558.50 558.50 558.50 558.50 558.50 558.50 558.50 558.50 558.50 558.50 558.50 558.50 558.50 558.50 558.50 558.50 558.50 558.50 558.50 558.50 558.50 558.50 558.50 542.60 542.61 542.61 542.61 542.61 542.62 542.62 542.62 542.62 542.63 542.63 542.63 542.64 542.64 542.64 542.64 542.65 542.65 542.65 542.65 542.66 542.66 542.66 542.66 542.67 542.67 542.67 542.67 542.68 542.68 542.68 542.68
542.28 542.28 542.29 542.29 542.29 542.29 542.30 542.30 542.30 542.30 542.31 542.31 542.31 542.31 542.32 542.32 542.32 542.32 542.33 542.33 542.33 542.33 542.34 542.34 542.34 542.34 542.35 542.35 542.35 542.35 542.36 542.36 558.50 558.50 558.50 558.50 558.50 558.50 558.50 558.50 558.50 558.50 558.50 558.50 558.50 558.50 558.50 558.50 558.50 558.50 558.50 558.50 558.50 558.50 558.50 558.50 558.50 558.50 558.50 558.50 558.50 558.50 558.50 558.50 558.50 558.50 558.50 558.50 558.50 558.50 558.50 558.50 558.50 558.50 558.50 558.50 558.50 558.50 558.50 558.50 558.50 558.50 558.50 558.50 558.50 558.50 558.50 558.50 558.50 558.50 558.50 558.50 558.50 558.50 558.50 558.50 558.50 558.50 558.50 558.50 558.50 558.50 558.50 558.50 558.50 558.50 558.50 558.50 558.50 558.50 558.50 558.50 558.50 558.50 558.50 558.50 558.50 558.50 558.50 558.50 558.50 558.50 558.50 558.50 558.50 558.50 558.50 558.50 542.60 542.61 542.61 542.61 542.61 542.62 542.62 542.62 542.62 542.63 542.63 542.63 542.63 542.64 542.64 542.64 542.64 542.65 542.65 542.65 542.65 542.66 542.66 542.66 542.66 542.67 542.67 542.67 542.67 542.68 542.68 542.68
542.28 542.28 542.28 542.29 542.29 542.29 542.29 542.30 542.30 542.30 542.30 542.31 542.31 542.31 542.31 542.32 542.32 542.32 542.32 542.33 542.33 542.33 542.33 542.34 542.34 542.34 542.34 542.35 542.35 542.35 542.35 542.36 558.50 558.50 558.50 558.50 558.50 558.50 558.50 558.50 558.50 558.50 558.50 558.50 558.50 558.50 558.50 558.50 558.50 558.50 558.50 558.50 558.50 558.50 558.50 558.50 558.50 558.50 558.50 558.50 558.50 558.50 558.50 558.50 558.50 558.50 558.50 558.50 558.50 558.50 558.50 558.50 558.50 558.50 558.50 558.50 558.50 558.50 558.50 558.50 558.50 558.50 558.50 558.50 558.50 558.50 558.50 558.50 558.50 558.50 558.50 558.50 558.50 558.50 558.50 558.50 558.50 558.50 558.50 558.50 558.50 558.50 558.50 558.50 558.50 558.50 558.50 558.50 558.50 558.50 558.50 558.50 558.50 558.50 558.50 558.50 558.50 558.50 558.50 558.50 558.50 558.50 558.50 558.50 558.50 558.50 558.50 558.50 542.60 542.60 542.61 542.61 542.61 542.61 542.62 542.62 542.62 542.62 542.63 542.63 542.63 542.63 542.64 542.64 542.64 542.64 542.65 542.65 542.65 542.65 542.66 542.66 542.66 542.66 542.67 542.67 542.67 542.67 542.68 542.68
542.28 542.28 542.28 542.28 542.29 542.29 542.29 542.29 542.30 542.30 542.30 542.30 542.31 542.31 542.31 542.31 542.32 542.32 542.32 542.32 542.33 542.33 542.33 542.33 542.34 542.34 542.34 542.34 542.35 542.35 542.35 542.35 558.50 558.50 558.50 558.50 558.50 558.50 558.50 558.50 558.50 558.50 558.50 558.50 558.50 558.50 558.50 558.50 558.50 558.50 558.50 558.50 558.50 558.50 558.50 558.50 558.50 558.50 558.50 558.50 558.50 558.50 558.50 558.50 558.50 558.50 558.50 558.50 558.50 558.50 558.50 558.50 558.50 558.50 558.50 558.50 558.50 558.50 558.50 558.50 558.50 558.50 558.50 558.50 558.50 558.50 558.50 558.50 558.50 558.50 558.50 558.50 558.50 558.50 558.50 558.50 558.50 558.50 558.50 558.50 558.50 558.50 558.50 558.50 558.50 558.50 558.50 558.50 558.50 558.50 558.50 558.50 558.50 558.50 558.50 558.50 558.50 558.50 558.50 558.50 558.50 558.50 558.50 558.50 558.50 558.50 558.50 558.50 542.60 542.60 542.60 542.61 542.61 542.61 542.61 542.62 542.62 542.62 542.62 542.63 542.63 542.63 542.63 542.64 542.64 542.64 542.64 542.65 542.65 542.65 542.65 542.66 542.66 542.66 542.66 542.67 542.67 542.67 542.67 542.68
542.27 542.28 542.28 542.28 542.28 542.29 542.29 542.29 542.29 542.30 542.30 542.30 542.30 542.31 542.31 542.31 542.32 542.32 542.32 542.32 542.33 542.33 542.33 542.33 542.34 542.34 542.34 542.34 542.35 542.35 542.35 542.35 558.50 558.50 558.50 558.50 558.50 558.50 558.50 558.50 558.50 558.50 558.50 558.50 558.50 558.50 558.50 558.50 558.50 558.50 558.50 558.50 558.50 558.50 558.50 558.50 558.50 558.50 558.50 558.50 558.50 558.50 558.50 558.50 558.50 558.50 558.50 558.50 558.50 558.50 558.50 558.50 558.50 558.50 558.50 558.50 558.50 558.50 558.50 558.50 558.50 558.50 558.50 558.50 558.50 558.50 558.50 558.50 558.50 558.50 558.50 558.50 558.50 558.50 558.50 558.50 558.50 558.50 558.50 558.50 558.50 558.50 558.50 558.50 558.50 558.50 558.50 558.50 558.50 558.50 558.50 558.50 558.50 558.50 558.50 558.50 558.50 558.50 558.50 558.50 558.50 558.50 558.50 558.50 558.50 558.50 558.50 558.50 542.60 542.60 542.60 542.60 542.61 542.61 542.61 542.61 542.62 542.62 542.62 542.62 542.63 542.63 542.63 542.63 542.64 542.64 542.64 542.64 542.65 542.65 542.65 542.65 542.66 542.66 542.66 542.66 542.67 542.67 542.67 542.67
542.27 542.28 542.28 542.28 542.28 542.29 542.29 542.29 542.29 542.30 542.30 542.30 542.30 542.31 542.31 542.31 542.31 542.32 542.32 542.32 542.32 542.33 542.33 542.33 542.33 542.34 542.34 542.34 542.34 542.35 542.35 542.35 558.50 558.50 558.50 558.50 558.50 558.50 558.50 558.50 558.50 558.50 558.50 558.50 558.50 558.50 558.50 558.50 558.50 558.50 558.50 558.50 558.50 558.50 558.50 558.50 558.50 558.50 558.50 558.50 558.50 558.50 558.50 558.50 558.50 558.50 558.50 558.50 558.50 558.50 558.50 558.50 558.50 558.50 558.50 558.50 558.50 558.50 558.50 558.50 558.50 558.50 558.50 558.50 558.50 558.50 558.50 558.50 558.50 558.50 558.50 558.50 558.50 558.50 558.50 558.50 558.50 558.50 558.50 558.50 558.50 558.50 558.50 558.50 558.50 558.50 558.50 558.50 558.50 558.50 558.50 558.50 558.50 558.50 558.50 558.50 558.50 558.50 558.50 558.50 558.50 558.50 558.50 558.50 558.50 558.50 558.50 558.50 542.59 542.60 542.60 542.60 542.60 542.61 542.61 542.61 542.61 542.62 542.62 542.62 542.62 542.63 542.63 542.63 542.64 542.64 542.64 542.64 542.65 542.65 542.65 542.65 542.66 542.66 542.66 542.66 542.67 542.67 542.67 542.67
542.27 542.27 542.28 542.28 542.28 542.28 542.29 542.29 542.29 542.29 542.30 542.30 542.30 542.30 542.31 542.31 542.31 542.31 542.32 542.32 542.32 542.32 542.33 542.33 542.33 542.33 542.34 542.34 542.34 542.34 542.35 542.35 558.50 558.50 558.50 558.50 558.50 558.50 558.50 558.50 558.50 558.50 558.50 558.50 558.50 558.50 558.50 558.50 558.50 558.50 558.50 558.50 558.50 558.50 558.50 558.50 558.50 558.50 558.50 558.50 558.50 558.50 558.50 558.50 558.50 558.50 558.50 558.50 558.50 558.50 558.50 558.50 558.50 558.50 558.50 558.50 558.50 558.50 558.50 558.50 558.50 558.50 558.50 558.50 558.50 558.50 558.50 558.50 558.50 558.50 558.50 558.50 558.50 558.50 558.50 558.50 558.50 558.50 558.50 558.50 558.50 558.50 558.50 558.50 558.50 558.50 558.50 558.50 558.50 558.50 558.50 558.50 558.50 558.50 558.50 558.50 558.50 558.50 558.50 558.50 558.50 558.50 558.50 558.50 558.50 558.50 558.50 558.50 542.59 542.60 542.60 542.60 542.60 542.61 542.61 542.61 542.61 542.62 542.62 542.62 542.62 542.63 542.63 542.63 542.63 542.64 542.64 542.64 542.64 542.65 542.65 542.65 542.65 542.66 542.66 542.66 542.66 542.67 542.67 542.67
542.27 542.27 542.27 542.28 542.28 542.28 542.28 542.29 542.29 542.29 542.29 542.30 542.30 542.30 542.30 542.31 542.31 542.31 542.31 542.32 542.32 542.32 542.32 542.33 542.33 542.33 542.33 542.34 542.34 542.34 542.34 542.35 558.50 558.50 558.50 558.50 558.50 558.50 558.50 558.50 558.50 558.50 558.50 558.50 558.50 558.50 558.50 558.50 558.50 558.50 558.50 558.50 558.50 558.50 558.50 558.50 558.50 558.50 558.50 558.50 558.50 558.50 558.50 558.50 558.50 558.50 558.50 558.50 558.50 558.50 558.50 558.50 558.50 558.50 558.50 558.50 558.50 558.50 558.50 558.50 558.50 558.50 558.50 558.50 558.50 558.50 558.50 558.50 558.50 558.50 558.50 558.50 558.50 558.50 558.50 558.50 558.50 558.50 558.50 558.50 558.50 558.50 558.50 558.50 558.50 558.50 558.50 558.50 558.50 558.50 558.50 558.50 558.50 558.50 558.50 558.50 558.50 558.50 558.50 558.50 558.50 558.50 558.50 558.50 558.50 558.50 558.50 558.50 542.59 542.59 542.60 542.60 542.60 542.60 542.61 542.61 542.61 542.61 542.62 542.62 542.62 542.62 542.63 542.63 542.63 542.63 542.64 542.64 542.64 542.64 542.65 542.65 542.65 542.65 542.66 542.66 542.66 542.66 542.67 542.67
542.27 542.27 542.27 542.27 542.28 542.28 542.28 542.28 542.29 542.29 542.29 542.29 542.30 542.30 542.30 542.30 542.31 542.31 542.31 542.31 542.32 542.32 542.32 542.32 542.33 542.33 542.33 542.33 542.34 542.34 542.34 542.34 558.50 558.50 558.50 558.50 558.50 558.50 558.50 558.50 558.50 558.50 558.50 558.50 558.50 558.50 558.50 558.50 558.50 558.50 558.50 558.50 558.50 558.50 558.50 558.50 558.50 558.50 558.50 558.50 558.50 558.50 558.50 558.50 558.50 558.50 558.50 558.50 558.50 558.50 558.50 558.50 558.50 558.50 558.50 558.50 558.50 558.50 558.50 558.50 558.50 558.50 558.50 558.50 558.50 558.50 558.50 558.50 558.50 558.50 558.50 558.50 558.50 558.50 558.50 558.50 558.50 558.50 558.50 558.50 558.50 558.50 558.50 558.50 558.50 558.50 558.50 558.50 558.50 558.50 558.50 558.50 558.50 558.50 558.50 558.50 558.50 558.50 558.50 558.50 558.50 558.50 558.50 558.50 558.50 558.50 558.50 558.50 542.59 542.59 542.59 542.60 542.60 542.60 542.60 542.61 542.61 542.61 542.61 542.62 542.62 542.62 542.62 542.63 542.63 542.63 542.63 542.64 542.64 542.64 542.64 542.65 542.65 542.65 542.65 542.66 542.66 542.66 542.66 542.67
542.26 542.27 542.27 542.27 542.27 542.28 542.28 542.28 542.28 542.29 542.29 542.29 542.29 542.30 542.30 542.30 542.30 542.31 542.31 542.31 542.32 542.32 542.32 542.32 542.33 542.33 542.33 542.33 542.34 542.34 542.34 542.34 558.50 558.50 558.50 558.50 558.50 558.50 558.50 558.50 558.50 558.50 558.50 558.50 558.50 558.50 558.50 558.50 558.50 558.50 558.50 558.50 558.50 558.50 558.50 558.50 558.50 558.50 558.50 558.50 558.50 558.50 558.50 558.50 558.50 558.50 558.50 558.50 558.50 558.50 558.50 558.50 558.50 558.50 558.50 558.50 558.50 558.50 558.50 558.50 558.50 558.50 558.50 558.50 558.50 558.50 558.50 558.50 558.50 558.50 558.50 558.50 558.50 558.50 558.50 558.50 558.50 558.50 558.50 558.50 558.50 558.50 558.50 558.50 558.50 558.50 558.50 558.50 558.50 558.50 558.50 558.50 558.50 558.50 558.50 558.50 558.50 558.50 558.50 558.50 558.50 558.50 558.50 558.50 558.50 558.50 558.50 558.50 542.59 542.59 542.59 542.59 542.60 542.60 542.60 542.60 542.61 542.61 542.61 542.61 542.62 542.62 542.62 542.62 542.63 542.63 542.63 542.63 542.64 542.64 542.64 542.64 542.65 542.65 542.65 542.65 542.66 542.66 542.66 542.66
542.26 542.27 542.27 542.27 542.27 542.28 542.28 542.28 542.28 542.29 542.29 542.29 542.29 542.30 542.30 542.30 542.30 542.31 542.31 542.31 542.31 542.32 542.32 542.32 542.32 542.33 542.33 542.33 542.33 542.34 542.34 542.34 558.50 558.50 558.50 558.50 558.50 558.50 558.50 558.50 558.50 558.50 558.50 558.50 558.50 558.50 558.50 558.50 558.50 558.50 558.50 558.50 558.50 558.50 558.50 558.50 558.50 558.50 558.50 558.50 558.50 558.50 558.50 558.50 558.50 558.50 558.50 558.50 558.50 558.50 558.50 558.50 558.50 558.50 558.50 558.50 558.50 558.50 558.50 558.50 558.50 558.50 558.50 558.50 558.50 558.50 558.50 558.50 558.50 558.50 558.50 558.50 558.50 558.50 558.50 558.50 558.50 558.50 558.50 558.50 558.50 558.50 558.50 558.50 558.50 558.50 558.50 558.50 558.50 558.50 558.50 558.50 558.50 558.50 558.50 558.50 558.50 558.50 558.50 558.50 558.50 558.50 558.50 558.50 558.50 558.50 558.50 558.50 542.58 542.59 542.59 542.59 542.59 542.60 542.60 542.60 542.60 542.61 542.61 542.61 542.61 542.62 542.62 542.62 542.62 542.63 542.63 542.63 542.64 542.64 542.64 542.64 542.65 542.65 542.65 542.65 542.66 542.66 542.66 542.66
542.26 542.26 542.27 542.27 542.27 542.27 542.28 542.28 542.28 542.28 542.29 542.29 542.29 542.29 542.30 542.30 542.30 542.30 542.31 542.31 542.31 542.31 542.32 542.32 542.32 542.32 542.33 542.33 542.33 542.33 542.34 542.34 558.50 558.50 558.50 558.50 558.50 558.50 558.50 558.50 558.50 558.50 558.50 558.50 558.50 558.50 558.50 558.50 558.50 558.50 558.50 558.50 558.50 558.50 558.50 558.50 558.50 558.50 558.50 558.50 558.50 558.50 558.50 558.50 558.50 558.50 558.50 558.50 558.50 558.50 558.50 558.50 558.50 558.50 558.50 558.50 558.50 558.50 558.50 558.50 558.50 558.50 558.50 558.50 558.50 558.50 558.50 558.50 558.50 558.50 558.50 558.50 558.50 558.50 558.50 558.50 558.50 558.50 558.50 558.50 558.50 558.50 558.50 558.50 558.50 558.50 558.50 558.50 558.50 558.50 558.50 558.50 558.50 558.50 558.50 558.50 558.50 558.50 558.50 558.50 558.50 558.50 558.50 558.50 558.50 558.50 558.50 558.50 542.58 542.59 542.59 542.59 542.59 542.60 542.60 542.60 542.60 542.61 542.61 542.61 542.61 542.62 542.62 542.62 542.62 542.63 542.63 542.63 542.63 542.64 542.64 542.64 542.64 542.65 542.65 542.65 542.65 542.66 542.66 542.66
542.26 542.26 542.26 542.27 542.27 542.27 542.27 542.28 542.28 542.28 542.28 542.29 542.29 542.29 542.29 542.30 542.30 542.30 542.30 542.31 542.31 542.31 542.31 542.32 542.32 542.32 542.32 542.33 542.33 542.33 542.33 542.34 558.50 558.50 558.50 558.50 558.50 558.50 558.50 558.50 558.50 558.50 558.50 558.50 558.50 558.50 558.50 558.50 558.50 558.50 558.50 558.50 558.50 558.50 558.50 558.50 558.50 558.50 558.50 558.50 558.50 558.50 558.50 558.50 558.50 558.50 558.50 558.50 558.50 558.50 558.50 558.50 558.50 558.50 558.50 558.50 558.50 558.50 558.50 558.50 558.50 558.50 558.50 558.50 558.50 558.50 558.50 558.50 558.50 558.50 558.50 558.50 558.50 558.50 558.50 558.50 558.50 558.50 558.50 558.50 558.50 558.50 558.50 558.50 558.50 558.50 558.50 558.50 558.50 558.50 558.50 558.50 558.50 558.50 558.50 558.50 558.50 558.50 558.50 558.50 558.50 558.50 558.50 558.50 558.50 558.50 558.50 558.50 542.58 542.58 542.59 542.59 542.59 542.59 542.60 542.60 542.60 542.60 542.61 542.61 542.61 542.61 542.62 542.62 542.62 542.62 542.63 542.63 542.63 542.63 542.64 542.64 542.64 542.64 542.65 542.65 542.65 542.65 542.66 542.66
542.26 542.26 542.26 542.26 542.27 542.27 542.27 542.27 542.28 542.28 542.28 542.28 542.29 542.29 542.29 542.29 542.30 542.30 542.30 542.30 542.31 542.31 542.31 542.31 542.32 542.32 542.32 542.32 542.33 542.33 542.33 542.33 558.50 558.50 558.50 558.50 558.50 558.50 558.50 558.50 558.50 558.50 558.50 558.50 558.50 558.50 558.50 558.50 558.50 558.50 558.50 558.50 558.50 558.50 558.50 558.50 558.50 558.50 558.50 558.50 558.50 558.50 558.50 558.50 558.50 558.50 558.50 558.50 558.50 558.50 558.50 558.50 558.50 558.50 558.50 558.50 558.50 558.50 558.50 558.50 558.50 558.50 558.50 558.50 558.50 558.50 558.50 558.50 558.50 558.50 558.50 558.50 558.50 558.50 558.50 558.50 558.50 558.50 558.50 558.50 558.50 558.50 558.50 558.50 558.50 558.50 558.50 558.50 558.50 558.50 558.50 558.50 558.50 558.50 558.50 558.50 558.50 558.50 558.50 558.50 558.50 558.50 558.50 558.50 558.50 558.50 558.50 558.50 542.58 542.58 542.58 542.59 542.59 542.59 542.59 542.60 542.60 542.60 542.60 542.61 542.61 542.61 542.61 542.62 542.62 542.62 542.62 542.63 542.63 542.63 542.63 542.64 542.64 542.64 542.64 542.65 542.65 542.65 542.65 542.66
542.25 542.26 542.26 542.26 542.26 542.27 542.27 542.27 542.27 542.28 542.28 542.28 542.28 542.29 542.29 542.29 542.29 542.30 542.30 542.30 542.30 542.31 542.31 542.31 542.32 542.32 542.32 542.32 542.33 542.33 542.33 542.33 558.50 558.50 558.50 558.50 558.50 558.50 558.50 558.50 558.50 558.50 558.50 558.50 558.50 558.50 558.50 558.50 558.50 558.50 558.50 558.50 558.50 558.50 558.50 558.50 558.50 558.50 558.50 558.50 558.50 558.50 558.50 558.50 558.50 558.50 558.50 558.50 558.50 558.50 558.50 558.50 558.50 558.50 558.50 558.50 558.50 558.50 558.50 558.50 558.50 558.50 558.50 558.50 558.50 558.50 558.50 558.50 558.50 558.50 558.50 558.50 558.50 558.50 558.50 558.50 558.50 558.50 558.50 558.50 558.50 558.50 558.50 558.50 558.50 558.50 558.50 558.50 558.50 558.50 558.50 558.50 558.50 558.50 558.50 558.50 558.50 558.50 558.50 558.50 558.50 558.50 558.50 558.50 558.50 558.50 558.50 558.50 542.58 542.58 542.58 542.58 542.59 542.59 542.59 542.59 542.60 542.60 542.60 542.60 542.61 542.61 542.61 542.61 542.62 542.62 542.62 542.62 542.63 542.63 542.63 542.63 542.64 542.64 542.64 542.64 542.65 542.65 542.65 542.65
542.25 542.26 542.26 542.26 542.26 542.27 542.27 542.27 542.27 542.28 542.28 542.28 542.28 542.29 542.29 542.29 542.29 542.30 542.30 542.30 542.30 542.31 542.31 542.31 542.31 542.32 542.32 542.32 542.32 542.33 542.33 542.33 558.50 558.50 558.50 558.50 558.50 558.50 558.50 558.50 558.50 558.50 558.50 558.50 558.50 558.50 558.50 558.50 558.50 558.50 558.50 558.50 558.50 558.50 558.50 558.50 558.50 558.50 558.50 558.50 558.50 558.50 558.50 558.50 558.50 558.50 558.50 558.50 558.50 558.50 558.50 558.50 558.50 558.50 558.50 558.50 558.50 558.50 558.50 558.50 558.50 558.50 558.50 558.50 558.50 558.50 558.50 558.50 558.50 558.50 558.50 558.50 558.50 558.50 558.50 558.50 558.50 558.50 558.50 558.50 558.50 558.50 558.50 558.50 558.50 558.50 558.50 558.50 558.50 558.50 558.50 558.50 558.50 558.50 558.50 558.50 558.50 558.50 558.50 558.50 558.50 558.50 558.50 558.50 558.50 558.50 558.50 558.50 542.57 542.58 542.58 542.58 542.58 542.59 542.59 542.59 542.59 542.60 542.60 542.60 542.60 542.61 542.61 542.61 542.61 542.62 542.62 542.62 542.62 542.63 542.63 542.63 542.64 542.64 542.64 542.64 542.65 542.65 542.65 542.65
542.25 542.25 542.26 542.26 542.26 542.26 542.27 542.27 542.27 542.27 542.28 542.28 542.28 542.28 542.29 542.29 542.29 542.29 542.30 542.30 542.30 542.30 542.31 542.31 542.31 542.31 542.32 542.32 542.32 542.32 542.33 542.33 558.50 558.50 558.50 558.50 558.50 558.50 558.50 558.50 558.50 558.50 558.50 558.50 558.50 558.50 558.50 558.50 558.50 558.50 558.50 558.50 558.50 558.50 558.50 558.50 558.50 558.50 558.50 558.50 558.50 558.50 558.50 558.50 558.50 558.50 558.50 558.50 558.50 558.50 558.50 558.50 558.50 558.50 558.50 558.50 558.50 558.50 558.50 558.50 558.50 558.50 558.50 558.50 558.50 558.50 558.50 558.50 558.50 558.50 558.50 558.50 558.50 558.50 558.50 558.50 558.50 558.50 558.50 558.50 558.50 558.50 558.50 558.50 558.50 558.50 558.50 558.50 558.50 558.50 558.50 558.50 558.50 558.50 558.50 558.50 558.50 558.50 558.50 558.50 558.50 558.50 558.50 558.50 558.50 558.50 558.50 558.50 542.57 542.58 542.58 542.58 542.58 542.59 542.59 542.59 542.59 542.60 542.60 542.60 542.60 542.61 542.61 542.61 542.61 542.62 542.62 542.62 542.62 542.63 542.63 542.63 542.63 542.64 542.64 542.64 542.64 542.65 542.65 542.65
542.25 542.25 542.25 542.26 542.26 542.26 542.26 542.27 542.27 542.27 542.27 542.28 542.28 542.28 542.28 542.29 542.29 542.29 542.29 542.30 542.30 542.30 542.30 542.31 542.31 542.31 542.31 542.32 542.32 542.32 542.32 542.33 558.50 558.50 558.50 558.50 558.50 558.50 558.50 558.50 558.50 558.50 558.50 558.50 558.50 558.50 558.50 558.50 558.50 558.50 558.50 558.50 558.50 558.50 558.50 558.50 558.50 558.50 558.50 558.50 558.50 558.50 558.50 558.50 558.50 558.50 558.50 558.50 558.50 558.50 558.50 558.50 558.50 558.50 558.50 558.50 558.50 558.50 558.50 558.50 558.50 558.50 558.50 558.50 558.50 558.50 558.50 558.50 558.50 558.50 558.50 558.50 558.50 558.50 558.50 558.50 558.50 558.50 558.50 558.50 558.50 558.50 558.50 558.50 558.50 558.50 558.50 558.50 558.50 558.50 558.50 558.50 558.50 558.50 558.50 558.50 558.50 558.50 558.50 558.50 558.50 558.50 558.50 558.50 558.50 558.50 558.50 558.50 542.57 542.57 542.58 542.58 542.58 542.58 542.59 542.59 542.59 542.59 542.60 542.60 542.60 542.60 542.61 542.61 542.61 542.61 542.62 542.62 542.62 542.62 542.63 542.63 542.63 542.63 542.64 542.64 542.64 542.64 542.65 542.65
542.25 542.25 542.25 542.25 542.26 542.26 542.26 542.26 542.27 542.27 542.27 542.27 542.28 542.28 542.28 542.28 542.29 542.29 542.29 542.29 542.30 542.30 542.30 542.30 542.31 542.31 542.31 542.31 542.32 542.32 542.32 542.32 542.33 542.33 542.33 542.33 542.34 542.34 542.34 542.34 542.35 542.35 542.35 542.35 542.36 542.36 542.36 542.36 542.37 542.37 542.37 542.37 542.38 542.38 542.38 542.39 542.39 542.39 542.39 542.40 542.40 542.40 542.40 542.41 542.41 542.41 542.41 542.42 542.42 542.42 542.42 542.43 542.43 542.43 542.43 542.44 542.44 542.44 542.44 542.45 542.45 542.45 542.45 542.46 542.46 542.46 542.46 542.47 542.47 542.47 542.47 542.48 542.48 542.48 542.48 542.49 542.49 542.49 542.49 542.50 542.50 542.50 542.50 542.51 542.51 542.51 542.51 542.52 542.52 542.52 542.52 542.53 542.53 542.53 542.53 542.54 542.54 542.54 542.54 542.55 542.55 542.55 542.55 542.56 542.56 542.56 542.56 542.57 542.57 542.57 542.57 542.58 542.58 542.58 542.58 542.59 542.59 542.59 542.59 542.60 542.60 542.60 542.60 542.61 542.61 542.61 542.61 542.62 542.62 542.62 542.62 542.63 542.63 542.63 542.63 542.64 542.64 542.64 542.64 542.65
542.24 542.25 542.25 542.25 542.25 542.26 542.26 542.26 542.26 542.27 542.27 542.27 542.27 542.28 542.28 542.28 542.28 542.29 542.29 542.29 542.29 542.30 542.30 542.30 542.30 542.31 542.31 542.31 542.32 542.32 542.32 542.32 542.33 542.33 542.33 542.33 542.34 542.34 542.34 542.34 542.35 542.35 542.35 542.35 542.36 542.36 542.36 542.36 542.37 542.37 542.37 542.37 542.38 542.38 542.38 542.38 542.39 542.39 542.39 542.39 542.40 542.40 542.40 542.40 542.41 542.41 542.41 542.41 542.42 542.42 542.42 542.42 542.43 542.43 542.43 542.43 542.44 542.44 542.44 542.44 542.45 542.45 542.45 542.45 542.46 542.46 542.46 542.46 542.47 542.47 542.47 542.47 542.48 542.48 542.48 542.48 542.49 542.49 542.49 542.49 542.50 542.50 542.50 542.50 542.51 542.51 542.51 542.51 542.52 542.52 542.52 542.52 542.53 542.53 542.53 542.53 542.54 542.54 542.54 542.54 542.55 542.55 542.55 542.55 542.56 542.56 542.56 542.56 542.57 542.57 542.57 542.57 542.58 542.58 542.58 542.58 542.59 542.59 542.59 542.59 542.60 542.60 542.60 542.60 542.61 542.61 542.61 542.61 542.62 542.62 542.62 542.62 542.63 542.63 542.63 542.63 542.64 542.64 542.64 542.64
542.24 542.25 542.25 542.25 542.25 542.26 542.26 542.26 542.26 542.27 542.27 542.27 542.27 542.28 542.28 542.28 542.28 542.29 542.29 542.29 542.29 542.30 542.30 542.30 542.30 542.31 542.31 542.31 542.31 542.32 542.32 542.32 542.32 542.33 542.33 542.33 542.33 542.34 542.34 542.34 542.34 542.35 542.35 542.35 542.35 542.36 542.36 542.36 542.36 542.37 542.37 542.37 542.37 542.38 542.38 542.38 542.38 542.39 542.39 542.39 542.39 542.40 542.40 542.40 542.40 542.41 542.41 542.41 542.41 542.42 542.42 542.42 542.42 542.43 542.43 542.43 542.43 542.44 542.44 542.44 542.44 542.45 542.45 542.45 542.45 542.46 542.46 542.46 542.46 542.47 542.47 542.47 542.47 542.48 542.48 542.48 542.48 542.49 542.49 542.49 542.49 542.50 542.50 542.50 542.50 542.51 542.51 542.51 542.51 542.52 542.52 542.52 542.52 542.53 542.53 542.53 542.53 542.54 542.54 542.54 542.54 542.55 542.55 542.55 542.55 542.56 542.56 542.56 542.56 542.57 542.57 542.57 542.57 542.58 542.58 542.58 542.58 542.59 542.59 542.59 542.59 542.60 542.60 542.60 542.60 542.61 542.61 542.61 542.61 542.62 542.62 542.62 542.62 542.63 542.63 542.63 542.64 542.64 542.64 542.64
542.24 542.24 542.25 542.25 542.25 542.25 542.26 542.26 542.26 542.26 542.27 542.27 542.27 542.27 542.28 542.28 542.28 542.28 542.29 542.29 542.29 542.29 542.30 542.30 542.30 542.30 542.31 542.31 542.31 542.31 542.32 542.32 542.32 542.32 542.33 542.33 542.33 542.33 542.34 542.34 542.34 542.34 542.35 542.35 542.35 542.35 542.36 542.36 542.36 542.36 542.37 542.37 542.37 542.37 542.38 542.38 542.38 542.38 542.39 542.39 542.39 542.39 542.40 542.40 542.40 542.40 542.41 542.41 542.41 542.41 542.42 542.42 542.42 542.42 542.43 542.43 542.43 542.43 542.44 542.44 542.44 542.44 542.45 542.45 542.45 542.45 542.46 542.46 542.46 542.46 542.47 542.47 542.47 542.47 542.48 542.48 542.48 542.48 542.49 542.49 542.49 542.49 542.50 542.50 542.50 542.50 542.51 542.51 542.51 542.51 542.52 542.52 542.52 542.52 542.53 542.53 542.53 542.53 542.54 542.54 542.54 542.54 542.55 542.55 542.55 542.56 542.56 542.56 542.56 542.57 542.57 542.57 542.57 542.58 542.58 542.58 542.58 542.59 542.59 542.59 542.59 542.60 542.60 542.60 542.60 542.61 542.61 542.61 542.61 542.62 542.62 542.62 542.62 542.63 542.63 542.63 542.63 542.64 542.64 542.64
542.24 542.24 542.24 542.25 542.25 542.25 542.25 542.26 542.26 542.26 542.26 542.27 542.27 542.27 542.27 542.28 542.28 542.28 542.28 542.29 542.29 542.29 542.29 542.30 542.30 542.30 542.30 542.31 542.31 542.31 542.31 542.32 542.32 542.32 542.32 542.33 542.33 542.33 542.33 542.34 542.34 542.34 542.34 542.35 542.35 542.35 542.35 542.36 542.36 542.36 542.36 542.37 542.37 542.37 542.37 542.38 542.38 542.38 542.38 542.39 542.39 542.39 542.39 542.40 542.40 542.40 542.40 542.41 542.41 542.41 542.41 542.42 542.42 542.42 542.42 542.43 542.43 542.43 542.43 542.44 542.44 542.44 542.44 542.45 542.45 542.45 542.45 542.46 542.46 542.46 542.46 542.47 542.47 542.47 542.48 542.48 542.48 542.48 542.49 542.49 542.49 542.49 542.50 542.50 542.50 542.50 542.51 542.51 542.51 542.51 542.52 542.52 542.52 542.52 542.53 542.53 542.53 542.53 542.54 542.54 542.54 542.54 542.55 542.55 542.55 542.55 542.56 542.56 542.56 542.56 542.57 542.57 542.57 542.57 542.58 542.58 542.58 542.58 542.59 542.59 542.59 542.59 542.60 542.60 542.60 542.60 542.61 542.61 542.61 542.61 542.62 542.62 542.62 542.62 542.63 542.63 542.63 542.63 542.64 542.64
542.24 542.24 542.24 542.24 542.25 542.25 542.25 542.25 542.26 542.26 542.26 542.26 542.27 542.27 542.27 542.27 542.28 542.28 542.28 542.28 542.29 542.29 542.29 542.29 542.30 542.30 542.30 542.30 542.31 542.31 542.31 542.31 542.32 542.32 542.32 542.32 542.33 542.33 542.33 542.33 542.34 542.34 542.34 542.34 542.35 542.35 542.35 542.35 542.36 542.36 542.36 542.36 542.37 542.37 542.37 542.37 542.38 542.38 542.38 542.38 542.39 542.39 542.39 542.40 542.40 542.40 542.40 542.41 542.41 542.41 542.41 542.42 542.42 542.42 542.42 542.43 542.43 542.43 542.43 542.44 542.44 542.44 542.44 542.45 542.45 542.45 542.45 542.46 542.46 542.46 542.46 542.47 542.47 542.47 542.47 542.48 542.48 542.48 542.48 542.49 542.49 542.49 542.49 542.50 542.50 542.50 542.50 542.51 542.51 542.51 542.51 542.52 542.52 542.52 542.52 542.53 542.53 542.53 542.53 542.54 542.54 542.54 542.54 542.55 542.55 542.55 542.55 542.56 542.56 542.56 542.56 542.57 542.57 542.57 542.57 542.58 542.58 542.58 542.58 542.59 542.59 542.59 542.59 542.60 542.60 542.60 542.60 542.61 542.61 542.61 542.61 542.62 542.62 542.62 542.62 542.63 542.63 542.63 542.63 542.64
542.23 542.24 542.24 542.24 542.24 542.25 542.25 542.25 542.25 542.26 542.26 542.26 542.26 542.27 542.27 542.27 542.27 542.28 542.28 542.28 542.28 542.29 542.29 542.29 542.29 542.30 542.30 542.30 542.30 542.31 542.31 542.31 542.32 542.32 542.32 542.32 542.33 542.33 542.33 542.33 542.34 542.34 542.34 542.34 542.35 542.35 542.35 542.35 542.36 542.36 542.36 542.36 542.37 542.37 542.37 542.37 542.38 542.38 542.38 542.38 542.39 542.39 542.39 542.39 542.40 542.40 542.40 542.40 542.41 542.41 542.41 542.41 542.42 542.42 542.42 542.42 542.43 542.43 542.43 542.43 542.44 542.44 542.44 542.44 542.45 542.45 542.45 542.45 542.46 542.46 542.46 542.46 542.47 542.47 542.47 542.47 542.48 542.48 542.48 542.48 542.49 542.49 542.49 542.49 542.50 542.50 542.50 542.50 542.51 542.51 542.51 542.51 542.52 542.52 542.52 542.52 542.53 542.53 542.53 542.53 542.54 542.54 542.54 542.54 542.55 542.55 542.55 542.55 542.56 542.56 542.56 542.56 542.57 542.57 542.57 542.57 542.58 542.58 542.58 542.58 542.59 542.59 542.59 542.59 542.60 542.60 542.60 542.60 542.61 542.61 542.61 542.61 542.62 542.62 542.62 542.62 542.63 542.63 542.63 542.63
542.23 542.24 542.24 542.24 542.24 542.25 542.25 542.25 542.25 542.26 542.26 542.26 542.26 542.27 542.27 542.27 542.27 542.28 542.28 542.28 542.28 542.29 542.29 542.29 542.29 542.30 542.30 542.30 542.30 542.31 542.31 542.31 542.31 542.32 542.32 542.32 542.32 542.33 542.33 542.33 542.33 542.34 542.34 542.34 542.34 542.35 542.35 542.35 542.35 542.36 542.36 542.36 542.36 542.37 542.37 542.37 542.37 542.38 542.38 542.38 542.38 542.39 542.39 542.39 542.39 542.40 542.40 542.40 542.40 542.41 542.41 542.41 542.41 542.42 542.42 542.42 542.42 542.43 542.43 542.43 542.43 542.44 542.44 542.44 542.44 542.45 542.45 542.45 542.45 542.46 542.46 542.46 542.46 542.47 542.47 542.47 542.47 542.48 542.48 542.48 542.48 542.49 542.49 542.49 542.49 542.50 542.50 542.50 542.50 542.51 542.51 542.51 542.51 542.52 542.52 542.52 542.52 542.53 542.53 542.53 542.53 542.54 542.54 542.54 542.54 542.55 542.55 542.55 542.55 542.56 542.56 542.56 542.56 542.57 542.57 542.57 542.57 542.58 542.58 542.58 542.58 542.59 542.59 542.59 542.59 542.60 542.60 542.60 542.60 542.61 542.61 542.61 542.61 542.62 542.62 542.62 542.62 542.63 542.63 542.63
542.23 542.23 542.24 542.24 542.24 542.24 542.25 542.25 542.25 542.25 542.26 542.26 542.26 542.26 542.27 542.27 542.27 542.27 542.28 542.28 542.28 542.28 542.29 542.29 542.29 542.29 542.30 542.30 542.30 542.30 542.31 542.31 542.31 542.31 542.32 542.32 542.32 542.32 542.33 542.33 542.33 542.33 542.34 542.34 542.34 542.34 542.35 542.35 542.35 542.35 542.36 542.36 542.36 542.36 542.37 542.37 542.37 542.37 542.38 542.38 542.38 542.38 542.39 542.39 542.39 542.39 542.40 542.40 542.40 542.40 542.41 542.41 542.41 542.41 542.42 542.42 542.42 542.42 542.43 542.43 542.43 542.43 542.44 542.44 542.44 542.44 542.45 542.45 542.45 542.45 542.46 542.46 542.46 542.46 542.47 542.47 542.47 542.47 542.48 542.48 542.48 542.48 542.49 542.49 542.49 542.49 542.50 542.50 542.50 542.50 542.51 542.51 542.51 542.51 542.52 542.52 542.52 542.52 542.53 542.53 542.53 542.53 542.54 542.54 542.54 542.54 542.55 542.55 542.55 542.56 542.56 542.56 542.56 542.57 542.57 542.57 542.57 542.58 542.58 542.58 542.58 542.59 542.59 542.59 542.59 542.60 542.60 542.60 542.60 542.61 542.61 542.61 542.61 542.62 542.62 542.62 542.62 542.63 542.63 542.63
542.23 542.23 542.23 542.24 542.24 542.24 542.24 542.25 542.25 542.25 542.25 542.26 542.26 542.26 542.26 542.27 542.27 542.27 542.27 542.28 542.28 542.28 542.28 542.29 542.29 542.29 542.29 542.30 542.30 542.30 542.30 542.31 542.31 542.31 542.31 542.32 542.32 542.32 542.32 542.33 542.33 542.33 542.33 542.34 542.34 542.34 542.34 542.35 542.35 542.35 542.35 542.36 542.36 542.36 542.36 542.37 542.37 542.37 542.37 542.38 542.38 542.38 542.38 542.39 542.39 542.39 542.39 542.40 542.40 542.40 542.40 542.41 542.41 542.41 542.41 542.42 542.42 542.42 542.42 542.43 542.43 542.43 542.43 542.44 542.44 542.44 542.44 542.45 542.45 542.45 542.45 542.46 542.46 542.46 542.46 542.47 542.47 542.47 542.48 542.48 542.48 542.48 542.49 542.49 542.49 542.49 542.50 542.50 542.50 542.50 542.51 542.51 542.51 542.51 542.52 542.52 542.52 542.52 542.53 542.53 542.53 542.53 542.54 542.54 542.54 542.54 542.55 542.55 542.55 542.55 542.56 542.56 542.56 542.56 542.57 542.57 542.57 542.57 542.58 542.58 542.58 542.58 542.59 542.59 542.59 542.59 542.60 542.60 542.60 542.60 542.61 542.61 542.61 542.61 542.62 542.62 542.62 542.62 542.63 542.63
542.23 542.23 542.23 542.23 542.24 542.24 542.24 542.24 542.25 542.25 542.25 542.25 542.26 542.26 542.26 542.26 542.27 542.27 542.27 542.27 542.28 542.28 542.28 542.28 542.29 542.29 542.29 542.29 542.30 542.30 542.30 542.30 542.31 542.31 542.31 542.31 542.32 542.32 542.32 542.32 542.33 542.33 542.33 542.33 542.34 542.34 542.34 542.34 542.35 542.35 542.35 542.35 542.36 542.36 542.36 542.36 542.37 542.37 542.37 542.37 542.38 542.38 542.38 542.38 542.39 542.39 542.39 542.40 542.40 542.40 542.40 542.41 542.41 542.41 542.41 542.42 542.42 542.42 542.42 542.43 542.43 542.43 542.43 542.44 542.44 542.44 542.44 542.45 542.45 542.45 542.45 542.46 542.46 542.46 542.46 542.47 542.47 542.47 542.47 542.48 542.48 542.48 542.48 542.49 542.49 542.49 542.49 542.50 542.50 542.50 542.50 542.51 542.51 542.51 542.51 542.52 542.52 542.52 542.52 542.53 542.53 542.53 542.53 542.54 542.54 542.54 542.54 542.55 542.55 542.55 542.55 542.56 542.56 542.56 542.56 542.57 542.57 542.57 542.57 542.58 542.58 542.58 542.58 542.59 542.59 542.59 542.59 542.60 542.60 542.60 542.60 542.61 542.61 542.61 542.61 542.62 542.62 542.62 542.62 542.63
542.22 542.23 542.23 542.23 542.23 542.24 542.24 542.24 542.24 542.25 542.25 542.25 542.25 542.26 542.26 542.26 542.26 542.27 542.27 542.27 542.27 542.28 542.28 542.28 542.28 542.29 542.29 542.29 542.29 542.30 542.30 542.30 542.30 542.31 542.31 542.31 542.32 542.32 542.32 542.32 542.33 542.33 542.33 542.33 542.34 542.34 542.34 542.34 542.35 542.35 542.35 542.35 542.36 542.36 542.36 542.36 542.37 542.37 542.37 542.37 542.38 542.38 542.38 542.38 542.39 542.39 542.39 542.39 542.40 542.40 542.40 542.40 542.41 542.41 542.41 542.41 542.42 542.42 542.42 542.42 542.43 542.43 542.43 542.43 542.44 542.44 542.44 542.44 542.45 542.45 542.45 542.45 542.46 542.46 542.46 542.46 542.47 542.47 542.47 542.47 542.48 542.48 542.48 542.48 542.49 542.49 542.49 542.49 542.50 542.50 542.50 542.50 542.51 542.51 542.51 542.51 542.52 542.52 542.52 542.52 542.53 542.53 542.53 542.53 542.54 542.54 542.54 542.54 542.55 542.55 542.55 542.55 542.56 542.56 542.56 542.56 542.57 542.57 542.57 542.57 542.58 542.58 542.58 542.58 542.59 542.59 542.59 542.59 542.60 542.60 542.60 542.60 542.61 542.61 542.61 542.61 542.62 542.62 542.62 542.62
542.22 542.22 542.23 542.23 542.23 542.24 542.24 542.24 542.24 542.25 542.25 542.25 542.25 542.26 542.26 542.26 542.26 542.27 542.27 542.27 542.27 542.28 542.28 542.28 542.28 542.29 542.29 542.29 542.29 542.30 542.30 542.30 542.30 542.31 542.31 542.31 542.31 542.32 542.32 542.32 542.32 542.33 542.33 542.33 542.33 542.34 542.34 542.34 542.34 542.35 542.35 542.35 542.35 542.36 542.36 542.36 542.36 542.37 542.37 542.37 542.37 542.38 542.38 542.38 542.38 542.39 542.39 542.39 542.39 542.40 542.40 542.40 542.40 542.41 542.41 542.41 542.41 542.42 542.42 542.42 542.42 542.43 542.43 542.43 542.43 542.44 542.44 542.44 542.44 542.45 542.45 542.45 542.45 542.46 542.46 542.46 542.46 542.47 542.47 542.47 542.47 542.48 542.48 542.48 542.48 542.49 542.49 542.49 542.49 542.50 542.50 542.50 542.50 542.51 542.51 542.51 542.51 542.52 542.52 542.52 542.52 542.53 542.53 542.53 542.53 542.54 542.54 542.54 542.54 542.55 542.55 542.55 542.55 542.56 542.56 542.56 542.56 542.57 542.57 542.57 542.57 542.58 542.58 542.58 542.58 542.59 542.59 542.59 542.59 542.60 542.60 542.60 542.60 542.61 542.61 542.61 542.61 542.62 542.62 542.62
542.22 542.22 542.23 542.23 542.23 542.23 542.24 542.24 542.24 542.24 542.25 542.25 542.25 542.25 542.26 542.26 542.26 542.26 542.27 542.27 542.27 542.27 542.28 542.28 542.28 542.28 542.29 542.29 542.29 542.29 542.30 542.30 542.30 542.30 542.31 542.31 542.31 542.31 542.32 542.32 542.32 542.32 542.33 542.33 542.33 542.33 542.34 542.34 542.34 542.34 542.35 542.35 542.35 542.35 542.36 542.36 542.36 542.36 542.37 542.37 542.37 542.37 542.38 542.38 542.38 542.38 542.39 542.39 542.39 542.39 542.40 542.40 542.40 542.40 542.41 542.41 542.41 542.41 542.42 542.42 542.42 542.42 542.43 542.43 542.43 542.43 542.44 542.44 542.44 542.44 542.45 542.45 542.45 542.45 542.46 542.46 542.46 542.46 542.47 542.47 542.47 542.47 542.48 542.48 542.48 542.48 542.49 542.49 542.49 542.49 542.50 542.50 542.50 542.50 542.51 542.51 542.51 542.51 542.52 542.52 542.52 542.52 542.53 542.53 542.53 542.53 542.54 542.54 542.54 542.54 542.55 542.55 542.55 542.55 542.56 542.56 542.56 542.57 542.57 542.57 542.57 542.58 542.58 542.58 542.58 542.59 542.59 542.59 542.59 542.60 542.60 542.60 542.60 542.61 542.61 542.61 542.61 542.62 542.62 542.62
542.22 542.22 542.22 542.23 542.23 542.23 542.23 542.24 542.24 542.24 542.24 542.25 542.25 542.25 542.25 542.26 542.26 542.26 542.26 542.27 542.27 542.27 542.27 542.28 542.28 542.28 542.28 542.29 542.29 542.29 542.29 542.30 542.30 542.30 542.30 542.31 542.31 542.31 542.31 542.32 542.32 542.32 542.32 542.33 542.33 542.33 542.33 542.34 542.34 542.34 542.34 542.35 542.35 542.35 542.35 542.36 542.36 542.36 542.36 542.37 542.37 542.37 542.37 542.38 542.38 542.38 542.38 542.39 542.39 542.39 542.39 542.40 542.40 542.40 542.40 542.41 542.41 542.41 542.41 542.42 542.42 542.42 542.42 542.43 542.43 542.43 542.43 542.44 542.44 542.44 542.44 542.45 542.45 542.45 542.45 542.46 542.46 542.46 542.46 542.47 542.47 542.47 542.48 542.48 542.48 542.48 542.49 542.49 542.49 542.49 542.50 542.50 542.50 542.50 542.51 542.51 542.51 542.51 542.52 542.52 542.52 542.52 542.53 542.53 542.53 542.53 542.54 542.54 542.54 542.54 542.55 542.55 542.55 542.55 542.56 542.56 542.56 542.56 542.57 542.57 542.57 542.57 542.58 542.58 542.58 542.58 542.59 542.59 542.59 542.59 542.60 542.60 542.60 542.60 542.61 542.61 542.61 542.61 542.62 542.62
542.22 542.22 542.22 542.22 542.23 542.23 542.23 542.23 542.24 542.24 542.24 542.24 542.25 542.25 542.25 542.25 542.26 542.26 542.26 542.26 542.27 542.27 542.27 542.27 542.28 542.28 542.28 542.28 542.29 542.29 542.29 542.29 542.30 542.30 542.30 542.30 542.31 542.31 542.31 542.31 542.32 542.32 542.32 542.32 542.33 542.33 542.33 542.33 542.34 542.34 542.34 542.34 542.35 542.35 542.35 542.35 542.36 542.36 542.36 542.36 542.37 542.37 542.37 542.37 542.38 542.38 542.38 542.38 542.39 542.39 542.39 542.40 542.40 542.40 542.40 542.41 542.41 542.41 542.41 542.42 542.42 542.42 542.42 542.43 542.43 542.43 542.43 542.44 542.44 542.44 542.44 542.45 542.45 542.45 542.45 542.46 542.46 542.46 542.46 542.47 542.47 542.47 542.47 542.48 542.48 542.48 542.48 542.49 542.49 542.49 542.49 542.50 542.50 542.50 542.50 542.51 542.51 542.51 542.51 542.52 542.52 542.52 542.52 542.53 542.53 542.53 542.53 542.54 542.54 542.54 542.54 542.55 542.55 542.55 542.55 542.56 542.56 542.56 542.56 542.57 542.57 542.57 542.57 542.58 542.58 542.58 542.58 542.59 542.59 542.59 542.59 542.60 542.60 542.60 542.60 542.61 542.61 542.61 542.61 542.62
542.21 542.22 542.22 542.22 542.22 542.23 542.23 542.23 542.23 542.24 542.24 542.24 542.24 542.25 542.25 542.25 542.25 542.26 542.26 542.26 542.26 542.27 542.27 542.27 542.27 542.28 542.28 542.28 542.28 542.29 542.29 542.29 542.29 542.30 542.30 542.30 542.30 542.31 542.31 542.31 542.32 542.32 542.32 542.32 542.33 542.33 542.33 542.33 542.34 542.34 542.34 542.34 542.35 542.35 542.35 542.35 542.36 542.36 542.36 542.36 542.37 542.37 542.37 542.37 542.38 542.38 542.38 542.38 542.39 542.39 542.39 542.39 542.40 542.40 542.40 542.40 542.41 542.41 542.41 542.41 542.42 542.42 542.42 542.42 542.43 542.43 542.43 542.43 542.44 542.44 542.44 542.44 542.45 542.45 542.45 542.45 542.46 542.46 542.46 542.46 542.47 542.47 542.47 542.47 542.48 542.48 542.48 542.48 542.49 542.49 542.49 542.49 542.50 542.50 542.50 542.50 542.51 542.51 542.51 542.51 542.52 542.52 542.52 542.52 542.53 542.53 542.53 542.53 542.54 542.54 542.54 542.54 542.55 542.55 542.55 542.55 542.56 542.56 542.56 542.56 542.57 542.57 542.57 542.57 542.58 542.58 542.58 542.58 542.59 542.59 542.59 542.59 542.60 542.60 542.60 542.60 542.61 542.61 542.61 542.61
542.21 542.21 542.22 542.22 542.22 542.22 542.23 542.23 542.23 542.23 542.24 542.24 542.24 542.25 542.25 542.25 542.25 542.26 542.26 542.26 542.26 542.27 542.27 542.27 542.27 542.28 542.28 542.28 542.28 542.29 542.29 542.29 542.29 542.30 542.30 542.30 542.30 542.31 542.31 542.31 542.31 542.32 542.32 542.32 542.32 542.33 542.33 542.33 542.33 542.34 542.34 542.34 542.34 542.35 542.35 542.35 542.35 542.36 542.36 542.36 542.36 542.37 542.37 542.37 542.37 542.38 542.38 542.38 542.38 542.39 542.39 542.39 542.39 542.40 542.40 542.40 542.40 542.41 542.41 542.41 542.41 542.42 542.42 542.42 542.42 542.43 542.43 542.43 542.43 542.44 542.44 542.44 542.44 542.45 542.45 542.45 542.45 542.46 542.46 542.46 542.46 542.47 542.47 542.47 542.47 542.48 542.48 542.48 542.48 542.49 542.49 542.49 542.49 542.50 542.50 542.50 542.50 542.51 542.51 542.51 542.51 542.52 542.52 542.52 542.52 542.53 542.53 542.53 542.53 542.54 542.54 542.54 542.54 542.55 542.55 542.55 542.55 542.56 542.56 542.56 542.56 542.57 542.57 542.57 542.57 542.58 542.58 542.58 542.58 542.59 542.59 542.59 542.59 542.60 542.60 542.60 542.60 542.61 542.61 542.61
542.21 542.21 542.22 542.22 542.22 542.22 542.23 542.23 542.23 542.23 542.24 542.24 542.24 542.24 542.25 542.25 542.25 542.25 542.26 542.26 542.26 542.26 542.27 542.27 542.27 542.27 542.28 542.28 542.28 542.28 542.29 542.29 542.29 542.29 542.30 542.30 542.30 542.30 542.31 542.31 542.31 542.31 542.32 542.32 542.32 542.32 542.33 542.33 542.33 542.33 542.34 542.34 542.34 542.34 542.35 542.35 542.35 542.35 542.36 542.36 542.36 542.36 542.37 542.37 542.37 542.37 542.38 542.38 542.38 542.38 542.39 542.39 542.39 542.39 542.40 542.40 542.40 542.40 542.41 542.41 542.41 542.41 542.42 542.42 542.42 542.42 542.43 542.43 542.43 542.43 542.44 542.44 542.44 542.44 542.45 542.45 542.45 542.45 542.46 542.46 542.46 542.46 542.47 542.47 542.47 542.47 542.48 542.48 542.48 542.48 542.49 542.49 542.49 542.49 542.50 542.50 542.50 542.50 542.51 542.51 542.51 542.51 542.52 542.52 542.52 542.52 542.53 542.53 542.53 542.53 542.54 542.54 542.54 542.54 542.55 542.55 542.55 542.55 542.56 542.56 542.56 542.57 542.57 542.57 542.57 542.58 542.58 542.58 542.58 542.59 542.59 542.59 542.59 542.60 542.60 542.60 542.60 542.61 542.61 542.61
542.21 542.21 542.21 542.22 542.22 542.22 542.22 542.23 542.23 542.23 542.23 542.24 542.24 542.24 542.24 542.25 542.25 542.25 542.25 542.26 542.26 542.26 542.26 542.27 542.27 542.27 542.27 542.28 542.28 542.28 542.28 542.29 542.29 542.29 542.29 542.30 542.30 542.30 542.30 542.31 542.31 542.31 542.31 542.32 542.32 542.32 542.32 542.33 542.33 542.33 542.33 542.34 542.34 542.34 542.34 542.35 542.35 542.35 542.35 542.36 542.36 542.36 542.36 542.37 542.37 542.37 542.37 542.38 542.38 542.38 542.38 542.39 542.39 542.39 542.39 542.40 542.40 542.40 542.40 542.41 542.41 542.41 542.41 542.42 542.42 542.42 542.42 542.43 542.43 542.43 542.43 542.44 542.44 542.44 542.44 542.45 542.45 542.45 542.45 542.46 542.46 542.46 542.46 542.47 542.47 542.47 542.48 542.48 542.48 542.48 542.49 542.49 542.49 542.49 542.50 542.50 542.50 542.50 542.51 542.51 542.51 542.51 542.52 542.52 542.52 542.52 542.53 542.53 542.53 542.53 542.54 542.54 542.54 542.54 542.55 542.55 542.55 542.55 542.56 542.56 542.56 542.56 542.57 542.57 542.57 542.57 542.58 542.58 542.58 542.58 542.59 542.59 542.59 542.59 542.60 542.60 542.60 542.60 542.61 542.61
542.21 542.21 542.21 542.21 542.22 542.22 542.22 542.22 542.23 542.23 542.23 542.23 542.24 542.24 542.24 542.24 542.25 542.25 542.25 542.25 542.26 542.26 542.26 542.26 542.27 542.27 542.27 542.27 542.28 542.28 542.28 542.28 542.29 542.29 542.29 542.29 542.30 542.30 542.30 542.30 542.31 542.31 542.31 542.31 542.32 542.32 542.32 542.32 542.33 542.33 542.33 542.33 542.34 542.34 542.34 542.34 542.35 542.35 542.35 542.35 542.36 542.36 542.36 542.36 542.37 542.37 542.37 542.37 542.38 542.38 542.38 542.38 542.39 542.39 542.39 542.40 542.40 542.40 542.40 542.41 542.41 542.41 542.41 542.42 542.42 542.42 542.42 542.43 542.43 542.43 542.43 542.44 542.44 542.44 542.44 542.45 542.45 542.45 542.45 542.46 542.46 542.46 542.46 542.47 542.47 542.47 542.47 542.48 542.48 542.48 542.48 542.49 542.49 542.49 542.49 542.50 542.50 542.50 542.50 542.51 542.51 542.51 542.51 542.52 542.52 542.52 542.52 542.53 542.53 542.53 542.53 542.54 542.54 542.54 542.54 542.55 542.55 542.55 542.55 542.56 542.56 542.56 542.56 542.57 542.57 542.57 542.57 542.58 542.58 542.58 542.58 542.59 542.59 542.59 542.59 542.60 542.60 542.60 542.60 542.61
542.20 542.21 542.21 542.21 542.21 542.22 542.22 542.22 542.22 542.23 542.23 542.23 542.23 542.24 542.24 542.24 542.24 542.25 542.25 542.25 542.25 542.26 542.26 542.26 542.26 542.27 542.27 542.27 542.27 542.28 542.28 542.28 542.28 542.29 542.29 542.29 542.29 542.30 542.30 542.30 542.30 542.31 542.31 542.31 542.32 542.32 542.32 542.32 542.33 542.33 542.33 542.33 542.34 542.34 542.34 542.34 542.35 542.35 542.35 542.35 542.36 542.36 542.36 542.36 542.37 542.37 542.37 542.37 542.38 542.38 542.38 542.38 542.39 542.39 542.39 542.39 542.40 542.40 542.40 542.40 542.41 542.41 542.41 542.41 542.42 542.42 542.42 542.42 542.43 542.43 542.43 542.43 542.44 542.44 542.44 542.44 542.45 542.45 542.45 542.45 542.46 542.46 542.46 542.46 542.47 542.47 542.47 542.47 542.48 542.48 542.48 542.48 542.49 542.49 542.49 542.49 542.50 542.50 542.50 542.50 542.51 542.51 542.51 542.51 542.52 542.52 542.52 542.52 542.53 542.53 542.53 542.53 542.54 542.54 542.54 542.54 542.55 542.55 542.55 542.55 542.56 542.56 542.56 542.56 542.57 542.57 542.57 542.57 542.58 542.58 542.58 542.58 542.59 542.59 542.59 542.59 542.60 542.60 542.60 542.60
542.20 542.20 542.21 542.21 542.21 542.21 542.22 542.22 542.22 542.22 542.23 542.23 542.23 542.23 542.24 542.24 542.24 542.25 542.25 542.25 542.25 542.26 542.26 542.26 542.26 542.27 542.27 542.27 542.27 542.28 542.28 542.28 542.28 542.29 542.29 542.29 542.29 542.30 542.30 542.30 542.30 542.31 542.31 542.31 542.31 542.32 542.32 542.32 542.32 542.33 542.33 542.33 542.33 542.34 542.34 542.34 542.34 542.35 542.35 542.35 542.35 542.36 542.36 542.36 542.36 542.37 542.37 542.37 542.37 542.38 542.38 542.38 542.38 542.39 542.39 542.39 542.39 542.40 542.40 542.40 542.40 542.41 542.41 542.41 542.41 542.42 542.42 542.42 542.42 542.43 542.43 542.43 542.43 542.44 542.44 542.44 542.44 542.45 542.45 542.45 542.45 542.46 542.46 542.46 542.46 542.47 542.47 542.47 542.47 542.48 542.48 542.48 542.48 542.49 542.49 542.49 542.49 542.50 542.50 542.50 542.50 542.51 542.51 542.51 542.51 542.52 542.52 542.52 542.52 542.53 542.53 542.53 542.53 542.54 542.54 542.54 542.54 542.55 542.55 542.55 542.55 542.56 542.56 542.56 542.56 542.57 542.57 542.57 542.57 542.58 542.58 542.58 542.58 542.59 542.59 542.59 542.59 542.60 542.60 542.60
542.20 542.20 542.21 542.21 542.21 542.21 542.22 542.22 542.22 542.22 542.23 542.23 542.23 542.23 542.24 542.24 542.24 542.24 542.25 542.25 542.25 542.25 542.26 542.26 542.26 542.26 542.27 542.27 542.27 542.27 542.28 542.28 542.28 542.28 542.29 542.29 542.29 542.29 542.30 542.30 542.30 542.30 542.31 542.31 542.31 542.31 542.32 542.32 542.32 542.32 542.33 542.33 542.33 542.33 542.34 542.34 542.34 542.34 542.35 542.35 542.35 542.35 542.36 542.36 542.36 542.36 542.37 542.37 542.37 542.37 542.38 542.38 542.38 542.38 542.39 542.39 542.39 542.39 542.40 542.40 542.40 542.40 542.41 542.41 542.41 542.41 542.42 542.42 542.42 542.42 542.43 542.43 542.43 542.43 542.44 542.44 542.44 542.44 542.45 542.45 542.45 542.45 542.46 542.46 542.46 542.46 542.47 542.47 542.47 542.47 542.48 542.48 542.48 542.48 542.49 542.49 542.49 542.49 542.50 542.50 542.50 542.50 542.51 542.51 542.51 542.51 542.52 542.52 542.52 542.52 542.53 542.53 542.53 542.53 542.54 542.54 542.54 542.54 542.55 542.55 542.55 542.55 542.56 542.56 542.56 542.57 542.57 542.57 542.57 542.58 542.58 542.58 542.58 542.59 542.59 542.59 542.59 542.60 542.60 542.60
542.20 542.20 542.20 542.21 542.21 542.21 542.21 542.22 542.22 542.22 542.22 542.23 542.23 542.23 542.23 542.24 542.24 542.24 542.24 542.25 542.25 542.25 542.25 542.26 542.26 542.26 542.26 542.27 542.27 542.27 542.27 542.28 542.28 542.28 542.28 542.29 542.29 542.29 542.29 542.30 542.30 542.30 542.30 542.31 542.31 542.31 542.31 542.32 542.32 542.32 542.32 542.33 542.33 542.33 542.33 542.34 542.34 542.34 542.34 542.35 542.35 542.35 542.35 542.36 542.36 542.36 542.36 542.37 542.37 542.37 542.37 542.38 542.38 542.38 542.38 542.39 542.39 542.39 542.39 542.40 542.40 542.40 542.40 542.41 542.41 542.41 542.41 542.42 542.42 542.42 542.42 542.43 542.43 542.43 542.43 542.44 542.44 542.44 542.44 542.45 542.45 542.45 542.45 542.46 542.46 542.46 542.46 542.47 542.47 542.47 542.47 542.48 542.48 542.48 542.49 542.49 542.49 542.49 542.50 542.50 542.50 542.50 542.51 542.51 542.51 542.51 542.52 542.52 542.52 542.52 542.53 542.53 542.53 542.53 542.54 542.54 542.54 542.54 542.55 542.55 542.55 542.55 542.56 542.56 542.56 542.56 542.57 542.57 542.57 542.57 542.58 542.58 542.58 542.58 542.59 542.59 542.59 542.59 542.60 542.60
542.20 542.20 542.20 542.20 542.21 542.21 542.21 542.21 542.22 542.22 542.22 542.22 542.23 542.23 542.23 542.23 542.24 542.24 542.24 542.24 542.25 542.25 542.25 542.25 542.26 542.26 542.26 542.26 542.27 542.27 542.27 542.27 542.28 542.28 542.28 542.28 542.29 542.29 542.29 542.29 542.30 542.30 542.30 542.30 542.31 542.31 542.31 542.31 542.32 542.32 542.32 542.32 542.33 542.33 542.33 542.33 542.34 542.34 542.34 542.34 542.35 542.35 542.35 542.35 542.36 542.36 542.36 542.36 542.37 542.37 542.37 542.37 542.38 542.38 542.38 542.38 542.39 542.39 542.39 542.40 542.40 542.40 542.40 542.41 542.41 542.41 542.41 542.42 542.42 542.42 542.42 542.43 542.43 542.43 542.43 542.44 542.44 542.44 542.44 542.45 542.45 542.45 542.45 542.46 542.46 542.46 542.46 542.47 542.47 542.47 542.47 542.48 542.48 542.48 542.48 542.49 542.49 542.49 542.49 542.50 542.50 542.50 542.50 542.51 542.51 542.51 542.51 542.52 542.52 542.52 542.52 542.53 542.53 542.53 542.53 542.54 542.54 542.54 542.54 542.55 542.55 542.55 542.55 542.56 542.56 542.56 542.56 542.57 542.57 542.57 542.57 542.58 542.58 542.58 542.58 542.59 542.59 542.59 542.59 542.60
542.19 542.20 542.20 542.20 542.20 542.21 542.21 542.21 542.21 542.22 542.22 542.22 542.22 542.23 542.23 542.23 542.23 542.24 542.24 542.24 542.24 542.25 542.25 542.25 542.25 542.26 542.26 542.26 542.26 542.27 542.27 542.27 542.27 542.28 542.28 542.28 542.28 542.29 542.29 542.29 542.29 542.30 542.30 542.30 542.30 542.31 542.31 542.31 542.32 542.32 542.32 542.32 542.33 542.33 542.33 542.33 542.34 542.34 542.34 542.34 542.35 542.35 542.35 542.35 542.36 542.36 542.36 542.36 542.37 542.37 542.37 542.37 542.38 542.38 542.38 542.38 542.39 542.39 542.39 542.39 542.40 542.40 542.40 542.40 542.41 542.41 542.41 542.41 542.42 542.42 542.42 542.42 542.43 542.43 542.43 542.43 542.44 542.44 542.44 542.44 542.45 542.45 542.45 542.45 542.46 542.46 542.46 542.46 542.47 542.47 542.47 542.47 542.48 542.48 542.48 542.48 542.49 542.49 542.49 542.49 542.50 542.50 542.50 542.50 542.51 542.51 542.51 542.51 542.52 542.52 542.52 542.52 542.53 542.53 542.53 542.53 542.54 542.54 542.54 542.54 542.55 542.55 542.55 542.55 542.56 542.56 542.56 542.56 542.57 542.57 542.57 542.57 542.58 542.58 542.58 542.58 542.59 542.59 542.59 542.59
542.19 542.19 542.20 542.20 542.20 542.20 542.21 542.21 542.21 542.21 542.22 542.22 542.22 542.22 542.23 542.23 542.23 542.23 542.24 542.24 542.24 542.25 542.25 542.25 542.25 542.26 542.26 542.26 542.26 542.27 542.27 542.27 542.27 542.28 542.28 542.28 542.28 542.29 542.29 542.29 542.29 542.30 542.30 542.30 542.30 542.31 542.31 542.31 542.31 542.32 542.32 542.32 542.32 542.33 542.33 542.33 542.33 542.34 542.34 542.34 542.34 542.35 542.35 542.35 542.35 542.36 542.36 542.36 542.36 542.37 542.37 542.37 542.37 542.38 542.38 542.38 542.38 542.39 542.39 542.39 542.39 542.40 542.40 542.40 542.40 542.41 542.41 542.41 542.41 542.42 542.42 542.42 542.42 542.43 542.43 542.43 542.43 542.44 542.44 542.44 542.44 542.45 542.45 542.45 542.45 542.46 542.46 542.46 542.46 542.47 542.47 542.47 542.47 542.48 542.48 542.48 542.48 542.49 542.49 542.49 542.49 542.50 542.50 542.50 542.50 542.51 542.51 542.51 542.51 542.52 542.52 542.52 542.52 542.53 542.53 542.53 542.53 542.54 542.54 542.54 542.54 542.55 542.55 542.55 542.55 542.56 542.56 542.56 542.56 542.57 542.57 542.57 542.57 542.58 542.58 542.58 542.58 542.59 542.59 542.59
542.19 542.19 542.20 542.20 542.20 542.20 542.21 542.21 542.21 542.21 542.22 542.22 542.22 542.22 542.23 542.23 542.23 542.23 542.24 542.24 542.24 542.24 542.25 542.25 542.25 542.25 542.26 542.26 542.26 542.26 542.27 542.27 542.27 542.27 542.28 542.28 542.28 542.28 542.29 542.29 542.29 542.29 542.30 542.30 542.30 542.30 542.31 542.31 542.31 542.31 542.32 542.32 542.32 542.32 542.33 542.33 542.33 542.33 542.34 542.34 542.34 542.34 542.35 542.35 542.35 542.35 542.36 542.36 542.36 542.36 542.37 542.37 542.37 542.37 542.38 542.38 542.38 542.38 542.39 542.39 542.39 542.39 542.40 542.40 542.40 542.40 542.41 542.41 542.41 542.41 542.42 542.42 542.42 542.42 542.43 542.43 542.43 542.43 542.44 542.44 542.44 542.44 542.45 542.45 542.45 542.45 542.46 542.46 542.46 542.46 542.47 542.47 542.47 542.47 542.48 542.48 542.48 542.48 542.49 542.49 542.49 542.49 542.50 542.50 542.50 542.50 542.51 542.51 542.51 542.51 542.52 542.52 542.52 542.52 542.53 542.53 542.53 542.53 542.54 542.54 542.54 542.54 542.55 542.55 542.55 542.55 542.56 542.56 542.56 542.57 542.57 542.57 542.57 542.58 542.58 542.58 542.58 542.59 542.59 542.59
542.19 542.19 542.19 542.20 542.20 542.20 542.20 542.21 542.21 542.21 542.21 542.22 542.22 542.22 542.22 542.23 542.23 542.23 542.23 542.24 542.24 542.24 542.24 542.25 542.25 542.25 542.25 542.26 542.26 542.26 542.26 542.27 542.27 542.27 542.27 542.28 542.28 542.28 542.28 542.29 542.29 542.29 542.29 542.30 542.30 542.30 542.30 542.31 542.31 542.31 542.31 542.32 542.32 542.32 542.32 542.33 542.33 542.33 542.33 542.34 542.34 542.34 542.34 542.35 542.35 542.35 542.35 542.36 542.36 542.36 542.36 542.37 542.37 542.37 542.37 542.38 542.38 542.38 542.38 542.39 542.39 542.39 542.39 542.40 542.40 542.40 542.40 542.41 542.41 542.41 542.41 542.42 542.42 542.42 542.42 542.43 542.43 542.43 542.43 542.44 542.44 542.44 542.44 542.45 542.45 542.45 542.45 542.46 542.46 542.46 542.46 542.47 542.47 542.47 542.47 542.48 542.48 542.48 542.49 542.49 542.49 542.49 542.50 542.50 542.50 542.50 542.51 542.51 542.51 542.51 542.52 542.52 542.52 542.52 542.53 542.53 542.53 542.53 542.54 542.54 542.54 542.54 542.55 542.55 542.55 542.55 542.56 542.56 542.56 542.56 542.57 542.57 542.57 542.57 542.58 542.58 542.58 542.58 542.59 542.59
542.19 542.19 542.19 542.19 542.20 542.20 542.20 542.20 542.21 542.21 542.21 542.21 542.22 542.22 542.22 542.22 542.23 542.23 542.23 542.23 542.24 542.24 542.24 542.24 542.25 542.25 542.25 542.25 542.26 542.26 542.26 542.26 542.27 542.27 542.27 542.27 542.28 542.28 542.28 542.28 542.29 542.29 542.29 542.29 542.30 542.30 542.30 542.30 542.31 542.31 542.31 542.31 542.32 542.32 542.32 542.32 542.33 542.33 542.33 542.33 542.34 542.34 542.34 542.34 542.35 542.35 542.35 542.35 542.36 542.36 542.36 542.36 542.37 542.37 542.37 542.37 542.38 542.38 542.38 542.38 542.39 542.39 542.39 542.40 542.40 542.40 542.40 542.41 542.41 542.41 542.41 542.42 542.42 542.42 542.42 542.43 542.43 542.43 542.43 542.44 542.44 542.44 542.44 542.45 542.45 542.45 542.45 542.46 542.46 542.46 542.46 542.47 542.47 542.47 542.47 542.48 542.48 542.48 542.48 542.49 542.49 542.49 542.49 542.50 542.50 542.50 542.50 542.51 542.51 542.51 542.51 542.52 542.52 542.52 542.52 542.53 542.53 542.53 542.53 542.54 542.54 542.54 542.54 542.55 542.55 542.55 542.55 542.56 542.56 542.56 542.56 542.57 542.57 542.57 542.57 542.58 542.58 542.58 542.58 542.59
542.18 542.19 542.19 542.19 542.19 542.20 542.20 542.20 542.20 542.21 542.21 542.21 542.21 542.22 542.22 542.22 542.22 542.23 542.23 542.23 542.23 542.24 542.24 542.24 542.24 542.25 542.25 542.25 542.25 542.26 542.26 542.26 542.26 542.27 542.27 542.27 542.27 542.28 542.28 542.28 542.28 542.29 542.29 542.29 542.29 542.30 542.30 542.30 542.30 542.31 542.31 542.31 542.32 542.32 542.32 542.32 542.33 542.33 542.33 542.33 542.34 542.34 542.34 542.34 542.35 542.35 542.35 542.35 542.36 542.36 542.36 542.36 542.37 542.37 542.37 542.37 542.38 542.38 542.38 542.38 542.39 542.39 542.39 542.39 542.40 542.40 542.40 542.40 542.41 542.41 542.41 542.41 542.42 542.42 542.42 542.42 542.43 542.43 542.43 542.43 542.44 542.44 542.44 542.44 542.45 542.45 542.45 542.45 542.46 542.46 542.46 542.46 542.47 542.47 542.47 542.47 542.48 542.48 542.48 542.48 542.49 542.49 542.49 542.49 542.50 542.50 542.50 542.50 542.51 542.51 542.51 542.51 542.52 542.52 542.52 542.52 542.53 542.53 542.53 542.53 542.54 542.54 542.54 542.54 542.55 542.55 542.55 542.55 542.56 542.56 542.56 542.56 542.57 542.57 542.57 542.57 542.58 542.58 542.58 542.58
542.18 542.18 542.19 542.19 542.19 542.19 542.20 542.20 542.20 542.20 542.21 542.21 542.21 542.21 542.22 542.22 542.22 542.22 542.23 542.23 542.23 542.23 542.24 542.24 542.24 542.25 542.25 542.25 542.25 542.26 542.26 542.26 542.26 542.27 542.27 542.27 542.27 542.28 542.28 542.28 542.28 542.29 542.29 542.29 542.29 542.30 542.30 542.30 542.30 542.31 542.31 542.31 542.31 542.32 542.32 542.32 542.32 542.33 542.33 542.33 542.33 542.34 542.34 542.34 542.34 542.35 542.35 542.35 542.35 542.36 542.36 542.36 542.36 542.37 542.37 542.37 542.37 542.38 542.38 542.38 542.38 542.39 542.39 542.39 542.39 542.40 542.40 542.40 542.40 542.41 542.41 542.41 542.41 542.42 542.42 542.42 542.42 542.43 542.43 542.43 542.43 542.44 542.44 542.44 542.44 542.45 542.45 542.45 542.45 542.46 542.46 542.46 542.46 542.47 542.47 542.47 542.47 542.48 542.48 542.48 542.48 542.49 542.49 542.49 542.49 542.50 542.50 542.50 542.50 542.51 542.51 542.51 542.51 542.52 542.52 542.52 542.52 542.53 542.53 542.53 542.53 542.54 542.54 542.54 542.54 542.55 542.55 542.55 542.55 542.56 542.56 542.56 542.56 542.57 542.57 542.57 542.57 542.58 542.58 542.58
542.18 542.18 542.19 542.19 542.19 542.19 542.20 542.20 542.20 542.20 542.21 542.21 542.21 542.21 542.22 542.22 542.22 542.22 542.23 542.23 542.23 542.23 542.24 542.24 542.24 542.24 542.25 542.25 542.25 542.25 542.26 542.26 542.26 542.26 542.27 542.27 542.27 542.27 542.28 542.28 542.28 542.28 542.29 542.29 542.29 542.29 542.30 542.30 542.30 542.30 542.31 542.31 542.31 542.31 542.32 542.32 542.32 542.32 542.33 542.33 542.33 542.33 542.34 542.34 542.34 542.34 542.35 542.35 542.35 542.35 542.36 542.36 542.36 542.36 542.37 542.37 542.37 542.37 542.38 542.38 542.38 542.38 542.39 542.39 542.39 542.39 542.40 542.40 542.40 542.40 542.41 542.41 542.41 542.41 542.42 542.42 542.42 542.42 542.43 542.43 542.43 542.43 542.44 542.44 542.44 542.44 542.45 542.45 542.45 542.45 542.46 542.46 542.46 542.46 542.47 542.47 542.47 542.47 542.48 542.48 542.48 542.48 542.49 542.49 542.49 542.49 542.50 542.50 542.50 542.50 542.51 542.51 542.51 542.51 542.52 542.52 542.52 542.52 542.53 542.53 542.53 542.53 542.54 542.54 542.54 542.54 542.55 542.55 542.55 542.55 542.56 542.56 542.56 542.57 542.57 542.57 542.57 542.58 542.58 542.58
542.18 542.18 542.18 542.19 542.19 542.19 542.19 542.20 542.20 542.20 542.20 542.21 542.21 542.21 542.21 542.22 542.22 542.22 542.22 542.23 542.23 542.23 542.23 542.24 542.24 542.24 542.24 542.25 542.25 542.25 542.25 542.26 542.26 542.26 542.26 542.27 542.27 542.27 542.27 542.28 542.28 542.28 542.28 542.29 542.29 542.29 542.29 542.30 542.30 542.30 542.30 542.31 542.31 542.31 542.31 542.32 542.32 542.32 542.32 542.33 542.33 542.33 542.33 542.34 542.34 542.34 542.34 542.35 542.35 542.35 542.35 542.36 542.36 542.36 542.36 542.37 542.37 542.37 542.37 542.38 542.38 542.38 542.38 542.39 542.39 542.39 542.39 542.40 542.40 542.40 542.40 542.41 542.41 542.41 542.41 542.42 542.42 542.42 542.42 542.43 542.43 542.43 542.43 542.44 542.44 542.44 542.44 542.45 542.45 542.45 542.45 542.46 542.46 542.46 542.46 542.47 542.47 542.47 542.47 542.48 542.48 542.48 542.49 542.49 542.49 542.49 542.50 542.50 542.50 542.50 542.51 542.51 542.51 542.51 542.52 542.52 542.52 542.52 542.53 542.53 542.53 542.53 542.54 542.54 542.54 542.54 542.55 542.55 542.55 542.55 542.56 542.56 542.56 542.56 542.57 542.57 542.57 542.57 542.58 542.58
542.18 542.18 542.18 542.18 542.19 542.19 542.19 542.19 542.20 542.20 542.20 542.20 542.21 542.21 542.21 542.21 542.22 542.22 542.22 542.22 542.23 542.23 542.23 542.23 542.24 542.24 542.24 542.24 542.25 542.25 542.25 542.25 542.26 542.26 542.26 542.26 542.27 542.27 542.27 542.27 542.28 542.28 542.28 542.28 542.29 542.29 542.29 542.29 542.30 542.30 542.30 542.30 542.31 542.31 542.31 542.31 542.32 542.32 542.32 542.32 542.33 542.33 542.33 542.33 542.34 542.34 542.34 542.34 542.35 542.35 542.35 542.35 542.36 542.36 542.36 542.36 542.37 542.37 542.37 542.37 542.38 542.38 542.38 542.38 542.39 542.39 542.39 542.39 542.40 542.40 542.40 542.41 542.41 542.41 542.41 542.42 542.42 542.42 542.42 542.43 542.43 542.43 542.43 542.44 542.44 542.44 542.44 542.45 542.45 542.45 542.45 542.46 542.46 542.46 542.46 542.47 542.47 542.47 542.47 542.48 542.48 542.48 542.48 542.49 542.49 542.49 542.49 542.50 542.50 542.50 542.50 542.51 542.51 542.51 542.51 542.52 542.52 542.52 542.52 542.53 542.53 542.53 542.53 542.54 542.54 542.54 542.54 542.55 542.55 542.55 542.55 542.56 542.56 542.56 542.56 542.57 542.57 542.57 542.57 542.58
542.17 542.18 542.18 542.18 542.18 542.19 542.19 542.19 542.19 542.20 542.20 542.20 542.20 542.21 542.21 542.21 542.21 542.22 542.22 542.22 542.22 542.23 542.23 542.23 542.23 542.24 542.24 542.24 542.24 542.25 542.25 542.25 542.25 542.26 542.26 542.26 542.26 542.27 542.27 542.27 542.27 542.28 542.28 542.28 542.28 542.29 542.29 542.29 542.29 542.30 542.30 542.30 542.30 542.31 542.31 542.31 542.32 542.32 542.32 542.32 542.33 542.33 542.33 542.33 542.34 542.34 542.34 542.34 542.35 542.35 542.35 542.35 542.36 542.36 542.36 542.36 542.37 542.37 542.37 542.37 542.38 542.38 542.38 542.38 542.39 542.39 542.39 542.39 542.40 542.40 542.40 542.40 542.41 542.41 542.41 542.41 542.42 542.42 542.42 542.42 542.43 542.43 542.43 542.43 542.44 542.44 542.44 542.44 542.45 542.45 542.45 542.45 542.46 542.46 542.46 542.46 542.47 542.47 542.47 542.47 542.48 542.48 542.48 542.48 542.49 542.49 542.49 542.49 542.50 542.50 542.50 542.50 542.51 542.51 542.51 542.51 542.52 542.52 542.52 542.52 542.53 542.53 542.53 542.53 542.54 542.54 542.54 542.54 542.55 542.55 542.55 542.55 542.56 542.56 542.56 542.56 542.57 542.57 542.57 542.57
542.17 542.17 542.18 542.18 542.18 542.18 542.19 542.19 542.19 542.19 542.20 542.20 542.20 542.20 542.21 542.21 542.21 542.21 542.22 542.22 542.22 542.22 542.23 542.23 542.23 542.23 542.24 542.24 542.24 542.25 542.25 542.25 542.25 542.26 542.26 542.26 542.26 542.27 542.27 542.27 542.27 542.28 542.28 542.28 542.28 542.29 542.29 542.29 542.29 542.30 542.30 542.30 542.30 542.31 542.31 542.31 542.31 542.32 542.32 542.32 542.32 542.33 542.33 542.33 542.33 542.34 542.34 542.34 542.34 542.35 542.35 542.35 542.35 542.36 542.36 542.36 542.36 542.37 542.37 542.37 542.37 542.38 542.38 542.38 542.38 542.39 542.39 542.39 542.39 542.40 542.40 542.40 542.40 542.41 542.41 542.41 542.41 542.42 542.42 542.42 542.42 542.43 542.43 542.43 542.43 542.44 542.44 542.44 542.44 542.45 542.45 542.45 542.45 542.46 542.46 542.46 542.46 542.47 542.47 542.47 542.47 542.48 542.48 542.48 542.48 542.49 542.49 542.49 542.49 542.50 542.50 542.50 542.50 542.51 542.51 542.51 542.51 542.52 542.52 542.52 542.52 542.53 542.53 542.53 542.53 542.54 542.54 542.54 542.54 542.55 542.55 542.55 542.55 542.56 542.56 542.56 542.56 542.57 542.57 542.57
542.17 542.17 542.18 542.18 542.18 542.18 542.19 542.19 542.19 542.19 542.20 542.20 542.20 542.20 542.21 542.21 542.21 542.21 542.22 542.22 542.22 542.22 542.23 542.23 542.23 542.23 542.24 542.24 542.24 542.24 542.25 542.25 542.25 542.25 542.26 542.26 542.26 542.26 542.27 542.27 542.27 542.27 542.28 542.28 542.28 542.28 542.29 542.29 542.29 542.29 542.30 542.30 542.30 542.30 542.31 542.31 542.31 542.31 542.32 542.32 542.32 542.32 542.33 542.33 542.33 542.33 542.34 542.34 542.34 542.34 542.35 542.35 542.35 542.35 542.36 542.36 542.36 542.36 542.37 542.37 542.37 542.37 542.38 542.38 542.38 542.38 542.39 542.39 542.39 542.39 542.40 542.40 542.40 542.40 542.41 542.41 542.41 542.41 542.42 542.42 542.42 542.42 542.43 542.43 542.43 542.43 542.44 542.44 542.44 542.44 542.45 542.45 542.45 542.45 542.46 542.46 542.46 542.46 542.47 542.47 542.47 542.47 542.48 542.48 542.48 542.48 542.49 542.49 542.49 542.49 542.50 542.50 542.50 542.50 542.51 542.51 542.51 542.51 542.52 542.52 542.52 542.52 542.53 542.53 542.53 542.53 542.54 542.54 542.54 542.54 542.55 542.55 542.55 542.55 542.56 542.56 542.56 542.57 542.57 542.57
542.17 542.17 542.17 542.18 542.18 542.18 542.18 542.19 542.19 542.19 542.19 542.20 542.20 542.20 542.20 542.21 542.21 542.21 542.21 542.22 542.22 542.22 542.22 542.23 542.23 542.23 542.23 542.24 542.24 542.24 542.24 542.25 542.25 542.25 542.25 542.26 542.26 542.26 542.26 542.27 542.27 542.27 542.27 542.28 542.28 542.28 542.28 542.29 542.29 542.29 542.29 542.30 542.30 542.30 542.30 542.31 542.31 542.31 542.31 542.32 542.32 542.32 542.32 542.33 542.33 542.33 542.33 542.34 542.34 542.34 542.34 542.35 542.35 542.35 542.35 542.36 542.36 542.36 542.36 542.37 542.37 542.37 542.37 542.38 542.38 542.38 542.38 542.39 542.39 542.39 542.39 542.40 542.40 542.40 542.40 542.41 542.41 542.41 542.41 542.42 542.42 542.42 542.42 542.43 542.43 542.43 542.43 542.44 542.44 542.44 542.44 542.45 542.45 542.45 542.45 542.46 542.46 542.46 542.46 542.47 542.47 542.47 542.47 542.48 542.48 542.48 542.49 542.49 542.49 542.49 542.50 542.50 542.50 542.50 542.51 542.51 542.51 542.51 542.52 542.52 542.52 542.52 542.53 542.53 542.53 542.53 542.54 542.54 542.54 542.54 542.55 542.55 542.55 542.55 542.56 542.56 542.56 542.56 542.57 542.57
542.17 542.17 542.17 542.17 542.18 542.18 542.18 542.18 542.19 542.19 542.19 542.19 542.20 542.20 542.20 542.20 542.21 542.21 542.21 542.21 542.22 542.22 542.22 542.22 542.23 542.23 542.23 542.23 542.24 542.24 542.24 542.24 542.25 542.25 542.25 542.25 542.26 542.26 542.26 542.26 542.27 542.27 542.27 542.27 542.28 542.28 542.28 542.28 542.29 542.29 542.29 542.29 542.30 542.30 542.30 542.30 542.31 542.31 542.31 542.31 542.32 542.32 542.32 542.32 542.33 542.33 542.33 542.33 542.34 542.34 542.34 542.34 542.35 542.35 542.35 542.35 542.36 542.36 542.36 542.36 542.37 542.37 542.37 542.37 542.38 542.38 542.38 542.38 542.39 542.39 542.39 542.39 542.40 542.40 542.40 542.41 542.41 542.41 542.41 542.42 542.42 542.42 542.42 542.43 542.43 542.43 542.43 542.44 542.44 542.44 542.44 542.45 542.45 542.45 542.45 542.46 542.46 542.46 542.46 542.47 542.47 542.47 542.47 542.48 542.48 542.48 542.48 542.49 542.49 542.49 542.49 542.50 542.50 542.50 542.50 542.51 542.51 542.51 542.51 542.52 542.52 542.52 542.52 542.53 542.53 542.53 542.53 542.54 542.54 542.54 542.54 542.55 542.55 542.55 542.55 542.56 542.56 542.56 542.56 542.57
542.16 542.17 542.17 542.17 542.17 542.18 542.18 542.18 542.18 542.19 542.19 542.19 542.19 542.20 542.20 542.20 542.20 542.21 542.21 542.21 542.21 542.22 542.22 542.22 542.22 542.23 542.23 542.23 542.23 542.24 542.24 542.24 542.24 542.25 542.25 542.25 542.25 542.26 542.26 542.26 542.26 542.27 542.27 542.27 542.27 542.28 542.28 542.28 542.28 542.29 542.29 542.29 542.29 542.30 542.30 542.30 542.30 542.31 542.31 542.31 542.32 542.32 542.32 542.32 542.33 542.33 542.33 542.33 542.34 542.34 542.34 542.34 542.35 542.35 542.35 542.35 542.36 542.36 542.36 542.36 542.37 542.37 542.37 542.37 542.38 542.38 542.38 542.38 542.39 542.39 542.39 542.39 542.40 542.40 542.40 542.40 542.41 542.41 542.41 542.41 542.42 542.42 542.42 542.42 542.43 542.43 542.43 542.43 542.44 542.44 542.44 542.44 542.45 542.45 542.45 542.45 542.46 542.46 542.46 542.46 542.47 542.47 542.47 542.47 542.48 542.48 542.48 542.48 542.49 542.49 542.49 542.49 542.50 542.50 542.50 542.50 542.51 542.51 542.51 542.51 542.52 542.52 542.52 542.52 542.53 542.53 542.53 542.53 542.54 542.54 542.54 542.54 542.55 542.55 542.55 542.55 542.56 542.56 542.56 542.56
542.16 542.16 542.17 542.17 542.17 542.17 542.18 542.18 542.18 542.18 542.19 542.19 542.19 542.19 542.20 542.20 542.20 542.20 542.21 542.21 542.21 542.21 542.22 542.22 542.22 542.22 542.23 542.23 542.23 542.23 542.24 542.24 542.24 542.25 542.25 542.25 542.25 542.26 542.26 542.26 542.26 542.27 542.27 542.27 542.27 542.28 542.28 542.28 542.28 542.29 542.29 542.29 542.29 542.30 542.30 542.30 542.30 542.31 542.31 542.31 542.31 542.32 542.32 542.32 542.32 542.33 542.33 542.33 542.33 542.34 542.34 542.34 542.34 542.35 542.35 542.35 542.35 542.36 542.36 542.36 542.36 542.37 542.37 542.37 542.37 542.38 542.38 542.38 542.38 542.39 542.39 542.39 542.39 542.40 542.40 542.40 542.40 542.41 542.41 542.41 542.41 542.42 542.42 542.42 542.42 542.43 542.43 542.43 542.43 542.44 542.44 542.44 542.44 542.45 542.45 542.45 542.45 542.46 542.46 542.46 542.46 542.47 542.47 542.47 542.47 542.48 542.48 542.48 542.48 542.49 542.49 542.49 542.49 542.50 542.50 542.50 542.50 542.51 542.51 542.51 542.51 542.52 542.52 542.52 542.52 542.53 542.53 542.53 542.53 542.54 542.54 542.54 542.54 542.55 542.55 542.55 542.55 542.56 542.56 542.56
542.16 542.16 542.17 542.17 542.17 542.17 542.18 542.18 542.18 542.18 542.19 542.19 542.19 542.19 542.20 542.20 542.20 542.20 542.21 542.21 542.21 542.21 542.22 542.22 542.22 542.22 542.23 542.23 542.23 542.23 542.24 542.24 542.24 542.24 542.25 542.25 542.25 542.25 542.26 542.26 542.26 542.26 542.27 542.27 542.27 542.27 542.28 542.28 542.28 542.28 542.29 542.29 542.29 542.29 542.30 542.30 542.30 542.30 542.31 542.31 542.31 542.31 542.32 542.32 542.32 542.32 542.33 542.33 542.33 542.33 542.34 542.34 542.34 542.34 542.35 542.35 542.35 542.35 542.36 542.36 542.36 542.36 542.37 542.37 542.37 542.37 542.38 542.38 542.38 542.38 542.39 542.39 542.39 542.39 542.40 542.40 542.40 542.40 542.41 542.41 542.41 542.41 542.42 542.42 542.42 542.42 542.43 542.43 542.43 542.43 542.44 542.44 542.44 542.44 542.45 542.45 542.45 542.45 542.46 542.46 542.46 542.46 542.47 542.47 542.47 542.47 542.48 542.48 542.48 542.48 542.49 542.49 542.49 542.49 542.50 542.50 542.50 542.50 542.51 542.51 542.51 542.51 542.52 542.52 542.52 542.52 542.53 542.53 542.53 542.53 542.54 542.54 542.54 542.54 542.55 542.55 542.55 542.55 542.56 542.56
